%
(1001)
(T31  D=0.25 CR=0. - ZMIN=-0.26 - flat end mill)
G90 G54 G64 G50 G17 G40 G80 G94 G91.1 G49
G20 (Inch)
G30

N10(Bore3)
T31 G43 H31 M6
S4500 M3 M9
G54
G0 X-3.4755 Y-0.0387
G0 Z0.6
G0 Z0.08
G1 Z0.025 F10.
G1 Y-0.039 Z0.0211
G1 Y-0.0399 Z0.0173
G1 Y-0.0414 Z0.0137
G1 Y-0.0435 Z0.0103
G1 Y-0.046 Z0.0073
G1 Y-0.049 Z0.0048
G1 Y-0.0524 Z0.0027
G1 Y-0.056 Z0.0012
G1 Y-0.0598 Z0.0003
G1 Y-0.0637 Z0.
G1 Y-0.0762
G3 X-3.4505 Y-0.1012 I0.025 J0.
G3 Y0.1012 Z-0.0197 I0. J0.1012 F13.5
G3 Y-0.1012 Z-0.0394 I0. J-0.1012
G3 Y0.1012 Z-0.0591 I0. J0.1012
G3 Y-0.1012 Z-0.0787 I0. J-0.1012
G3 Y0.1012 Z-0.0984 I0. J0.1012
G3 Y-0.1012 Z-0.1181 I0. J-0.1012
G3 Y0.1012 Z-0.1378 I0. J0.1012
G3 Y-0.1012 Z-0.1575 I0. J-0.1012
G3 Y0.1012 Z-0.1772 I0. J0.1012
G3 Y-0.1012 Z-0.1969 I0. J-0.1012
G3 Y0.1012 Z-0.2165 I0. J0.1012
G3 Y-0.1012 Z-0.2362 I0. J-0.1012
G3 Y0.1012 Z-0.2559 I0. J0.1012
G3 X-3.512 Y0.0804 Z-0.26 I0. J-0.1012
G3 X-3.3889 Y-0.0804 I0.0615 J-0.0804
G3 X-3.512 Y0.0804 I-0.0615 J0.0804
G3 X-3.5166 Y0.0453 I0.0152 J-0.0198 F10.
G1 X-3.509 Y0.0354
G1 X-3.5067 Y0.0323 Z-0.2597
G1 X-3.5043 Y0.0293 Z-0.2588
G1 X-3.5021 Y0.0264 Z-0.2573
G1 X-3.5001 Y0.0237 Z-0.2552
G1 X-3.4983 Y0.0214 Z-0.2527
G1 X-3.4967 Y0.0193 Z-0.2497
G1 X-3.4955 Y0.0177 Z-0.2463
G1 X-3.4946 Y0.0165 Z-0.2427
G1 X-3.494 Y0.0158 Z-0.2389
G1 X-3.4938 Y0.0155 Z-0.235
G0 Z0.6

N20(2D Contour3)
S4500 M3 M9
G0 X-3.4142 Y-0.025
G0 Z0.6
G0 Z0.2
G1 Z0.0394 F4.
G1 Z-0.235
G1 X-3.4139 Z-0.2389
G1 X-3.413 Z-0.2427
G1 X-3.4115 Z-0.2463
G1 X-3.4095 Z-0.2497
G1 X-3.4069 Z-0.2527
G1 X-3.4039 Z-0.2552
G1 X-3.4006 Z-0.2573
G1 X-3.397 Z-0.2588
G1 X-3.3931 Z-0.2597
G1 X-3.3892 Z-0.26
G1 X-3.3642 F10.
G3 X-3.3392 Y0. I0. J0.025
G3 X-3.5617 I-0.1112 J0. F13.5
G3 X-3.3392 I0.1112 J0.
G3 X-3.5617 I-0.1112 J0.
G3 X-3.3392 I0.1112 J0.
G3 X-3.3642 Y0.025 I-0.025 J0. F10.
G1 X-3.3892
G1 X-3.3931 Z-0.2597
G1 X-3.397 Z-0.2588
G1 X-3.4006 Z-0.2573
G1 X-3.4039 Z-0.2552
G1 X-3.4069 Z-0.2527
G1 X-3.4095 Z-0.2497
G1 X-3.4115 Z-0.2463
G1 X-3.413 Z-0.2427
G1 X-3.4139 Z-0.2389
G1 X-3.4142 Z-0.235
G0 Z0.6

N30(2D Adaptive2)
S4500 M3 M9
G0 X-4.5258 Y-1.9131
G0 Z0.6
G0 Z0.2
G0 Z-0.05
G1 Z-0.075 F10.
G1 X-4.5257 Y-1.9128 Z-0.0789
G1 X-4.5255 Y-1.9119 Z-0.0827
G1 X-4.5251 Y-1.9104 Z-0.0863
G1 X-4.5246 Y-1.9084 Z-0.0897
G1 X-4.524 Y-1.906 Z-0.0927
G1 X-4.5232 Y-1.9031 Z-0.0952
G1 X-4.5224 Y-1.8998 Z-0.0973
G1 X-4.5215 Y-1.8963 Z-0.0988
G1 X-4.5205 Y-1.8926 Z-0.0997
G1 X-4.5196 Y-1.8888 Z-0.1
G3 X-4.5 Y-1.7527 I-0.6183 J0.1584
G1 Y-1.7467 F13.5
G1 X-4.5075 Y-1.7099
G1 X-4.5128 Y-1.6726
G1 X-4.5165 Y-1.6352
G1 X-4.5191 Y-1.5977
G1 X-4.5209 Y-1.5601
G1 X-4.5222 Y-1.5225
G1 X-4.523 Y-1.4849
G1 X-4.5236 Y-1.4473
G1 X-4.5241 Y-1.4097
G1 X-4.5243 Y-1.3721
G1 X-4.5245 Y-1.3345
G1 X-4.5247 Y-1.2969
G1 X-4.5248 Y-1.2217
G1 X-4.5249 Y-1.1088
G1 X-4.525 Y-0.7327
G1 Y0.2452
G1 Y1.5053
G1 X-4.5242 Y1.5146
G1 X-4.5195 Y1.5328
G1 X-4.5001 Y1.5651
G1 X-4.4714 Y1.5894
G1 X-4.4382 Y1.6071
G1 X-4.4028 Y1.6198
G1 X-4.3663 Y1.6289
G1 X-4.3293 Y1.6352
G1 X-4.2919 Y1.6397
G1 X-4.2544 Y1.6428
G1 X-4.2169 Y1.645
G1 X-4.1793 Y1.6466
G1 X-4.1417 Y1.6476
G1 X-4.1041 Y1.6483
G1 X-4.0665 Y1.6488
G1 X-4.0289 Y1.6492
G1 X-3.9913 Y1.6494
G1 X-3.9536 Y1.6496
G1 X-3.8784 Y1.6498
G1 X-3.8408 Y1.6499
G1 X-3.6904 Y1.65
G1 X-2.6372
G1 X-1.8473
G1 X0.1461
G1 X2.1396
G1 X4.1331
G1 X4.3869
G1 X4.3962 Y1.6485
G1 X4.4141 Y1.6425
G1 X4.4449 Y1.6209
G1 X4.4679 Y1.5912
G1 X4.4846 Y1.5575
G1 X4.4966 Y1.5218
G1 X4.5051 Y1.4852
G1 X4.5111 Y1.4481
G1 X4.5153 Y1.4107
G1 X4.5183 Y1.3732
G1 X4.5203 Y1.3356
G1 X4.5218 Y1.2981
G1 X4.5228 Y1.2605
G1 X4.5234 Y1.2229
G1 X4.5239 Y1.1852
G1 X4.5243 Y1.1476
G1 X4.5245 Y1.11
G1 X4.5246 Y1.0724
G1 X4.5248 Y0.9972
G1 X4.5249 Y0.8843
G1 X4.525 Y0.5458
G1 Y-0.0184
G1 Y-1.5041
G1 X4.5245 Y-1.5134
G1 X4.5205 Y-1.5318
G1 X4.5015 Y-1.5643
G1 X4.473 Y-1.5888
G1 X4.4399 Y-1.6067
G1 X4.4045 Y-1.6195
G1 X4.368 Y-1.6286
G1 X4.331 Y-1.6351
G1 X4.2936 Y-1.6396
G1 X4.2562 Y-1.6428
G1 X4.2186 Y-1.645
G1 X4.181 Y-1.6465
G1 X4.1434 Y-1.6476
G1 X4.1058 Y-1.6483
G1 X4.0682 Y-1.6488
G1 X4.0306 Y-1.6492
G1 X3.993 Y-1.6494
G1 X3.9554 Y-1.6496
G1 X3.8802 Y-1.6498
G1 X3.7673 Y-1.6499
G1 X3.4664 Y-1.65
G1 X2.0748
G1 X0.0813
G1 X-1.9122
G1 X-3.9056
G1 X-4.2818
G1 X-4.3 Y-1.6453
G1 X-4.333 Y-1.6273
G1 X-4.3584 Y-1.5995
G1 X-4.3772 Y-1.5669
G1 X-4.3909 Y-1.5319
G1 X-4.4008 Y-1.4956
G1 X-4.4079 Y-1.4587
G1 X-4.413 Y-1.4214
G1 X-4.4165 Y-1.384
G1 X-4.419 Y-1.3465
G1 X-4.4208 Y-1.3089
G1 X-4.4221 Y-1.2713
G1 X-4.4229 Y-1.2337
G1 X-4.4236 Y-1.1961
G1 X-4.424 Y-1.1585
G1 X-4.4243 Y-1.1209
G1 X-4.4245 Y-1.0833
G1 X-4.4247 Y-1.0456
G1 X-4.4248 Y-0.9704
G1 X-4.4249 Y-0.8576
G1 X-4.425 Y-0.5191
G1 Y-0.1053
G1 Y1.3804
G1 X-4.4215 Y1.3988
G1 X-4.4076 Y1.4338
G1 X-4.3834 Y1.4626
G1 X-4.3533 Y1.4852
G1 X-4.3199 Y1.5024
G1 X-4.2845 Y1.5152
G1 X-4.2481 Y1.5248
G1 X-4.2112 Y1.5317
G1 X-4.1739 Y1.5368
G1 X-4.1365 Y1.5405
G1 X-4.099 Y1.5432
G1 X-4.0614 Y1.5451
G1 X-4.0238 Y1.5465
G1 X-3.9862 Y1.5475
G1 X-3.9486 Y1.5482
G1 X-3.911 Y1.5487
G1 X-3.8734 Y1.5491
G1 X-3.8358 Y1.5494
G1 X-3.7982 Y1.5495
G1 X-3.723 Y1.5498
G1 X-3.6101 Y1.5499
G1 X-3.3844 Y1.55
G1 X-1.9928
G1 X0.0007
G1 X1.9942
G1 X3.9876
G1 X4.2509
G1 X4.2696 Y1.5475
G1 X4.3051 Y1.5352
G1 X4.3346 Y1.5119
G1 X4.3579 Y1.4824
G1 X4.3757 Y1.4492
G1 X4.389 Y1.4141
G1 X4.3988 Y1.3778
G1 X4.4061 Y1.3408
G1 X4.4114 Y1.3036
G1 X4.4152 Y1.2662
G1 X4.418 Y1.2287
G1 X4.42 Y1.1911
G1 X4.4214 Y1.1535
G1 X4.4224 Y1.1159
G1 X4.4232 Y1.0783
G1 X4.4237 Y1.0407
G1 X4.4241 Y1.0031
G1 X4.4243 Y0.9655
G1 X4.4245 Y0.9279
G1 X4.4248 Y0.8527
G1 X4.4249 Y0.7398
G1 X4.425 Y0.5141
G1 Y-0.0877
G1 Y-1.3665
G1 X4.4244 Y-1.3853
G1 X4.42 Y-1.4036
G1 X4.4046 Y-1.4379
G1 X4.3795 Y-1.4659
G1 X4.3489 Y-1.4877
G1 X4.3151 Y-1.5043
G1 X4.2796 Y-1.5167
G1 X4.2431 Y-1.5258
G1 X4.2061 Y-1.5325
G1 X4.1688 Y-1.5374
G1 X4.1314 Y-1.5409
G1 X4.0938 Y-1.5435
G1 X4.0563 Y-1.5454
G1 X4.0187 Y-1.5467
G1 X3.9811 Y-1.5476
G1 X3.9435 Y-1.5483
G1 X3.9059 Y-1.5488
G1 X3.8683 Y-1.5491
G1 X3.8306 Y-1.5494
G1 X3.793 Y-1.5496
G1 X3.7178 Y-1.5498
G1 X3.605 Y-1.5499
G1 X3.3417 Y-1.55
G1 X1.7996
G1 X-0.1939
G1 X-2.1874
G1 X-4.1432
G1 X-4.162 Y-1.5484
G1 X-4.1981 Y-1.538
G1 X-4.2287 Y-1.516
G1 X-4.253 Y-1.4874
G1 X-4.2717 Y-1.4547
G1 X-4.2859 Y-1.4199
G1 X-4.2964 Y-1.3838
G1 X-4.3042 Y-1.347
G1 X-4.3099 Y-1.3098
G1 X-4.3141 Y-1.2724
G1 X-4.3171 Y-1.2349
G1 X-4.3193 Y-1.1974
G1 X-4.3209 Y-1.1598
G1 X-4.3221 Y-1.1222
G1 X-4.3229 Y-1.0846
G1 X-4.3235 Y-1.047
G1 X-4.3239 Y-1.0094
G1 X-4.3242 Y-0.9718
G1 X-4.3244 Y-0.9342
G1 X-4.3246 Y-0.8966
G1 X-4.3248 Y-0.8213
G1 X-4.3249 Y-0.7085
G1 X-4.325 Y-0.4452
G1 Y0.3823
G1 Y1.2474
G1 X-4.3245 Y1.285
G1 X-4.3116 Y1.3203
G1 X-4.289 Y1.3504
G1 X-4.2602 Y1.3746
G1 X-4.2277 Y1.3934
G1 X-4.193 Y1.4079
G1 X-4.157 Y1.4188
G1 X-4.1203 Y1.427
G1 X-4.0832 Y1.4331
G1 X-4.0458 Y1.4377
G1 X-4.0084 Y1.441
G1 X-3.9708 Y1.4434
G1 X-3.9333 Y1.4452
G1 X-3.8957 Y1.4465
G1 X-3.8581 Y1.4475
G1 X-3.8205 Y1.4482
G1 X-3.7829 Y1.4487
G1 X-3.7452 Y1.449
G1 X-3.7076 Y1.4493
G1 X-3.67 Y1.4495
G1 X-3.5948 Y1.4497
G1 X-3.482 Y1.4499
G1 X-3.2939 Y1.45
G1 X-1.3004
G1 X0.693
G1 X2.3624
G1 X2.3678 Y1.4502
G1 X2.3731 Y1.451
G1 X2.3783 Y1.4522
G1 X2.4443 Y1.471
G1 X2.4528 Y1.4733
G1 X2.4568 Y1.4744
G1 X2.4785 Y1.4784
G1 X2.487 Y1.48
G1 X2.5896 Y1.4979
G1 X2.5981 Y1.4993
G1 X2.6238 Y1.5028
G1 X2.7605 Y1.5122
G1 X2.769 Y1.5124
G1 X2.7861 Y1.5122
G1 X2.7947 Y1.5121
G1 X2.9058 Y1.5081
G1 X2.9314 Y1.5068
G1 X2.94 Y1.5057
G1 X3.034 Y1.4925
G1 X3.0682 Y1.4877
G1 X3.0767 Y1.4863
G1 X3.0938 Y1.4828
G1 X3.1024 Y1.4809
G1 X3.1194 Y1.4767
G1 X3.1564 Y1.4694
G1 X3.1935 Y1.4634
G1 X3.2309 Y1.4592
G1 X3.2684 Y1.4564
G1 X3.3059 Y1.4544
G1 X3.3435 Y1.453
G1 X3.3811 Y1.4521
G1 X3.4187 Y1.4515
G1 X3.4563 Y1.451
G1 X3.4939 Y1.4507
G1 X3.5316 Y1.4505
G1 X3.5692 Y1.4503
G1 X3.6444 Y1.4502
G1 X3.7572 Y1.4501
G1 X4.0957 Y1.45
G1 X4.1334
G1 X4.1708 Y1.4465
G1 X4.2048 Y1.4304
G1 X4.2332 Y1.4057
G1 X4.2557 Y1.3756
G1 X4.2732 Y1.3423
G1 X4.2866 Y1.3072
G1 X4.2966 Y1.2709
G1 X4.3041 Y1.2341
G1 X4.3097 Y1.1969
G1 X4.3138 Y1.1595
G1 X4.3168 Y1.122
G1 X4.3191 Y1.0844
G1 X4.3207 Y1.0469
G1 X4.3219 Y1.0093
G1 X4.3227 Y0.9717
G1 X4.3233 Y0.934
G1 X4.3238 Y0.8964
G1 X4.3241 Y0.8588
G1 X4.3244 Y0.8212
G1 X4.3245 Y0.7836
G1 X4.3248 Y0.7084
G1 X4.3249 Y0.5955
G1 Y0.5579
G1 X4.325 Y0.2194
G1 Y-1.2475
G1 X4.3244 Y-1.2851
G1 X4.3115 Y-1.3204
G1 X4.2889 Y-1.3505
G1 X4.26 Y-1.3746
G1 X4.2275 Y-1.3935
G1 X4.1928 Y-1.4079
G1 X4.1568 Y-1.4189
G1 X4.1201 Y-1.4271
G1 X4.083 Y-1.4332
G1 X4.0456 Y-1.4377
G1 X4.0082 Y-1.441
G1 X3.9706 Y-1.4434
G1 X3.933 Y-1.4452
G1 X3.8955 Y-1.4465
G1 X3.8579 Y-1.4475
G1 X3.8203 Y-1.4482
G1 X3.7826 Y-1.4487
G1 X3.745 Y-1.449
G1 X3.7074 Y-1.4493
G1 X3.6698 Y-1.4495
G1 X3.5946 Y-1.4497
G1 X3.4817 Y-1.4499
G1 X3.2561 Y-1.45
G1 X3.2336
G1 X3.2285 Y-1.4502
G1 X3.2235 Y-1.4509
G1 X3.2185 Y-1.452
G1 X3.2135 Y-1.4533
G1 X3.1024 Y-1.4809
G1 X3.093 Y-1.4829
G1 X3.0767 Y-1.4863
G1 X3.0682 Y-1.4877
G1 X2.9485 Y-1.5045
G1 X2.94 Y-1.5057
G1 X2.9314 Y-1.5068
G1 X2.9058 Y-1.5081
G1 X2.7947 Y-1.5121
G1 X2.7861 Y-1.5122
G1 X2.769 Y-1.5124
G1 X2.7605 Y-1.5122
G1 X2.6238 Y-1.5028
G1 X2.5981 Y-1.4993
G1 X2.5896 Y-1.4979
G1 X2.487 Y-1.48
G1 X2.4785 Y-1.4784
G1 X2.4568 Y-1.4744
G1 X2.4528 Y-1.4733
G1 X2.4239 Y-1.4668
G1 X2.3867 Y-1.4616
G1 X2.3492 Y-1.458
G1 X2.3117 Y-1.4555
G1 X2.2741 Y-1.4538
G1 X2.2365 Y-1.4526
G1 X2.1989 Y-1.4518
G1 X2.1613 Y-1.4513
G1 X2.1237 Y-1.4509
G1 X2.0861 Y-1.4506
G1 X2.0485 Y-1.4504
G1 X1.9733 Y-1.4502
G1 X1.8604 Y-1.4501
G1 X1.5971 Y-1.45
G1 X0.4687
G1 X-1.5247
G1 X-3.5182
G1 X-4.0448
G1 X-4.0815 Y-1.442
G1 X-4.1138 Y-1.4227
G1 X-4.1403 Y-1.396
G1 X-4.1611 Y-1.3647
G1 X-4.1773 Y-1.3307
G1 X-4.1895 Y-1.2952
G1 X-4.1988 Y-1.2587
G1 X-4.2057 Y-1.2217
G1 X-4.2108 Y-1.1845
G1 X-4.2146 Y-1.1471
G1 X-4.2174 Y-1.1095
G1 X-4.2194 Y-1.072
G1 X-4.2209 Y-1.0344
G1 X-4.222 Y-0.9968
G1 X-4.2229 Y-0.9592
G1 X-4.2234 Y-0.9216
G1 X-4.2239 Y-0.884
G1 X-4.2242 Y-0.8464
G1 X-4.2244 Y-0.8088
G1 X-4.2246 Y-0.7712
G1 X-4.2248 Y-0.6959
G1 X-4.2249 Y-0.5831
G1 X-4.225 Y-0.3574
G1 Y-0.0565
G1 Y1.1471
G1 X-4.2228 Y1.1846
G1 X-4.2087 Y1.2195
G1 X-4.1855 Y1.2491
G1 X-4.1565 Y1.2731
G1 X-4.1239 Y1.2919
G1 X-4.0892 Y1.3064
G1 X-4.0533 Y1.3175
G1 X-4.0166 Y1.3258
G1 X-3.9795 Y1.3321
G1 X-3.9422 Y1.3368
G1 X-3.9048 Y1.3402
G1 X-3.8672 Y1.3428
G1 X-3.8297 Y1.3447
G1 X-3.7921 Y1.3461
G1 X-3.7545 Y1.3472
G1 X-3.7169 Y1.3479
G1 X-3.6793 Y1.3485
G1 X-3.6417 Y1.3489
G1 X-3.6041 Y1.3492
G1 X-3.5664 Y1.3494
G1 X-3.5288 Y1.3496
G1 X-3.4536 Y1.3498
G1 X-3.3408 Y1.3499
G1 X-3.1151 Y1.35
G1 X-1.5354
G1 X0.4581
G1 X2.1021
G1 X2.1115 Y1.3508
G1 X2.1206 Y1.353
G1 X2.1293 Y1.3567
G1 X2.1452 Y1.3651
G1 X2.1537 Y1.3692
G1 X2.1708 Y1.3771
G1 X2.1782 Y1.3803
G1 X2.2849 Y1.4231
G1 X2.2904 Y1.4252
G1 X2.308 Y1.4316
G1 X2.3161 Y1.4345
G1 X2.3783 Y1.4522
G1 X2.4081 Y1.4607 F10.
G1 X2.4357 Y1.4685 F13.5
G1 X2.4443 Y1.471
G1 X2.4528 Y1.4733
G1 X2.4568 Y1.4744
G1 X2.4785 Y1.4784
G1 X2.487 Y1.48
G1 X2.5896 Y1.4979
G1 X2.5981 Y1.4993
G1 X2.6238 Y1.5028
G1 X2.7605 Y1.5122
G1 X2.769 Y1.5124
G1 X2.7861 Y1.5122
G1 X2.7947 Y1.5121
G1 X2.9058 Y1.5081
G1 X2.9314 Y1.5068
G1 X2.94 Y1.5057
G1 X3.0682 Y1.4877
G1 X3.0767 Y1.4863
G1 X3.0893 Y1.4837
G1 X3.0938 Y1.4828 F10.
G1 X3.1024 Y1.4809
G1 X3.1194 Y1.4767
G1 X3.2135 Y1.4533 F13.5
G1 X3.2391 Y1.4465
G1 X3.2476 Y1.4436
G1 X3.3587 Y1.4033
G1 X3.3758 Y1.3971
G1 X3.3844 Y1.3937
G1 X3.4044 Y1.3857
G1 X3.434 Y1.3765
G1 X3.4707 Y1.3683
G1 X3.5079 Y1.3627
G1 X3.5453 Y1.3588
G1 X3.5828 Y1.3561
G1 X3.6204 Y1.3543
G1 X3.658 Y1.353
G1 X3.6956 Y1.3521
G1 X3.7332 Y1.3514
G1 X3.7708 Y1.351
G1 X3.8084 Y1.3507
G1 X3.846 Y1.3505
G1 X3.8836 Y1.3503
G1 X3.9588 Y1.3502
G1 X4.0341 Y1.3501
G1 X4.0712 Y1.3442
G1 X4.1046 Y1.3268
G1 X4.1324 Y1.3015
G1 X4.1546 Y1.2712
G1 X4.172 Y1.2378
G1 X4.1853 Y1.2026
G1 X4.1954 Y1.1664
G1 X4.2031 Y1.1296
G1 X4.2088 Y1.0924
G1 X4.213 Y1.055
G1 X4.2162 Y1.0175
G1 X4.2185 Y0.98
G1 X4.2202 Y0.9424
G1 X4.2215 Y0.9048
G1 X4.2224 Y0.8672
G1 X4.2231 Y0.8296
G1 X4.2236 Y0.792
G1 X4.224 Y0.7544
G1 X4.2243 Y0.7168
G1 X4.2245 Y0.6792
G1 X4.2247 Y0.604
G1 X4.2249 Y0.4911
G1 X4.225 Y0.3031
G1 Y0.115
G1 Y-1.1638
G1 X4.2175 Y-1.2007
G1 X4.1989 Y-1.2334
G1 X4.1728 Y-1.2605
G1 X4.142 Y-1.2821
G1 X4.1083 Y-1.2988
G1 X4.073 Y-1.3117
G1 X4.0367 Y-1.3215
G1 X3.9998 Y-1.3288
G1 X3.9626 Y-1.3343
G1 X3.9252 Y-1.3384
G1 X3.8877 Y-1.3415
G1 X3.8502 Y-1.3437
G1 X3.8126 Y-1.3454
G1 X3.775 Y-1.3466
G1 X3.7374 Y-1.3475
G1 X3.6998 Y-1.3482
G1 X3.6622 Y-1.3487
G1 X3.6246 Y-1.349
G1 X3.5869 Y-1.3493
G1 X3.5493 Y-1.3495
G1 X3.4892 Y-1.3497
G1 X3.4805 Y-1.3504
G1 X3.472 Y-1.3523
G1 X3.4639 Y-1.3555
G1 X3.4015 Y-1.3858
G1 X3.3929 Y-1.3897
G1 X3.3844 Y-1.3937
G1 X3.3758 Y-1.3971
G1 X3.3417 Y-1.4095
G1 X3.2476 Y-1.4436
G1 X3.2391 Y-1.4465
G1 X3.2185 Y-1.452
G1 X3.2135 Y-1.4533 F10.
G1 X3.1885 Y-1.4595
G1 X3.1024 Y-1.4809 F13.5
G1 X3.0938 Y-1.4828
G1 X3.0767 Y-1.4863
G1 X3.0682 Y-1.4877
G1 X2.94 Y-1.5057
G1 X2.9314 Y-1.5068
G1 X2.9058 Y-1.5081
G1 X2.7947 Y-1.5121
G1 X2.7861 Y-1.5122
G1 X2.769 Y-1.5124
G1 X2.7605 Y-1.5122
G1 X2.6323 Y-1.5034
G1 X2.6238 Y-1.5028
G1 X2.5981 Y-1.4993
G1 X2.5896 Y-1.4979
G1 X2.487 Y-1.48
G1 X2.4832 Y-1.4793
G1 X2.4785 Y-1.4784 F10.
G1 X2.4568 Y-1.4744
G1 X2.4528 Y-1.4733
G1 X2.4443 Y-1.471 F13.5
G1 X2.3161 Y-1.4345
G1 X2.299 Y-1.4283
G1 X2.2904 Y-1.4252
G1 X2.2849 Y-1.4231
G1 X2.2135 Y-1.3945
G1 X2.178 Y-1.3823
G1 X2.1444 Y-1.373
G1 X2.1075 Y-1.3659
G1 X2.0702 Y-1.361
G1 X2.0327 Y-1.3577
G1 X1.9952 Y-1.3553
G1 X1.9576 Y-1.3537
G1 X1.92 Y-1.3526
G1 X1.8824 Y-1.3518
G1 X1.8448 Y-1.3513
G1 X1.8072 Y-1.3509
G1 X1.7696 Y-1.3506
G1 X1.732 Y-1.3504
G1 X1.6567 Y-1.3502
G1 X1.5439 Y-1.3501
G1 X1.2806 Y-1.35
G1 X0.2275
G1 X-1.766
G1 X-3.7595
G1 X-3.9099
G1 X-3.9475 Y-1.3499
G1 X-3.9836 Y-1.3392
G1 X-4.0149 Y-1.3184
G1 X-4.0406 Y-1.2909
G1 X-4.061 Y-1.2593
G1 X-4.0768 Y-1.2252
G1 X-4.089 Y-1.1896
G1 X-4.0982 Y-1.1531
G1 X-4.1051 Y-1.1162
G1 X-4.1102 Y-1.0789
G1 X-4.1141 Y-1.0415
G1 X-4.1169 Y-1.004
G1 X-4.1191 Y-0.9664
G1 X-4.1206 Y-0.9288
G1 X-4.1218 Y-0.8913
G1 X-4.1226 Y-0.8536
G1 X-4.1233 Y-0.816
G1 X-4.1237 Y-0.7784
G1 X-4.1241 Y-0.7408
G1 X-4.1243 Y-0.7032
G1 X-4.1245 Y-0.6656
G1 X-4.1247 Y-0.5904
G1 X-4.1249 Y-0.4775
G1 X-4.125 Y-0.2743
G1 X-4.1255 Y-0.2667
G1 X-4.127 Y-0.2592
G1 X-4.1294 Y-0.252
G1 X-4.1365 Y-0.235
G1 X-4.1392 Y-0.2265
G1 X-4.145 Y-0.2071
G1 X-4.165 Y-0.1239
G1 X-4.1662 Y-0.1154
G1 X-4.1686 Y-0.0983
G1 X-4.1694 Y-0.0897
G1 X-4.1748 Y-0.0214
G1 X-4.1754 Y-0.0128
G1 Y0.0128
G1 X-4.1741 Y0.0299
G1 X-4.1694 Y0.0897
G1 X-4.1686 Y0.0983
G1 X-4.1662 Y0.1154
G1 X-4.165 Y0.1239
G1 X-4.1527 Y0.1752
G1 X-4.1457 Y0.2122
G1 X-4.1392 Y0.2492
G1 X-4.1348 Y0.2866
G1 X-4.1318 Y0.3241
G1 X-4.1297 Y0.3616
G1 X-4.1282 Y0.3992
G1 X-4.1272 Y0.4368
G1 X-4.1266 Y0.4744
G1 X-4.1261 Y0.512
G1 X-4.1257 Y0.5496
G1 X-4.1255 Y0.5872
G1 X-4.1254 Y0.6249
G1 X-4.1252 Y0.7001
G1 X-4.1251 Y0.8129
G1 X-4.125 Y1.0386
G1 X-4.1239 Y1.0762
G1 X-4.1113 Y1.1117
G1 X-4.0895 Y1.1423
G1 X-4.0614 Y1.1673
G1 X-4.0294 Y1.1871
G1 X-3.9951 Y1.2025
G1 X-3.9594 Y1.2143
G1 X-3.9229 Y1.2233
G1 X-3.8859 Y1.2301
G1 X-3.8486 Y1.2352
G1 X-3.8112 Y1.239
G1 X-3.7737 Y1.2419
G1 X-3.7362 Y1.244
G1 X-3.6986 Y1.2455
G1 X-3.661 Y1.2467
G1 X-3.6234 Y1.2476
G1 X-3.5858 Y1.2482
G1 X-3.5482 Y1.2487
G1 X-3.5106 Y1.249
G1 X-3.4729 Y1.2493
G1 X-3.4353 Y1.2495
G1 X-3.3601 Y1.2497
G1 X-3.2473 Y1.2499
G1 X-3.0968 Y1.25
G1 X-2.1189
G1 X-1.1034
G1 X0.8901
G1 X1.9292
G1 X1.9406 Y1.2511
G1 X1.9515 Y1.2544
G1 X1.9616 Y1.2598
G1 X2.0084 Y1.2911
G1 X2.0255 Y1.302
G1 X2.034 Y1.3065
G1 X2.1293 Y1.3567
G1 X2.141 Y1.3718 F10.
G1 X2.1429 Y1.3835
G1 X2.155 Y1.4573 F13.5
G2 X2.2135 Y1.5343 I0.0975 J-0.0134
G1 X2.299 Y1.5636
G1 X2.4443 Y1.605
G1 X2.5896 Y1.6275
G1 X2.769 Y1.642
G1 X2.9485 Y1.636
G1 X3.1194 Y1.6102
G1 X3.1793 Y1.5954
G2 X3.2322 Y1.5684 I-0.0161 J-0.0971
G1 X3.2948 Y1.5
G1 X3.3614 Y1.414
G1 X3.3676 Y1.406 F10.
G1 X3.3844 Y1.3937
G1 X3.3948 Y1.3889 F13.5
G1 X3.4015 Y1.3858
G1 X3.5211 Y1.3277
G1 X3.5468 Y1.3125
G1 X3.5722 Y1.299
G1 X3.5932 Y1.29
G1 X3.6209 Y1.2806
G1 X3.6574 Y1.2714
G1 X3.6944 Y1.265
G1 X3.7318 Y1.2605
G1 X3.7693 Y1.2574
G1 X3.8068 Y1.2552
G1 X3.8444 Y1.2537
G1 X3.882 Y1.2526
G1 X3.9196 Y1.2518
G1 X3.9571 Y1.2487
G1 X3.9918 Y1.2343
G1 X4.0215 Y1.2112
G1 X4.0457 Y1.1824
G1 X4.0647 Y1.15
G1 X4.0795 Y1.1154
G1 X4.0908 Y1.0795
G1 X4.0995 Y1.0429
G1 X4.106 Y1.0058
G1 X4.1108 Y0.9686
G1 X4.1145 Y0.9311
G1 X4.1172 Y0.8936
G1 X4.1192 Y0.856
G1 X4.1207 Y0.8185
G1 X4.1219 Y0.7809
G1 X4.1227 Y0.7433
G1 X4.1228 Y0.7371
G1 X4.1237 Y0.7278
G1 X4.126 Y0.7188
G1 X4.1298 Y0.7103
G1 X4.1557 Y0.6624
G1 X4.1601 Y0.6538
G1 X4.1642 Y0.6453
G1 X4.1677 Y0.6368
G1 X4.1705 Y0.6282
G1 X4.1728 Y0.6197
G1 X4.1743 Y0.6111
G1 X4.1753 Y0.6026
G1 X4.1759 Y0.594
G1 Y0.5855
G1 X4.1752 Y0.5769
G1 X4.174 Y0.5684
G1 X4.1723 Y0.5598
G1 X4.1668 Y0.5427
G1 X4.1635 Y0.5342
G1 X4.1585 Y0.5211
G1 X4.1495 Y0.4904
G1 X4.1418 Y0.4536
G1 X4.1365 Y0.4164
G1 X4.133 Y0.3789
G1 X4.1305 Y0.3414
G1 X4.1288 Y0.3038
G1 X4.1276 Y0.2662
G1 X4.1268 Y0.2286
G1 X4.1263 Y0.191
G1 X4.1259 Y0.1534
G1 X4.1256 Y0.1158
G1 X4.1254 Y0.0782
G1 X4.1252 Y0.0029
G1 X4.1251 Y-0.1099
G1 X4.125 Y-0.3732
G1 Y-0.4617
G1 X4.1261 Y-0.4723
G1 X4.1292 Y-0.4825
G1 X4.1342 Y-0.4918
G1 X4.141 Y-0.5
G1 X4.145 Y-0.5049
G1 X4.148 Y-0.5085
G1 X4.1536 Y-0.5163
G1 X4.1593 Y-0.5256
G1 X4.1635 Y-0.5342
G1 X4.1668 Y-0.5427
G1 X4.1723 Y-0.5598
G1 X4.174 Y-0.5684
G1 X4.1752 Y-0.5769
G1 X4.1759 Y-0.5855
G1 Y-0.594
G1 X4.1753 Y-0.6026
G1 X4.1743 Y-0.6111
G1 X4.1728 Y-0.6197
G1 X4.1705 Y-0.6282
G1 X4.1677 Y-0.6368
G1 X4.1642 Y-0.6453
G1 X4.161 Y-0.6533
G1 X4.152 Y-0.6814
G1 X4.1435 Y-0.718
G1 X4.1377 Y-0.7552
G1 X4.1338 Y-0.7926
G1 X4.1311 Y-0.8301
G1 X4.1292 Y-0.8677
G1 X4.1279 Y-0.9053
G1 X4.127 Y-0.9429
G1 X4.1264 Y-0.9805
G1 X4.126 Y-1.0181
G1 X4.1257 Y-1.0557
G1 X4.1194 Y-1.0928
G1 X4.1022 Y-1.1263
G1 X4.0772 Y-1.1543
G1 X4.0471 Y-1.1769
G1 X4.0139 Y-1.1946
G1 X3.9789 Y-1.2082
G1 X3.9427 Y-1.2187
G1 X3.906 Y-1.2266
G1 X3.8688 Y-1.2326
G1 X3.8315 Y-1.237
G1 X3.794 Y-1.2404
G1 X3.7565 Y-1.2429
G1 X3.7189 Y-1.2447
G1 X3.6813 Y-1.2461
G1 X3.6683 Y-1.2465
G1 X3.6581 Y-1.2476
G1 X3.6482 Y-1.2506
G1 X3.6391 Y-1.2552
G1 X3.5553 Y-1.3072
G1 X3.5468 Y-1.3125
G1 X3.5211 Y-1.3277
G1 X3.4639 Y-1.3555
G3 X3.4508 Y-1.3814 I0.0117 J-0.0221 F10.
G3 X3.4784 Y-1.4025 I0.0247 J0.0038 F13.5
G1 X3.9399 Y-1.3534
G1 X4.0351 Y-1.326
G1 X4.1039 Y-1.2949
G1 X4.1578 Y-1.2558
G1 X4.1983 Y-1.2112
G1 X4.2287 Y-1.1667
G1 X4.2492 Y-1.1068
G1 X4.2814 Y-0.6795
G3 X4.1848 Y-0.6226 I-0.0621 J0.005
G3 X4.1642 Y-0.6453 I0.0345 J-0.0519 F10.
G1 X4.1601 Y-0.6538 F13.5
G1 X4.1557 Y-0.6624
G1 X4.1003 Y-0.765
G1 X4.0955 Y-0.7735
G1 X4.0854 Y-0.7906
G1 X4.0738 Y-0.8127
G1 X4.0647 Y-0.834
G1 X4.0552 Y-0.8621
G1 X4.0462 Y-0.8986
G1 X4.0399 Y-0.9357
G1 X4.0349 Y-0.973
G1 X4.0212 Y-1.008
G1 X3.9991 Y-1.0385
G1 X3.9712 Y-1.0636
G1 X3.9395 Y-1.0838
G1 X3.9053 Y-1.0997
G1 X3.8698 Y-1.1119
G1 X3.8334 Y-1.1213
G1 X3.8203 Y-1.1238
G1 X3.8105 Y-1.1267
G1 X3.8013 Y-1.1311
G1 X3.793 Y-1.1372
G1 X3.7775 Y-1.1507
G1 X3.7684 Y-1.1581
G1 X3.6913 Y-1.218
G1 X3.6664 Y-1.2371
G1 X3.6575 Y-1.2436
G1 X3.6493 Y-1.2489
G1 X3.6391 Y-1.2552
G3 X3.6288 Y-1.2823 I0.0139 J-0.0208 F10.
G3 X3.6579 Y-1.3005 I0.0242 J0.0063 F13.5
G1 X3.9826 Y-1.2082
G1 X4.0425 Y-1.1725
G1 X4.0954 Y-1.1239
G1 X4.1279 Y-1.0811
G1 X4.1422 Y-1.047
G1 X4.1976 Y-0.8419
G3 X4.1077 Y-0.7697 I-0.0597 J0.0177
G3 X4.0854 Y-0.7906 I0.0302 J-0.0545 F10.
G1 X4.0801 Y-0.7991 F13.5
G1 X4.0042 Y-0.9103
G1 X3.998 Y-0.9188
G1 X3.9826 Y-0.937
G1 X3.9112 Y-1.0214
G1 X3.9038 Y-1.0299
G1 X3.8972 Y-1.0374
G1 X3.8874 Y-1.047
G1 X3.8696 Y-1.0641
G1 X3.7982 Y-1.1325
G1 X3.7946 Y-1.1358
G1 X3.793 Y-1.1372
G1 X3.7851 Y-1.1554 F10.
G1 X3.7856 Y-1.1664
G1 X3.7889 Y-1.2521 F13.5
G2 X3.7488 Y-1.3376 I-0.0982 J-0.006
G1 X3.5874 Y-1.4402
G1 X3.4186 Y-1.5206
G1 X3.2733 Y-1.5718
G1 X3.0853 Y-1.6165
G1 X2.9229 Y-1.6382
G1 X2.7519 Y-1.6406
G1 X2.5981 Y-1.6293
G1 X2.4443 Y-1.6051
G2 X2.3967 Y-1.5855 I0.0125 J0.0976
G1 X2.3075 Y-1.5111
G1 X2.2368 Y-1.4142
G1 X2.2306 Y-1.4057 F10.
G1 X2.2135 Y-1.3945
G1 X2.1782 Y-1.3803 F13.5
G1 X2.1708 Y-1.3771
G1 X2.1537 Y-1.3692
G1 X2.1452 Y-1.3651
G1 X2.034 Y-1.3065
G1 X2.0064 Y-1.2935
G1 X1.9817 Y-1.2843
G1 X1.9482 Y-1.2747
G1 X1.9113 Y-1.2673
G1 X1.8741 Y-1.2622
G1 X1.8366 Y-1.2586
G1 X1.7991 Y-1.256
G1 X1.7615 Y-1.2542
G1 X1.7239 Y-1.253
G1 X1.6863 Y-1.2521
G1 X1.6487 Y-1.2515
G1 X1.6111 Y-1.251
G1 X1.5735 Y-1.2507
G1 X1.5359 Y-1.2505
G1 X1.4983 Y-1.2504
G1 X1.4231 Y-1.2502
G1 X1.3102 Y-1.2501
G1 X1.0093 Y-1.25
G1 X0.069
G1 X-1.9245
G1 X-3.8427
G1 X-3.8789 Y-1.2399
G1 X-3.9107 Y-1.2198
G1 X-3.937 Y-1.1929
G1 X-3.9579 Y-1.1616
G1 X-3.9742 Y-1.1277
G1 X-3.9868 Y-1.0923
G1 X-3.9964 Y-1.0559
G1 X-4.0036 Y-1.019
G1 X-4.0091 Y-0.9818
G1 X-4.0132 Y-0.9444
G1 X-4.0162 Y-0.9069
G1 X-4.0185 Y-0.8693
G1 X-4.0202 Y-0.8318
G1 X-4.0214 Y-0.7942
G1 X-4.0224 Y-0.7566
G1 X-4.0231 Y-0.719
G1 X-4.0236 Y-0.6814
G1 X-4.0239 Y-0.6438
G1 X-4.0242 Y-0.6061
G1 X-4.0244 Y-0.5685
G1 X-4.0247 Y-0.4933
G1 X-4.0248 Y-0.4622
G1 X-4.0261 Y-0.4501
G1 X-4.0298 Y-0.4385
G1 X-4.036 Y-0.428
G1 X-4.0395 Y-0.4231
G1 X-4.051 Y-0.405
G1 X-4.0557 Y-0.3974
G1 X-4.0872 Y-0.3462
G1 X-4.0918 Y-0.3376
G1 X-4.1023 Y-0.3174
G1 X-4.1046 Y-0.312
G1 X-4.1294 Y-0.252
G1 X-4.1365 Y-0.235 F10.
G1 X-4.1392 Y-0.2265
G1 X-4.1402 Y-0.2231
G1 X-4.145 Y-0.2071 F13.5
G1 X-4.165 Y-0.1239
G1 X-4.1662 Y-0.1154
G1 X-4.1686 Y-0.0983
G1 X-4.1694 Y-0.0897
G1 X-4.1748 Y-0.0214
G1 X-4.1754 Y-0.0128
G1 Y0.0128
G1 X-4.1748 Y0.0214
G1 X-4.1694 Y0.0897
G1 X-4.1686 Y0.0983
G1 X-4.1662 Y0.1154
G1 X-4.165 Y0.1239
G1 X-4.1599 Y0.1451
G1 X-4.1527 Y0.1752 F10.
G1 X-4.145 Y0.2071 F13.5
G1 X-4.1392 Y0.2265
G1 X-4.1364 Y0.235
G1 X-4.1046 Y0.312
G1 X-4.1023 Y0.3174
G1 X-4.0918 Y0.3376
G1 X-4.0872 Y0.3462
G1 X-4.0852 Y0.3494
G1 X-4.0743 Y0.3693
G1 X-4.0656 Y0.3888
G1 X-4.0565 Y0.4147
G1 X-4.047 Y0.4505
G1 X-4.0403 Y0.4875
G1 X-4.0357 Y0.5248
G1 X-4.0325 Y0.5623
G1 X-4.0302 Y0.5998
G1 X-4.0287 Y0.6374
G1 X-4.0276 Y0.675
G1 X-4.0268 Y0.7126
G1 X-4.0263 Y0.7502
G1 X-4.0259 Y0.7878
G1 X-4.0256 Y0.8255
G1 X-4.0254 Y0.8631
G1 X-4.0252 Y0.9383
G1 X-4.0235 Y0.9759
G1 X-4.0105 Y1.0112
G1 X-3.9884 Y1.0416
G1 X-3.9603 Y1.0666
G1 X-3.9283 Y1.0864
G1 X-3.894 Y1.1018
G1 X-3.8583 Y1.1137
G1 X-3.8218 Y1.1228
G1 X-3.7848 Y1.1296
G1 X-3.7476 Y1.1348
G1 X-3.7102 Y1.1387
G1 X-3.6727 Y1.1416
G1 X-3.6351 Y1.1437
G1 X-3.5975 Y1.1453
G1 X-3.5599 Y1.1465
G1 X-3.5223 Y1.1474
G1 X-3.4847 Y1.1481
G1 X-3.4471 Y1.1486
G1 X-3.4095 Y1.149
G1 X-3.3719 Y1.1492
G1 X-3.3343 Y1.1494
G1 X-3.2591 Y1.1497
G1 X-3.1462 Y1.1499
G1 X-2.9582 Y1.15
G1 X-2.7325
G1 X-0.739
G1 X1.2544
G1 X1.7945
G1 X1.8046 Y1.1509
G1 X1.8143 Y1.1535
G1 X1.8235 Y1.1577
G1 X1.8318 Y1.1635
G1 X1.8665 Y1.1923
G1 X1.8802 Y1.2034
G1 X1.8888 Y1.2102
G1 X1.8973 Y1.2169
G1 X1.9616 Y1.2598
G1 X1.9695 Y1.2692 F10.
G1 X1.9738 Y1.2874
G1 X1.9981 Y1.3889 F13.5
G2 X2.0511 Y1.4624 I0.0974 J-0.0144
G1 X2.1366 Y1.5044
G1 X2.2904 Y1.562
G1 X2.4443 Y1.605
G1 X2.5896 Y1.6275
G1 X2.769 Y1.642
G1 X2.9485 Y1.636
G1 X3.1194 Y1.6102
G1 X3.2989 Y1.564
G1 X3.4271 Y1.5175
G2 X3.4926 Y1.4487 I-0.0297 J-0.0939
G1 X3.5205 Y1.3481
G3 X3.5259 Y1.3349 I0.06 J0.0167
G3 X3.5468 Y1.3125 I0.0546 J0.03 F10.
G1 X3.5614 Y1.3034 F13.5
G1 X3.6493 Y1.2489
G1 X3.6579 Y1.2434
G1 X3.6664 Y1.2371
G1 X3.6802 Y1.2265
G1 X3.6982 Y1.214
G1 X3.7134 Y1.2052
G1 X3.7328 Y1.1959
G1 X3.7579 Y1.1863
G1 X3.7918 Y1.1764
G1 X3.8286 Y1.1688
G1 X3.865 Y1.1591
G1 X3.8978 Y1.1408
G1 X3.9257 Y1.1155
G1 X3.9484 Y1.0855
G1 X3.9664 Y1.0525
G1 X3.9805 Y1.0176
G1 X3.9913 Y0.9816
G1 X3.9996 Y0.9449
G1 X4.0038 Y0.9202
G1 X4.0058 Y0.9121
G1 X4.009 Y0.9044
G1 X4.0132 Y0.8972
G1 X4.0801 Y0.7991
G1 X4.0854 Y0.7906
G1 X4.0955 Y0.7735
G1 X4.1003 Y0.765
G1 X4.1298 Y0.7103
G3 X4.1364 Y0.7025 I0.022 J0.0119 F10.
G2 X4.1436 Y0.6936 I-0.0154 J-0.0197
G1 X4.1474 Y0.6854
G1 X4.1935 Y0.5886 F13.5
G2 X4.1845 Y0.5569 I-0.0226 J-0.0108
G1 X4.1843 Y0.5567
G3 X4.1635 Y0.5342 I0.0341 J-0.0522 F10.
G1 X4.1593 Y0.5256 F13.5
G1 X4.1536 Y0.5163
G1 X4.148 Y0.5085
G1 X4.145 Y0.5049
G1 X4.141 Y0.5
G1 X4.1323 Y0.4915
G1 X4.1279 Y0.4874
G1 X4.1221 Y0.4829
G1 X4.1141 Y0.4761
G1 X4.1068 Y0.4687
G1 X4.0991 Y0.4596
G1 X4.0907 Y0.4479
G1 X4.0819 Y0.4333
G1 X4.0727 Y0.4147
G1 X4.0631 Y0.3909
G1 X4.0533 Y0.3589
G1 X4.0451 Y0.3222
G1 X4.0392 Y0.2851
G1 X4.0351 Y0.2477
G1 X4.0322 Y0.2102
G1 X4.0301 Y0.1726
G1 X4.0286 Y0.135
G1 X4.0276 Y0.0974
G1 X4.0268 Y0.0598
G1 X4.0263 Y0.0222
G1 X4.0259 Y-0.0154
G1 X4.0257 Y-0.053
G1 X4.0255 Y-0.0906
G1 X4.0252 Y-0.1658
G1 X4.0251 Y-0.2787
G1 X4.025 Y-0.3539
G1 X4.0253 Y-0.3915
G1 X4.0263 Y-0.4063
G1 X4.0283 Y-0.418
G1 X4.0326 Y-0.4291
G1 X4.0391 Y-0.4391
G1 X4.0475 Y-0.4475
G1 X4.0574 Y-0.4541
G1 X4.0685 Y-0.4585
G1 X4.0766 Y-0.4608
G1 X4.0813 Y-0.4622
G3 X4.1084 Y-0.4519 I0.0063 J0.0242 F10.
G3 X4.1126 Y-0.4394 I-0.0208 J0.0139 F13.5
G1 X4.1616 Y0.4612
G3 X4.1511 Y0.483 I-0.025 J0.0014
G3 X4.1221 Y0.4829 I-0.0144 J-0.0204 F10.
G1 X4.1194 Y0.4808 F13.5
G1 X4.1108 Y0.4753
G1 X4.1094 Y0.4744
G1 X4.1023 Y0.4704
G1 X4.0937 Y0.4663
G1 X4.0926 Y0.4658
G1 X4.0852 Y0.4634
G1 X4.0766 Y0.4608
G1 X4.0719 Y0.4595
G1 X4.0663 Y0.4575
G1 X4.0597 Y0.4546
G1 X4.0521 Y0.4504
G1 X4.0436 Y0.4447
G1 X4.0353 Y0.4382
G1 X4.026 Y0.4296
G1 X4.0161 Y0.4189
G1 X4.0062 Y0.4062
G1 X3.9955 Y0.39
G1 X3.9848 Y0.3705
G1 X3.9738 Y0.346
G1 X3.9625 Y0.3144
G1 X3.9527 Y0.2781
G1 X3.9455 Y0.2411
G1 X3.9401 Y0.2039
G1 X3.9361 Y0.1665
G1 X3.9332 Y0.129
G1 X3.931 Y0.0915
G1 X3.9294 Y0.0539
G1 X3.9282 Y0.0163
G1 X3.9274 Y-0.0213
G1 X3.9267 Y-0.0589
G1 X3.9263 Y-0.0965
G1 X3.9259 Y-0.1341
G1 X3.9257 Y-0.1717
G1 X3.9255 Y-0.2094
G1 X3.9254 Y-0.247
G1 X3.9253 Y-0.2846
G1 X3.9255 Y-0.3222
G1 X3.927 Y-0.354
G1 X3.93 Y-0.3769
G1 X3.9342 Y-0.3969
G1 X3.9392 Y-0.4135
G1 X3.941 Y-0.4183
G1 X3.9463 Y-0.4287
G1 X3.9535 Y-0.4378
G1 X3.9624 Y-0.4453
G1 X3.9726 Y-0.4509
G1 X3.9838 Y-0.4544
G1 X3.9954 Y-0.4556
G1 X4.0254
G1 X4.0425
G1 X4.051 Y-0.4561
G1 X4.0596 Y-0.4569
G1 X4.0681 Y-0.4584
G1 X4.0685 Y-0.4585
G3 X4.0955 Y-0.4479 I0.006 J0.0243 F10.
G3 X4.0995 Y-0.4343 I-0.021 J0.0136 F13.5
G1 X4.103 Y0.4351
G3 X4.0989 Y0.4488 I-0.025 J0.0001
G3 X4.0719 Y0.4595 I-0.021 J-0.0136 F10.
G1 X4.0681 Y0.4584 F13.5
G1 X4.0596 Y0.4569
G1 X4.051 Y0.4561
G1 X4.0425 Y0.4556
G1 X4.0254
G1 X4.0191 Y0.4552
G1 X4.0125 Y0.4544
G1 X4.0055 Y0.4529
G1 X3.9974 Y0.4504
G1 X3.9891 Y0.4471
G1 X3.9799 Y0.4426
G1 X3.9699 Y0.4367
G1 X3.9598 Y0.4296
G1 X3.9482 Y0.4199
G1 X3.9372 Y0.4091
G1 X3.9249 Y0.395
G1 X3.9129 Y0.3787
G1 X3.9001 Y0.3579
G1 X3.8877 Y0.3337
G1 X3.8749 Y0.3029
G1 X3.8633 Y0.2671
G1 X3.8543 Y0.2306
G1 X3.8474 Y0.1936
G1 X3.842 Y0.1564
G1 X3.8379 Y0.119
G1 X3.8348 Y0.0815
G1 X3.8324 Y0.044
G1 X3.8306 Y0.0064
G1 X3.8292 Y-0.0312
G1 X3.8281 Y-0.0688
G1 X3.8274 Y-0.1064
G1 X3.8268 Y-0.144
G1 X3.8263 Y-0.1816
G1 X3.826 Y-0.2192
G1 X3.8261 Y-0.2568
G1 X3.8271 Y-0.2944
G1 X3.8298 Y-0.332
G1 X3.8341 Y-0.3629
G1 X3.8391 Y-0.3856
G1 X3.8452 Y-0.4052
G1 X3.8516 Y-0.4213
G1 X3.8524 Y-0.4231
G1 X3.8594 Y-0.434
G1 X3.8686 Y-0.443
G1 X3.8796 Y-0.4499
G1 X3.8919 Y-0.4541
G1 X3.9047 Y-0.4556
G1 X3.9954
G3 X4.0184 Y-0.4379 I-0.0009 J0.025 F10.
G1 X4.0192 Y-0.4347 F13.5
G1 X4.0195 Y-0.4314
G1 X4.0495 Y0.4297
G1 Y0.4325
G1 X4.0491 Y0.4353
G1 X4.0484 Y0.438
G3 X4.0254 Y0.4556 I-0.0239 J-0.0074 F10.
G1 X3.9523 F13.5
G1 X3.9453 Y0.4552
G1 X3.9374 Y0.4542
G1 X3.9291 Y0.4524
G1 X3.92 Y0.4497
G1 X3.9099 Y0.4457
G1 X3.8995 Y0.4407
G1 X3.8878 Y0.4338
G1 X3.8762 Y0.4257
G1 X3.8631 Y0.4148
G1 X3.8505 Y0.4025
G1 X3.8364 Y0.3864
G1 X3.8231 Y0.3683
G1 X3.8088 Y0.3453
G1 X3.7944 Y0.3174
G1 X3.7802 Y0.2835
G1 X3.7685 Y0.2477
G1 X3.7592 Y0.2113
G1 X3.7518 Y0.1744
G1 X3.7459 Y0.1373
G1 X3.7413 Y0.1
G1 X3.7377 Y0.0625
G1 X3.7348 Y0.025
G1 X3.7326 Y-0.0125
G1 X3.7308 Y-0.0501
G1 X3.7295 Y-0.0877
G1 X3.7284 Y-0.1253
G1 X3.7277 Y-0.1629
G1 X3.7274 Y-0.2005
G1 X3.7279 Y-0.2381
G1 X3.7294 Y-0.2757
G1 X3.7324 Y-0.3132
G1 X3.7375 Y-0.3504
G1 X3.7435 Y-0.378
G1 X3.7499 Y-0.3994
G1 X3.7571 Y-0.4177
G1 X3.7595 Y-0.4228
G1 X3.7665 Y-0.4337
G1 X3.7757 Y-0.4429
G1 X3.7868 Y-0.4498
G1 X3.7991 Y-0.4541
G1 X3.812 Y-0.4556
G1 X3.9047
G3 X3.9277 Y-0.4379 I-0.0009 J0.025 F10.
G1 X3.9285 Y-0.435 F13.5
G1 X3.9288 Y-0.4319
G1 X3.9764 Y0.4292
G1 Y0.4321
G1 X3.976 Y0.4351
G1 X3.9753 Y0.4379
G3 X3.9523 Y0.4556 I-0.0239 J-0.0074 F10.
G1 X3.8715 F13.5
G1 X3.8632 Y0.4551
G1 X3.8552 Y0.4541
G1 X3.8458 Y0.4521
G1 X3.8362 Y0.4492
G1 X3.8254 Y0.445
G1 X3.814 Y0.4394
G1 X3.8018 Y0.4323
G1 X3.7886 Y0.423
G1 X3.7752 Y0.4119
G1 X3.7605 Y0.3976
G1 X3.7463 Y0.3812
G1 X3.7311 Y0.3608
G1 X3.7155 Y0.3357
G1 X3.7003 Y0.3062
G1 X3.6858 Y0.2715
G1 X3.674 Y0.2358
G1 X3.6643 Y0.1995
G1 X3.6564 Y0.1627
G1 X3.6501 Y0.1256
G1 X3.6449 Y0.0884
G1 X3.6408 Y0.051
G1 X3.6375 Y0.0135
G1 X3.6348 Y-0.024
G1 X3.6327 Y-0.0615
G1 X3.6311 Y-0.0991
G1 X3.6301 Y-0.1367
G1 X3.6296 Y-0.1743
G1 X3.6299 Y-0.2119
G1 X3.6312 Y-0.2495
G1 X3.6338 Y-0.2871
G1 X3.6381 Y-0.3244
G1 X3.6448 Y-0.3614
G1 X3.6518 Y-0.3879
G1 X3.6587 Y-0.4075
G1 X3.6646 Y-0.4209
G1 X3.6702 Y-0.4307
G1 X3.6774 Y-0.4392
G1 X3.6862 Y-0.4461
G1 X3.6961 Y-0.4513
G1 X3.7068 Y-0.4545
G1 X3.7179 Y-0.4556
G1 X3.812
G3 X3.835 Y-0.4379 I-0.0009 J0.025 F10.
G1 X3.8357 Y-0.4351 F13.5
G1 X3.8361 Y-0.4323
G1 X3.8956 Y0.4288
G1 Y0.4319
G1 X3.8953 Y0.435
G1 X3.8945 Y0.4379
G3 X3.8715 Y0.4556 I-0.0239 J-0.0074 F10.
G1 X3.7861 F13.5
G1 X3.7773 Y0.4551
G1 X3.7687 Y0.454
G1 X3.7593 Y0.452
G1 X3.7487 Y0.4488
G1 X3.7379 Y0.4446
G1 X3.7253 Y0.4385
G1 X3.713 Y0.4312
G1 X3.6988 Y0.4213
G1 X3.685 Y0.4098
G1 X3.6694 Y0.3946
G1 X3.6545 Y0.3775
G1 X3.6382 Y0.3555
G1 X3.622 Y0.3294
G1 X3.6057 Y0.2979
G1 X3.5912 Y0.2632
G1 X3.5792 Y0.2275
G1 X3.5692 Y0.1913
G1 X3.5609 Y0.1546
G1 X3.5541 Y0.1176
G1 X3.5485 Y0.0804
G1 X3.544 Y0.0431
G1 X3.5402 Y0.0056
G1 X3.5373 Y-0.0319
G1 X3.535 Y-0.0694
G1 X3.5334 Y-0.107
G1 X3.5325 Y-0.1446
G1 X3.5324 Y-0.1822
G1 X3.5332 Y-0.2198
G1 X3.5352 Y-0.2574
G1 X3.5386 Y-0.2948
G1 X3.5438 Y-0.3321
G1 X3.551 Y-0.3673
G1 X3.5583 Y-0.3924
G1 X3.566 Y-0.4126
G1 X3.5706 Y-0.4222
G1 X3.5775 Y-0.4334
G1 X3.5867 Y-0.4427
G1 X3.5978 Y-0.4497
G1 X3.6102 Y-0.4541
G1 X3.6233 Y-0.4556
G1 X3.7179
G3 X3.741 Y-0.4379 I-0.0009 J0.025 F10.
G1 X3.7416 Y-0.4353 F13.5
G1 X3.742 Y-0.4325
G1 X3.8101 Y0.4286
G1 X3.8102 Y0.4317
G1 X3.8098 Y0.4349
G1 X3.8091 Y0.4379
G3 X3.7861 Y0.4556 I-0.0239 J-0.0074 F10.
G1 X3.7006 F13.5
G1 X3.6886 Y0.455
G1 X3.6796 Y0.4538
G1 X3.6702 Y0.4518
G1 X3.6591 Y0.4484
G1 X3.648 Y0.4441
G1 X3.6353 Y0.4379
G1 X3.6222 Y0.4302
G1 X3.608 Y0.4203
G1 X3.5931 Y0.4079
G1 X3.5775 Y0.3927
G1 X3.5616 Y0.3744
G1 X3.5446 Y0.3515
G1 X3.5278 Y0.3244
G1 X3.5106 Y0.2912
G1 X3.4961 Y0.2565
G1 X3.4839 Y0.2209
G1 X3.4737 Y0.1847
G1 X3.4651 Y0.1481
G1 X3.458 Y0.1111
G1 X3.452 Y0.074
G1 X3.4471 Y0.0367
G1 X3.4431 Y-0.0007
G1 X3.44 Y-0.0382
G1 X3.4377 Y-0.0757
G1 X3.4361 Y-0.1133
G1 X3.4354 Y-0.1509
G1 X3.4356 Y-0.1885
G1 X3.4369 Y-0.2261
G1 X3.4394 Y-0.2636
G1 X3.4434 Y-0.301
G1 X3.4493 Y-0.3382
G1 X3.4568 Y-0.3715
G1 X3.4645 Y-0.3965
G1 X3.4724 Y-0.416
G1 X3.4759 Y-0.4232
G1 X3.4829 Y-0.434
G1 X3.4921 Y-0.4431
G1 X3.5031 Y-0.4499
G1 X3.5153 Y-0.4541
G1 X3.5282 Y-0.4556
G1 X3.6233
G3 X3.6463 Y-0.4379 I-0.0009 J0.025 F10.
G1 X3.6469 Y-0.4354 F13.5
G1 X3.6473 Y-0.4328
G1 X3.7246 Y0.4283
G1 X3.7247 Y0.4316
G1 X3.7244 Y0.4348
G1 X3.7236 Y0.4379
G3 X3.7006 Y0.4556 I-0.0239 J-0.0074 F10.
G1 X3.6066 F13.5
G1 X3.5985 Y0.4551
G1 X3.5891 Y0.4539
G1 X3.5796 Y0.4519
G1 X3.5684 Y0.4485
G1 X3.5567 Y0.444
G1 X3.5441 Y0.4378
G1 X3.5302 Y0.4297
G1 X3.516 Y0.4197
G1 X3.5002 Y0.4066
G1 X3.4846 Y0.3914
G1 X3.4679 Y0.3722
G1 X3.4504 Y0.3485
G1 X3.4331 Y0.3207
G1 X3.4158 Y0.2873
G1 X3.4012 Y0.2526
G1 X3.3888 Y0.2171
G1 X3.3783 Y0.181
G1 X3.3695 Y0.1444
G1 X3.362 Y0.1076
G1 X3.3557 Y0.0705
G1 X3.3506 Y0.0332
G1 X3.3464 Y-0.0042
G1 X3.3432 Y-0.0416
G1 X3.3408 Y-0.0792
G1 X3.3393 Y-0.1168
G1 X3.3387 Y-0.1544
G1 X3.3392 Y-0.192
G1 X3.3407 Y-0.2295
G1 X3.3436 Y-0.2671
G1 X3.348 Y-0.3044
G1 X3.3543 Y-0.3415
G1 X3.362 Y-0.3741
G1 X3.3698 Y-0.3986
G1 X3.3778 Y-0.4179
G1 X3.3808 Y-0.4237
G1 X3.3878 Y-0.4344
G1 X3.397 Y-0.4433
G1 X3.4079 Y-0.45
G1 X3.42 Y-0.4541
G1 X3.4327 Y-0.4556
G1 X3.5282
G3 X3.5512 Y-0.4379 I-0.0009 J0.025 F10.
G1 X3.5518 Y-0.4354 F13.5
G1 X3.5522 Y-0.4328
G1 X3.6306 Y0.4283
G1 X3.6307 Y0.4315
G1 X3.6304 Y0.4348
G1 X3.6296 Y0.4379
G3 X3.6066 Y0.4556 I-0.0239 J-0.0074 F10.
G1 X3.5126 F13.5
G1 X3.5066 Y0.4553
G1 X3.497 Y0.454
G1 X3.4872 Y0.4518
G1 X3.476 Y0.4484
G1 X3.4639 Y0.4437
G1 X3.4511 Y0.4374
G1 X3.4367 Y0.4289
G1 X3.4225 Y0.4188
G1 X3.4062 Y0.4052
G1 X3.3904 Y0.3897
G1 X3.3731 Y0.3698
G1 X3.3551 Y0.3454
G1 X3.3372 Y0.3163
G1 X3.32 Y0.2828
G1 X3.3054 Y0.2482
G1 X3.2929 Y0.2127
G1 X3.2823 Y0.1766
G1 X3.2733 Y0.1401
G1 X3.2656 Y0.1033
G1 X3.2592 Y0.0662
G1 X3.2539 Y0.029
G1 X3.2497 Y-0.0084
G1 X3.2464 Y-0.0459
G1 X3.2441 Y-0.0834
G1 X3.2427 Y-0.121
G1 X3.2423 Y-0.1586
G1 X3.243 Y-0.1962
G1 X3.2448 Y-0.2338
G1 X3.248 Y-0.2713
G1 X3.2528 Y-0.3086
G1 X3.2594 Y-0.3456
G1 X3.2672 Y-0.3773
G1 X3.2751 Y-0.4009
G1 X3.2832 Y-0.42
G1 X3.2855 Y-0.4243
G1 X3.2925 Y-0.4348
G1 X3.3017 Y-0.4436
G1 X3.3125 Y-0.4501
G1 X3.3245 Y-0.4542
G1 X3.3371 Y-0.4556
G1 X3.4327
G3 X3.4558 Y-0.4379 I-0.0009 J0.025 F10.
G1 X3.4564 Y-0.4354 F13.5
G1 X3.4568 Y-0.4329
G1 X3.5366 Y0.4283
G1 X3.5367 Y0.4315
G1 X3.5364 Y0.4348
G1 X3.5356 Y0.4379
G3 X3.5126 Y0.4556 I-0.0239 J-0.0074 F10.
G1 X3.4224 F13.5
G1 X3.414 Y0.4551
G1 X3.4046 Y0.4539
G1 X3.3945 Y0.4517
G1 X3.3834 Y0.4484
G1 X3.3708 Y0.4435
G1 X3.3582 Y0.4374
G1 X3.3435 Y0.4287
G1 X3.3292 Y0.4187
G1 X3.3127 Y0.405
G1 X3.2967 Y0.3893
G1 X3.279 Y0.3691
G1 X3.2608 Y0.3445
G1 X3.2425 Y0.315
G1 X3.2252 Y0.2816
G1 X3.2104 Y0.247
G1 X3.1978 Y0.2116
G1 X3.1869 Y0.1756
G1 X3.1776 Y0.1392
G1 X3.1698 Y0.1024
G1 X3.1632 Y0.0653
G1 X3.1578 Y0.0281
G1 X3.1534 Y-0.0092
G1 X3.1501 Y-0.0467
G1 X3.1477 Y-0.0842
G1 X3.1463 Y-0.1218
G1 X3.146 Y-0.1594
G1 X3.1468 Y-0.197
G1 X3.1488 Y-0.2346
G1 X3.1521 Y-0.2721
G1 X3.157 Y-0.3094
G1 X3.1638 Y-0.3464
G1 X3.1717 Y-0.378
G1 X3.1796 Y-0.4016
G1 X3.1878 Y-0.4206
G1 X3.1898 Y-0.4244
G1 X3.1969 Y-0.4349
G1 X3.2061 Y-0.4436
G1 X3.2169 Y-0.4501
G1 X3.2288 Y-0.4542
G1 X3.2414 Y-0.4556
G1 X3.3371
G3 X3.3601 Y-0.4379 I-0.0009 J0.025 F10.
G1 X3.3608 Y-0.4355 F13.5
G1 X3.3611 Y-0.433
G1 X3.4464 Y0.4281
G3 X3.4454 Y0.4379 I-0.0249 J0.0025
G3 X3.4224 Y0.4556 I-0.0239 J-0.0074 F10.
G1 X3.3331 F13.5
G1 X3.3204 Y0.4549
G1 X3.3109 Y0.4537
G1 X3.3007 Y0.4515
G1 X3.2895 Y0.4481
G1 X3.2768 Y0.4432
G1 X3.2641 Y0.437
G1 X3.2493 Y0.4283
G1 X3.2347 Y0.4181
G1 X3.2181 Y0.4043
G1 X3.2019 Y0.3884
G1 X3.184 Y0.3679
G1 X3.1654 Y0.3429
G1 X3.1467 Y0.3128
G1 X3.1295 Y0.2794
G1 X3.1147 Y0.2448
G1 X3.1019 Y0.2094
G1 X3.091 Y0.1735
G1 X3.0816 Y0.137
G1 X3.0736 Y0.1003
G1 X3.067 Y0.0633
G1 X3.0615 Y0.026
G1 X3.0571 Y-0.0113
G1 X3.0537 Y-0.0488
G1 X3.0514 Y-0.0863
G1 X3.0501 Y-0.1239
G1 X3.0498 Y-0.1615
G1 X3.0507 Y-0.1991
G1 X3.0529 Y-0.2367
G1 X3.0564 Y-0.2741
G1 X3.0614 Y-0.3114
G1 X3.0684 Y-0.3484
G1 X3.0763 Y-0.3795
G1 X3.0842 Y-0.4027
G1 X3.0924 Y-0.4215
G1 X3.0941 Y-0.4247
G1 X3.1012 Y-0.4351
G1 X3.1104 Y-0.4437
G1 X3.1212 Y-0.4502
G1 X3.1331 Y-0.4542
G1 X3.1456 Y-0.4556
G1 X3.2414
G3 X3.2644 Y-0.4379 I-0.0009 J0.025 F10.
G1 X3.265 Y-0.4356 F13.5
G1 X3.2654 Y-0.4332
G1 X3.3571 Y0.4279
G3 X3.3561 Y0.4379 I-0.0249 J0.0026
G3 X3.3331 Y0.4556 I-0.0239 J-0.0074 F10.
G1 X3.2391 F13.5
G1 X3.2264 Y0.4549
G1 X3.2169 Y0.4537
G1 X3.2065 Y0.4514
G1 X3.1953 Y0.4481
G1 X3.1825 Y0.4431
G1 X3.1697 Y0.4369
G1 X3.1547 Y0.4281
G1 X3.14 Y0.4177
G1 X3.1233 Y0.4038
G1 X3.1068 Y0.3877
G1 X3.0886 Y0.3669
G1 X3.0699 Y0.3417
G1 X3.0509 Y0.3112
G1 X3.0337 Y0.2778
G1 X3.0188 Y0.2432
G1 X3.006 Y0.2079
G1 X2.995 Y0.1719
G1 X2.9856 Y0.1355
G1 X2.9776 Y0.0987
G1 X2.9708 Y0.0617
G1 X2.9653 Y0.0245
G1 X2.9609 Y-0.0128
G1 X2.9575 Y-0.0503
G1 X2.9552 Y-0.0878
G1 X2.9539 Y-0.1254
G1 X2.9538 Y-0.163
G1 X2.9547 Y-0.2006
G1 X2.957 Y-0.2382
G1 X2.9606 Y-0.2756
G1 X2.9657 Y-0.3129
G1 X2.9728 Y-0.3498
G1 X2.9808 Y-0.3806
G1 X2.9887 Y-0.4035
G1 X2.997 Y-0.4223
G1 X2.9984 Y-0.4249
G1 X3.0055 Y-0.4352
G1 X3.0146 Y-0.4438
G1 X3.0254 Y-0.4502
G1 X3.0373 Y-0.4542
G1 X3.0497 Y-0.4556
G1 X3.1456
G3 X3.1686 Y-0.4379 I-0.0009 J0.025 F10.
G1 X3.1692 Y-0.4356 F13.5
G1 X3.1696 Y-0.4333
G1 X3.2631 Y0.4279
G3 X3.2621 Y0.4379 I-0.0249 J0.0027
G3 X3.2391 Y0.4556 I-0.0239 J-0.0074 F10.
G1 X3.1451 F13.5
G1 X3.1319 Y0.4549
G1 X3.1223 Y0.4536
G1 X3.1118 Y0.4514
G1 X3.1007 Y0.4481
G1 X3.0877 Y0.443
G1 X3.0748 Y0.4367
G1 X3.0599 Y0.428
G1 X3.0449 Y0.4174
G1 X3.0282 Y0.4035
G1 X3.0114 Y0.3872
G1 X2.9931 Y0.3662
G1 X2.9743 Y0.3408
G1 X2.9551 Y0.31
G1 X2.9379 Y0.2765
G1 X2.923 Y0.242
G1 X2.9101 Y0.2067
G1 X2.899 Y0.1707
G1 X2.8896 Y0.1343
G1 X2.8815 Y0.0976
G1 X2.8747 Y0.0606
G1 X2.8692 Y0.0234
G1 X2.8647 Y-0.014
G1 X2.8614 Y-0.0514
G1 X2.8591 Y-0.089
G1 X2.8578 Y-0.1266
G1 X2.8577 Y-0.1642
G1 X2.8588 Y-0.2018
G1 X2.8611 Y-0.2393
G1 X2.8647 Y-0.2767
G1 X2.87 Y-0.314
G1 X2.8771 Y-0.3509
G1 X2.8851 Y-0.3814
G1 X2.893 Y-0.4041
G1 X2.9013 Y-0.4228
G1 X2.9025 Y-0.425
G1 X2.9096 Y-0.4353
G1 X2.9188 Y-0.4439
G1 X2.9295 Y-0.4503
G1 X2.9414 Y-0.4542
G1 X2.9538 Y-0.4556
G1 X3.0497
G3 X3.0727 Y-0.4379 I-0.0009 J0.025 F10.
G1 X3.0733 Y-0.4356 F13.5
G1 X3.0737 Y-0.4333
G1 X3.1691 Y0.4278
G3 X3.1681 Y0.4379 I-0.0248 J0.0028
G3 X3.1451 Y0.4556 I-0.0239 J-0.0074 F10.
G1 X3.0425 F13.5
G1 X3.0365 Y0.4553
G1 X3.0268 Y0.4539
G1 X3.0161 Y0.4515
G1 X3.0048 Y0.448
G1 X2.9916 Y0.4428
G1 X2.9786 Y0.4363
G1 X2.9634 Y0.4272
G1 X2.9482 Y0.4164
G1 X2.9312 Y0.4021
G1 X2.9144 Y0.3853
G1 X2.8959 Y0.3638
G1 X2.8767 Y0.3375
G1 X2.8572 Y0.3056
G1 X2.8403 Y0.2721
G1 X2.8256 Y0.2375
G1 X2.8129 Y0.202
G1 X2.802 Y0.166
G1 X2.7926 Y0.1296
G1 X2.7847 Y0.0929
G1 X2.778 Y0.0558
G1 X2.7726 Y0.0186
G1 X2.7682 Y-0.0187
G1 X2.765 Y-0.0562
G1 X2.7628 Y-0.0938
G1 X2.7618 Y-0.1314
G1 Y-0.169
G1 X2.763 Y-0.2066
G1 X2.7655 Y-0.2441
G1 X2.7693 Y-0.2815
G1 X2.7748 Y-0.3187
G1 X2.7822 Y-0.3556
G1 X2.7902 Y-0.3848
G1 X2.798 Y-0.4064
G1 X2.8064 Y-0.4249
G1 X2.8068 Y-0.4256
G1 X2.8139 Y-0.4357
G1 X2.823 Y-0.4441
G1 X2.8337 Y-0.4504
G1 X2.8455 Y-0.4542
G1 X2.8578 Y-0.4556
G1 X2.9538
G3 X2.9768 Y-0.4379 I-0.0009 J0.025 F10.
G1 X2.9774 Y-0.4356 F13.5
G1 X2.9778 Y-0.4331
G1 X3.0665 Y0.428
G3 X3.0655 Y0.4379 I-0.0249 J0.0026
G3 X3.0425 Y0.4556 I-0.0239 J-0.0074 F10.
G1 X2.9485 F13.5
G1 X2.9419 Y0.4552
G1 X2.9325 Y0.454
G1 X2.9216 Y0.4517
G1 X2.9106 Y0.4484
G1 X2.8977 Y0.4433
G1 X2.8844 Y0.4369
G1 X2.8697 Y0.4282
G1 X2.8539 Y0.4171
G1 X2.8376 Y0.4036
G1 X2.8203 Y0.3867
G1 X2.8016 Y0.3653
G1 X2.783 Y0.3402
G1 X2.7635 Y0.3088
G1 X2.7462 Y0.2753
G1 X2.7313 Y0.2408
G1 X2.7184 Y0.2055
G1 X2.7072 Y0.1696
G1 X2.6977 Y0.1332
G1 X2.6895 Y0.0965
G1 X2.6827 Y0.0595
G1 X2.6771 Y0.0223
G1 X2.6726 Y-0.0151
G1 X2.6693 Y-0.0525
G1 X2.667 Y-0.0901
G1 X2.6658 Y-0.1277
G1 X2.6657 Y-0.1653
G1 X2.6668 Y-0.2029
G1 X2.6692 Y-0.2404
G1 X2.673 Y-0.2778
G1 X2.6783 Y-0.3151
G1 X2.6855 Y-0.352
G1 X2.6936 Y-0.3825
G1 X2.7015 Y-0.405
G1 X2.7098 Y-0.4235
G1 X2.7107 Y-0.4252
G1 X2.7178 Y-0.4354
G1 X2.7269 Y-0.4439
G1 X2.7377 Y-0.4503
G1 X2.7495 Y-0.4542
G1 X2.7619 Y-0.4556
G1 X2.8578
G3 X2.8808 Y-0.4379 I-0.0009 J0.025 F10.
G1 X2.8814 Y-0.4356 F13.5
G1 X2.8818 Y-0.4332
G1 X2.9725 Y0.4279
G3 X2.9715 Y0.4379 I-0.0249 J0.0026
G3 X2.9485 Y0.4556 I-0.0239 J-0.0074 F10.
G1 X2.8545 F13.5
G1 X2.8465 Y0.4552
G1 X2.837 Y0.4539
G1 X2.8262 Y0.4516
G1 X2.815 Y0.4483
G1 X2.802 Y0.4432
G1 X2.7889 Y0.4368
G1 X2.774 Y0.428
G1 X2.7585 Y0.4172
G1 X2.7418 Y0.4033
G1 X2.7247 Y0.3866
G1 X2.7061 Y0.3653
G1 X2.687 Y0.3395
G1 X2.6675 Y0.3081
G1 X2.6503 Y0.2747
G1 X2.6353 Y0.2402
G1 X2.6224 Y0.2049
G1 X2.6113 Y0.169
G1 X2.6017 Y0.1326
G1 X2.5935 Y0.0959
G1 X2.5867 Y0.0589
G1 X2.5811 Y0.0217
G1 X2.5766 Y-0.0157
G1 X2.5732 Y-0.0531
G1 X2.571 Y-0.0907
G1 X2.5698 Y-0.1283
G1 Y-0.1659
G1 X2.5709 Y-0.2035
G1 X2.5733 Y-0.241
G1 X2.5771 Y-0.2784
G1 X2.5824 Y-0.3157
G1 X2.5897 Y-0.3526
G1 X2.5977 Y-0.3827
G1 X2.6056 Y-0.405
G1 X2.6139 Y-0.4236
G1 X2.6148 Y-0.4252
G1 X2.6219 Y-0.4354
G1 X2.631 Y-0.4439
G1 X2.6418 Y-0.4503
G1 X2.6536 Y-0.4542
G1 X2.666 Y-0.4556
G1 X2.7619
G3 X2.7849 Y-0.4379 I-0.0009 J0.025 F10.
G1 X2.7855 Y-0.4356 F13.5
G1 X2.7859 Y-0.4332
G1 X2.8785 Y0.4279
G3 X2.8775 Y0.4379 I-0.0249 J0.0027
G3 X2.8545 Y0.4556 I-0.0239 J-0.0074 F10.
G1 X2.7605 F13.5
G1 X2.751 Y0.4551
G1 X2.7414 Y0.4538
G1 X2.7306 Y0.4515
G1 X2.7195 Y0.4482
G1 X2.7064 Y0.4431
G1 X2.6933 Y0.4367
G1 X2.6783 Y0.4279
G1 X2.6628 Y0.417
G1 X2.6461 Y0.4031
G1 X2.6289 Y0.3864
G1 X2.6102 Y0.365
G1 X2.5912 Y0.3392
G1 X2.5716 Y0.3077
G1 X2.5544 Y0.2743
G1 X2.5394 Y0.2398
G1 X2.5265 Y0.2045
G1 X2.5153 Y0.1686
G1 X2.5057 Y0.1322
G1 X2.4976 Y0.0955
G1 X2.4907 Y0.0585
G1 X2.4851 Y0.0213
G1 X2.4806 Y-0.016
G1 X2.4773 Y-0.0535
G1 X2.475 Y-0.091
G1 X2.4738 Y-0.1286
G1 Y-0.1663
G1 X2.475 Y-0.2039
G1 X2.4774 Y-0.2414
G1 X2.4812 Y-0.2788
G1 X2.4865 Y-0.316
G1 X2.4938 Y-0.3529
G1 X2.5018 Y-0.3829
G1 X2.5097 Y-0.4052
G1 X2.518 Y-0.4237
G1 X2.5189 Y-0.4253
G1 X2.526 Y-0.4355
G1 X2.5351 Y-0.444
G1 X2.5458 Y-0.4503
G1 X2.5576 Y-0.4542
G1 X2.57 Y-0.4556
G1 X2.666
G3 X2.689 Y-0.4379 I-0.0009 J0.025 F10.
G1 X2.6896 Y-0.4356 F13.5
G1 X2.6899 Y-0.4333
G1 X2.7845 Y0.4278
G3 X2.7835 Y0.4379 I-0.0249 J0.0027
G3 X2.7605 Y0.4556 I-0.0239 J-0.0074 F10.
G1 X2.6665 F13.5
G1 X2.6553 Y0.455
G1 X2.6458 Y0.4537
G1 X2.6349 Y0.4514
G1 X2.6238 Y0.4481
G1 X2.6107 Y0.443
G1 X2.5975 Y0.4366
G1 X2.5826 Y0.4278
G1 X2.567 Y0.4169
G1 X2.5503 Y0.403
G1 X2.5331 Y0.3862
G1 X2.5144 Y0.3648
G1 X2.4953 Y0.339
G1 X2.4757 Y0.3074
G1 X2.4584 Y0.274
G1 X2.4435 Y0.2395
G1 X2.4305 Y0.2042
G1 X2.4194 Y0.1683
G1 X2.4098 Y0.1319
G1 X2.4016 Y0.0952
G1 X2.3947 Y0.0582
G1 X2.3891 Y0.021
G1 X2.3846 Y-0.0163
G1 X2.3813 Y-0.0538
G1 X2.379 Y-0.0913
G1 X2.3779 Y-0.1289
G1 X2.3778 Y-0.1666
G1 X2.3781 Y-0.1733
G1 X2.3791 Y-0.1828
G1 X2.3818 Y-0.192
G1 X2.3858 Y-0.2007
G1 X2.5241 Y-0.4402
G1 X2.5265 Y-0.4441
G1 X2.5279 Y-0.446
G1 X2.5297 Y-0.448
G1 X2.5305 Y-0.4487
G1 X2.5344 Y-0.4516
G1 X2.5364 Y-0.4528
G1 X2.5383 Y-0.4537
G1 X2.5404 Y-0.4544
G1 X2.5426 Y-0.455
G1 X2.5468 Y-0.4555
G1 X2.57 Y-0.4556
G3 X2.593 Y-0.4379 I-0.0009 J0.025 F10.
G1 X2.5936 Y-0.4357 F13.5
G1 X2.594 Y-0.4333
G1 X2.6905 Y0.4278
G3 X2.6895 Y0.4379 I-0.0248 J0.0028
G3 X2.6665 Y0.4556 I-0.0239 J-0.0074 F10.
G1 X2.5725 F13.5
G1 X2.5596 Y0.4549
G1 X2.559 Y0.4548
G1 X2.5485 Y0.4525
G1 X2.5387 Y0.4483
G1 X2.5298 Y0.4423
G1 X2.5222 Y0.4349
G1 X2.516 Y0.4262
G3 X2.5198 Y0.3974 I0.0221 J-0.0117 F10.
G3 X2.549 Y0.3919 I0.0183 J0.017 F13.5
G1 X2.5825 Y0.408
G3 X2.5955 Y0.4379 I-0.0109 J0.0225
G3 X2.5725 Y0.4556 I-0.0239 J-0.0074 F10.
G1 X2.5468 Y0.4555 F13.5
G1 X2.5426 Y0.455
G1 X2.5404 Y0.4544
G1 X2.5383 Y0.4537
G1 X2.5364 Y0.4528
G1 X2.5344 Y0.4516
G1 X2.5305 Y0.4487
G1 X2.5297 Y0.448
G1 X2.5279 Y0.446
G1 X2.5265 Y0.4441
G1 X2.5241 Y0.4402
G1 X2.3465 Y0.1325
G1 X2.3305 Y0.1012
G1 X2.3189 Y0.0734
G1 X2.3074 Y0.0377
G1 X2.2987 Y0.0011
G1 X2.2955 Y-0.0172
G1 X2.2947 Y-0.0273
G1 X2.2956 Y-0.0374
G1 X2.2982 Y-0.0471
G1 X2.3025 Y-0.0563
G3 X2.3293 Y-0.0674 I0.0212 J0.0132 F10.
G3 X2.3478 Y-0.0496 I-0.0056 J0.0244 F13.5
G1 X2.3918 Y0.1127
G3 X2.3732 Y0.1436 I-0.0241 J0.0065
G3 X2.3465 Y0.1325 I-0.0056 J-0.0244 F10.
G1 X2.2774 Y0.0128 F13.5
G1 X2.2763 Y0.0107
G1 X2.2754 Y0.0085
G1 X2.2747 Y0.0064
G1 X2.2742 Y0.0043
G1 X2.2739 Y0.
G1 X2.2742 Y-0.0043
G1 X2.2747 Y-0.0064
G1 X2.2754 Y-0.0085
G1 X2.2763 Y-0.0107
G1 X2.2774 Y-0.0128
G1 X2.3858 Y-0.2007
G1 X2.4015 Y-0.2118 F10.
G1 X2.4132 Y-0.2126
G1 X4.0852 Y-0.3291 F13.5
G1 X4.1279 Y-0.3405
G1 X4.1792 Y-0.3642
G1 X4.2219 Y-0.3968
G1 X4.2597 Y-0.4417
G1 X4.2872 Y-0.4915
G1 X4.3036 Y-0.5513
G1 X4.3045 Y-0.6114
G1 X4.2968 Y-0.6624
G1 X4.2732 Y-0.719
G1 X4.1856 Y-0.8761
G1 X4.0937 Y-1.0054
G1 X3.9862 Y-1.1325
G1 X3.8459 Y-1.2636
G1 X3.7091 Y-1.3651
G1 X3.581 Y-1.4439
G1 X3.4186 Y-1.5206
G1 X3.2733 Y-1.5718
G1 X3.0853 Y-1.6165
G1 X2.9229 Y-1.6382
G1 X2.7605 Y-1.6412
G1 X2.6152 Y-1.6306
G1 X2.4272 Y-1.6013
G1 X2.2733 Y-1.5549
G1 X2.1253 Y-1.5
G2 X2.061 Y-1.3974 I0.0337 J0.0925
G1 X2.0642 Y-1.3718
G3 X2.056 Y-1.3279 I-0.0613 J0.0113
G3 X2.042 Y-1.312 I-0.0531 J-0.0326 F10.
G1 X2.034 Y-1.3065
G1 X2.0255 Y-1.302 F13.5
G1 X2.0084 Y-1.2911
G1 X1.8989 Y-1.218
G1 X1.8809 Y-1.2071
G1 X1.8625 Y-1.1979
G1 X1.8387 Y-1.1883
G1 X1.807 Y-1.1785
G1 X1.7703 Y-1.1702
G1 X1.7331 Y-1.1644
G1 X1.6957 Y-1.1603
G1 X1.6582 Y-1.1573
G1 X1.6207 Y-1.1552
G1 X1.5831 Y-1.1537
G1 X1.5455 Y-1.1527
G1 X1.5079 Y-1.1519
G1 X1.4703 Y-1.1514
G1 X1.4327 Y-1.151
G1 X1.3951 Y-1.1507
G1 X1.3575 Y-1.1505
G1 X1.3198 Y-1.1503
G1 X1.2446 Y-1.1502
G1 X1.1318 Y-1.1501
G1 X0.8309 Y-1.15
G1 X-0.0718
G1 X-2.0653
G1 X-3.7202
G1 X-3.7577 Y-1.1464
G1 X-3.7922 Y-1.1315
G1 X-3.8216 Y-1.1081
G1 X-3.8456 Y-1.0791
G1 X-3.8645 Y-1.0466
G1 X-3.8792 Y-1.012
G1 X-3.8905 Y-0.9761
G1 X-3.8991 Y-0.9395
G1 X-3.9056 Y-0.9024
G1 X-3.9105 Y-0.8651
G1 X-3.9142 Y-0.8277
G1 X-3.917 Y-0.7902
G1 X-3.919 Y-0.7526
G1 X-3.9206 Y-0.715
G1 X-3.9217 Y-0.6775
G1 X-3.9226 Y-0.6399
G1 X-3.9232 Y-0.6022
G1 X-3.9235 Y-0.5738
G1 X-3.925 Y-0.5617
G1 X-3.9289 Y-0.5502
G1 X-3.935 Y-0.5397
G1 X-3.9433 Y-0.5308
G1 X-3.9491 Y-0.5256
G1 X-3.9655 Y-0.5106
G1 X-3.9678 Y-0.5085
G1 X-3.9752 Y-0.5
G1 X-4.0263 Y-0.4402
G1 X-4.0339 Y-0.4308
G1 X-4.036 Y-0.428
G1 X-4.051 Y-0.4188 F10.
G1 X-4.0638 Y-0.4152
G1 X-4.1792 Y-0.3823 F13.5
G2 X-4.2415 Y-0.3205 I0.031 J0.0934
G1 X-4.2836 Y-0.1838
G1 X-4.2996 Y-0.0897
G1 X-4.3048 Y0.0043
G1 X-4.2981 Y0.0897
G1 X-4.284 Y0.1838
G2 X-4.2379 Y0.2521 I0.0972 J-0.0158
G1 X-4.1088 Y0.33
G1 X-4.0937 Y0.3391 F10.
G1 X-4.0852 Y0.3494
G1 X-4.0557 Y0.3974 F13.5
G1 X-4.0504 Y0.406
G1 X-4.0395 Y0.4231
G1 X-4.0339 Y0.4308
G1 X-4.0263 Y0.4402
G1 X-4.0044 Y0.4658
G1 X-3.9947 Y0.4784
G1 X-3.986 Y0.4917
G1 X-3.977 Y0.5083
G1 X-3.9675 Y0.5298
G1 X-3.9578 Y0.5579
G1 X-3.9483 Y0.5943
G1 X-3.9416 Y0.6313
G1 X-3.9368 Y0.6686
G1 X-3.9334 Y0.7061
G1 X-3.931 Y0.7436
G1 X-3.9293 Y0.7812
G1 X-3.9281 Y0.8188
G1 X-3.9271 Y0.8564
G1 X-3.9193 Y0.8931
G1 X-3.9012 Y0.9261
G1 X-3.8758 Y0.9538
G1 X-3.8455 Y0.9762
G1 X-3.8123 Y0.9938
G1 X-3.7772 Y1.0074
G1 X-3.7411 Y1.0179
G1 X-3.7043 Y1.0259
G1 X-3.6672 Y1.0319
G1 X-3.6299 Y1.0365
G1 X-3.5924 Y1.0399
G1 X-3.5549 Y1.0425
G1 X-3.5173 Y1.0444
G1 X-3.4798 Y1.0458
G1 X-3.4422 Y1.0469
G1 X-3.4046 Y1.0477
G1 X-3.3669 Y1.0483
G1 X-3.3293 Y1.0487
G1 X-3.2917 Y1.0491
G1 X-3.2541 Y1.0493
G1 X-3.2165 Y1.0495
G1 X-3.1413 Y1.0497
G1 X-3.0284 Y1.0499
G1 X-2.8404 Y1.05
G1 X-2.4266
G1 X-0.4332
G1 X1.5603
G1 X1.6847
G1 X1.6963 Y1.0512
G1 X1.7074 Y1.0546
G1 X1.7176 Y1.0601
G1 X1.7265 Y1.0676
G1 X1.7606 Y1.1025
G1 X1.7649 Y1.1068
G1 X1.7777 Y1.1182
G1 X1.7842 Y1.1239
G1 X1.8318 Y1.1635
G1 X1.8392 Y1.1752 F10.
G1 X1.8393 Y1.1923
G1 X1.8399 Y1.2863 F13.5
G2 X1.8888 Y1.3744 I0.0984 J0.003
G1 X2.0853 Y1.4806
G1 X2.1708 Y1.518
G1 X2.299 Y1.5645
G1 X2.4443 Y1.605
G1 X2.5896 Y1.6275
G1 X2.769 Y1.642
G1 X2.9485 Y1.636
G1 X3.1194 Y1.6102
G1 X3.2989 Y1.564
G1 X3.4528 Y1.5061
G1 X3.6066 Y1.4293
G2 X3.6593 Y1.3376 I-0.0456 J-0.0872
G1 X3.6577 Y1.2778
G3 X3.6621 Y1.2512 I0.0622 J-0.0033
G3 X3.6802 Y1.2265 I0.0578 J0.0233 F10.
G1 X3.7023 Y1.2094 F13.5
G1 X3.769 Y1.1577
G1 X3.7775 Y1.1507
G1 X3.7946 Y1.1358
G1 X3.7982 Y1.1325
G1 X3.8801 Y1.0541
G1 X3.8874 Y1.047
G1 X3.8972 Y1.0374
G1 X3.9038 Y1.0299
G1 X3.9143 Y1.0177
G1 X3.9836 Y0.9359
G1 X3.998 Y0.9188
G1 X4.0042 Y0.9103
G1 X4.0132 Y0.8972
G1 X4.0254 Y0.8883 F10.
G1 X4.0412 Y0.8894
G1 X4.1108 Y0.8943 F13.5
G2 X4.2058 Y0.8419 I0.0078 J-0.0981
G1 X4.2883 Y0.688
G1 X4.3039 Y0.6282
G1 X4.3037 Y-0.6197
G1 X4.294 Y-0.6709
G1 X4.2714 Y-0.7222
G1 X4.1856 Y-0.8761
G1 X4.1 Y-0.9957
G1 X3.9861 Y-1.1325
G1 X3.8459 Y-1.2635
G1 X3.7006 Y-1.3705
G1 X3.581 Y-1.4439
G1 X3.4186 Y-1.5206
G1 X3.2733 Y-1.5718
G1 X3.1024 Y-1.6126
G1 X2.9229 Y-1.6382
G1 X2.769 Y-1.6401
G1 X2.6323 Y-1.6319
G1 X2.4272 Y-1.6014
G1 X2.2306 Y-1.5415
G1 X2.1024 Y-1.489
G1 X1.9755 Y-1.4234
G2 X1.9197 Y-1.3291 I0.0425 J0.0888
G1 X1.9247 Y-1.2692
G3 X1.9185 Y-1.2415 I-0.0623 J0.0008
G3 X1.9059 Y-1.2238 I-0.0562 J-0.0269 F10.
G1 X1.8989 Y-1.218
G1 X1.8973 Y-1.2169 F13.5
G1 X1.8888 Y-1.2102
G1 X1.8717 Y-1.1965
G1 X1.8665 Y-1.1923
G1 X1.7947 Y-1.1327
G1 X1.7789 Y-1.1208
G1 X1.7643 Y-1.1116
G1 X1.7464 Y-1.1022
G1 X1.7231 Y-1.0923
G1 X1.6925 Y-1.0821
G1 X1.656 Y-1.0731
G1 X1.6189 Y-1.0667
G1 X1.5816 Y-1.0621
G1 X1.5442 Y-1.0587
G1 X1.5066 Y-1.0563
G1 X1.4691 Y-1.0545
G1 X1.4315 Y-1.0533
G1 X1.3939 Y-1.0524
G1 X1.3563 Y-1.0517
G1 X1.3186 Y-1.0512
G1 X1.281 Y-1.0509
G1 X1.2434 Y-1.0506
G1 X1.2058 Y-1.0505
G1 X1.1306 Y-1.0502
G1 X1.0177 Y-1.0501
G1 X0.7921 Y-1.05
G1 X-0.1859
G1 X-2.1793
G1 X-3.6086
G1 X-3.6462 Y-1.0488
G1 X-3.6819 Y-1.0368
G1 X-3.7129 Y-1.0156
G1 X-3.7384 Y-0.9879
G1 X-3.7587 Y-0.9563
G1 X-3.7747 Y-0.9222
G1 X-3.7869 Y-0.8867
G1 X-3.7963 Y-0.8502
G1 X-3.8035 Y-0.8133
G1 X-3.8089 Y-0.7761
G1 X-3.8129 Y-0.7387
G1 X-3.816 Y-0.7012
G1 X-3.8183 Y-0.6637
G1 X-3.8191 Y-0.6516
G1 X-3.821 Y-0.6406
G1 X-3.8248 Y-0.6302
G1 X-3.8306 Y-0.6208
G1 X-3.838 Y-0.6126
G1 X-3.8468 Y-0.6059
G1 X-3.8662 Y-0.594
G1 X-3.8715 Y-0.5906
G1 X-3.8801 Y-0.5841
G1 X-3.8886 Y-0.5775
G1 X-3.9399 Y-0.5337
G1 X-3.9433 Y-0.5308
G1 X-3.9592 Y-0.5251 F10.
G1 X-3.973 Y-0.5274
G1 X-4.051 Y-0.5406 F13.5
G2 X-4.1023 Y-0.5337 I-0.013 J0.0976
G1 X-4.1108 Y-0.5303
G2 X-4.1634 Y-0.4829 I0.0353 J0.0919
G1 X-4.231 Y-0.3462
G1 X-4.2579 Y-0.2692
G1 X-4.2879 Y-0.1667
G1 X-4.3052 Y-0.0043
G1 X-4.2981 Y0.0897
G1 X-4.2797 Y0.2009
G1 X-4.2485 Y0.3034
G2 X-4.2134 Y0.3513 I0.0932 J-0.0316
G1 X-4.1422 Y0.3974
G1 X-4.0304 Y0.4496
G1 X-4.014 Y0.4573 F10.
G1 X-4.0044 Y0.4658
G1 X-3.9741 Y0.5013 F13.5
G1 X-3.9678 Y0.5085
G1 X-3.9655 Y0.5106
G1 X-3.9484 Y0.5262
G1 X-3.9394 Y0.5342
G1 X-3.9228 Y0.5483
G1 X-3.9164 Y0.5543
G1 X-3.908 Y0.5638
G1 X-3.899 Y0.5755
G1 X-3.8896 Y0.59
G1 X-3.8798 Y0.6083
G1 X-3.8696 Y0.6317
G1 X-3.8591 Y0.662
G1 X-3.8498 Y0.6984
G1 X-3.843 Y0.7354
G1 X-3.8371 Y0.7726
G1 X-3.8227 Y0.8073
G1 X-3.8004 Y0.8376
G1 X-3.7723 Y0.8627
G1 X-3.7406 Y0.8828
G1 X-3.7065 Y0.8987
G1 X-3.671 Y0.911
G1 X-3.6346 Y0.9205
G1 X-3.5977 Y0.9278
G1 X-3.5604 Y0.9333
G1 X-3.5231 Y0.9374
G1 X-3.4856 Y0.9406
G1 X-3.448 Y0.9429
G1 X-3.4105 Y0.9447
G1 X-3.3729 Y0.9461
G1 X-3.3353 Y0.9471
G1 X-3.2977 Y0.9478
G1 X-3.2601 Y0.9484
G1 X-3.2225 Y0.9488
G1 X-3.1848 Y0.9491
G1 X-3.1472 Y0.9493
G1 X-3.1096 Y0.9495
G1 X-3.0344 Y0.9497
G1 X-2.9216 Y0.9499
G1 X-2.6959 Y0.95
G1 X-2.1693
G1 X-0.1758
G1 X1.5919
G1 X1.5938
G1 X1.6065 Y0.9517
G1 X1.6185 Y0.9561
G1 X1.6293 Y0.963
G1 X1.6383 Y0.9722
G1 X1.6502 Y0.9872
G1 X1.6572 Y0.9957
G1 X1.6666 Y1.0059
G1 X1.673 Y1.0128
G1 X1.7265 Y1.0676
G1 X1.733 Y1.0844 F10.
G1 X1.7314 Y1.0972
G1 X1.7195 Y1.1923 F13.5
G2 X1.7606 Y1.2815 I0.098 J0.0089
G1 X1.9742 Y1.4226
G1 X2.1281 Y1.501
G1 X2.2819 Y1.5585
G1 X2.4443 Y1.605
G1 X2.5896 Y1.6272
G1 X2.7349 Y1.6395
G1 X2.8374 Y1.6407
G1 X2.9485 Y1.636
G1 X3.1194 Y1.6102
G1 X3.2989 Y1.564
G1 X3.4528 Y1.5061
G1 X3.6066 Y1.4293
G1 X3.7519 Y1.335
G1 X3.8715 Y1.2411
G1 X4.01 Y1.1068
G1 X4.1023 Y0.993
G1 X4.1963 Y0.8562
G1 X4.2818 Y0.7026
G1 X4.3005 Y0.6453
G1 X4.3056 Y0.594
G1 X4.3038 Y-0.6197
G1 X4.2949 Y-0.6678
G1 X4.2715 Y-0.7222
G1 X4.1856 Y-0.8761
G1 X4.1 Y-0.9957
G1 X3.9862 Y-1.1325
G1 X3.8387 Y-1.2692
G1 X3.7006 Y-1.3705
G1 X3.581 Y-1.4439
G1 X3.4186 Y-1.5206
G1 X3.2647 Y-1.5741
G1 X3.1024 Y-1.6125
G1 X2.9229 Y-1.6382
G1 X2.7776 Y-1.6405
G1 X2.6323 Y-1.6325
G1 X2.4272 Y-1.6014
G1 X2.2563 Y-1.5503
G1 X2.1024 Y-1.489
G1 X1.9486 Y-1.4073
G2 X1.9103 Y-1.3718 I0.0454 J0.0873
G1 X1.8546 Y-1.283
G1 X1.8112 Y-1.1585
G1 X1.8081 Y-1.1496 F10.
G1 X1.7947 Y-1.1327
G1 X1.7842 Y-1.1239 F13.5
G1 X1.7745 Y-1.1154
G1 X1.7649 Y-1.1068
G1 X1.7606 Y-1.1025
G1 X1.7064 Y-1.047
G1 X1.6938 Y-1.0354
G1 X1.6823 Y-1.0263
G1 X1.6684 Y-1.0171
G1 X1.6505 Y-1.0071
G1 X1.6281 Y-0.997
G1 X1.5989 Y-0.9865
G1 X1.5626 Y-0.9766
G1 X1.5257 Y-0.9695
G1 X1.4885 Y-0.9642
G1 X1.451 Y-0.9604
G1 X1.4135 Y-0.9576
G1 X1.376 Y-0.9556
G1 X1.3384 Y-0.9541
G1 X1.3008 Y-0.953
G1 X1.2632 Y-0.9522
G1 X1.2256 Y-0.9516
G1 X1.188 Y-0.9512
G1 X1.1504 Y-0.9508
G1 X1.1128 Y-0.9506
G1 X1.0751 Y-0.9504
G1 X0.9999 Y-0.9502
G1 X0.8871 Y-0.9501
G1 X0.6614 Y-0.95
G1 X-0.2789
G1 X-2.2724
G1 X-3.5136
G1 X-3.5511 Y-0.9474
G1 X-3.5862 Y-0.9339
G1 X-3.6164 Y-0.9115
G1 X-3.6412 Y-0.8832
G1 X-3.6609 Y-0.8511
G1 X-3.6763 Y-0.8168
G1 X-3.6882 Y-0.7811
G1 X-3.6973 Y-0.7446
G1 X-3.7049 Y-0.7078
G1 X-3.7059 Y-0.7036
G1 X-3.7095 Y-0.6932
G1 X-3.7149 Y-0.6837
G1 X-3.7221 Y-0.6753
G1 X-3.7306 Y-0.6684
G1 X-3.7403 Y-0.6633
G1 X-3.7519 Y-0.6585
G1 X-3.7775 Y-0.6475
G1 X-3.7817 Y-0.6453
G1 X-3.8032 Y-0.6326
G1 X-3.8117 Y-0.6274
G1 X-3.8468 Y-0.6059
G1 X-3.863 Y-0.603 F10.
G1 X-3.8765 Y-0.6083
G1 X-3.9399 Y-0.6335 F13.5
G2 X-4.0425 Y-0.6163 I-0.0374 J0.091
G1 X-4.0937 Y-0.5619
G1 X-4.147 Y-0.4961
G1 X-4.2074 Y-0.3974
G1 X-4.2617 Y-0.2692
G1 X-4.293 Y-0.141
G1 X-4.3052 Y-0.0043
G1 X-4.2981 Y0.0897
G1 X-4.2797 Y0.2009
G1 X-4.2414 Y0.3205
G1 X-4.1934 Y0.4231
G1 X-4.1321 Y0.5171
G2 X-4.0228 Y0.5513 I0.0785 J-0.0593
G1 X-3.9826 Y0.5385
G3 X-3.9507 Y0.5358 I0.021 J0.0586
G3 X-3.9228 Y0.5483 I-0.0109 J0.0613 F10.
G1 X-3.8886 Y0.5775 F13.5
G1 X-3.8782 Y0.5855
G1 X-3.8715 Y0.5906
G1 X-3.8662 Y0.594
G1 X-3.8459 Y0.6065
G1 X-3.8394 Y0.611
G1 X-3.8314 Y0.6174
G1 X-3.8227 Y0.6257
G1 X-3.8131 Y0.6364
G1 X-3.8022 Y0.6507
G1 X-3.7819 Y0.6824
G1 X-3.7599 Y0.7129
G1 X-3.7338 Y0.7399
G1 X-3.7039 Y0.7629
G1 X-3.6714 Y0.7818
G1 X-3.637 Y0.797
G1 X-3.6014 Y0.8091
G1 X-3.565 Y0.8186
G1 X-3.5282 Y0.826
G1 X-3.491 Y0.8317
G1 X-3.4536 Y0.8361
G1 X-3.4162 Y0.8395
G1 X-3.3786 Y0.842
G1 X-3.3411 Y0.844
G1 X-3.3035 Y0.8455
G1 X-3.2659 Y0.8466
G1 X-3.2283 Y0.8474
G1 X-3.1907 Y0.8481
G1 X-3.1531 Y0.8485
G1 X-3.1155 Y0.8489
G1 X-3.0779 Y0.8492
G1 X-3.0402 Y0.8494
G1 X-2.965 Y0.8497
G1 X-2.8522 Y0.8499
G1 X-2.6641 Y0.85
G1 X-1.9495
G1 X0.044
G1 X1.5109
G1 X1.5153 Y0.8502
G1 X1.5273 Y0.8519
G1 X1.5387 Y0.8561
G1 X1.549 Y0.8626
G1 X1.5578 Y0.871
G1 X1.564 Y0.8785
G1 X1.569 Y0.8846
G1 X1.5982 Y0.9214
G1 X1.6383 Y0.9722
G1 X1.6432 Y0.9872 F10.
G1 X1.6411 Y1.0022
G1 X1.6262 Y1.1068 F13.5
G2 X1.6604 Y1.1923 I0.0979 J0.0104
G1 X1.8289 Y1.3273
G1 X1.9752 Y1.4231
G1 X2.1281 Y1.5011
G1 X2.2904 Y1.562
G1 X2.4443 Y1.605
G1 X2.5981 Y1.6285
G1 X2.7519 Y1.6406
G1 X2.8972 Y1.639
G1 X2.9656 Y1.6335
G1 X3.1194 Y1.6102
G1 X3.2989 Y1.564
G1 X3.4528 Y1.5061
G1 X3.6066 Y1.4293
G1 X3.7519 Y1.335
G1 X3.8715 Y1.2414
G1 X4.01 Y1.1068
G1 X4.1023 Y0.993
G1 X4.1963 Y0.8562
G1 X4.2804 Y0.7051
G1 X4.3007 Y0.6453
G1 X4.3056 Y0.5855
G1 X4.3038 Y-0.6197
G1 X4.2949 Y-0.6678
G1 X4.2715 Y-0.7222
G1 X4.1856 Y-0.8761
G1 X4.1 Y-0.9957
G1 X3.9862 Y-1.1325
G1 X3.8387 Y-1.2692
G1 X3.7006 Y-1.3705
G1 X3.581 Y-1.4439
G1 X3.4186 Y-1.5206
G1 X3.2733 Y-1.5717
G1 X3.0938 Y-1.6143
G1 X2.9229 Y-1.6382
G1 X2.7605 Y-1.6407
G1 X2.581 Y-1.628
G1 X2.4186 Y-1.5989
G1 X2.2563 Y-1.5503
G1 X2.1024 Y-1.489
G1 X1.9461 Y-1.406
G1 X1.8118 Y-1.3157
G2 X1.7763 Y-1.2692 I0.0568 J0.0804
G1 X1.7465 Y-1.1838
G1 X1.7199 Y-1.0744
G1 X1.7174 Y-1.0641 F10.
G1 X1.7064 Y-1.047
G1 X1.673 Y-1.0128 F13.5
G1 X1.665 Y-1.0043
G1 X1.6572 Y-0.9957
G1 X1.6495 Y-0.9862
G1 X1.6299 Y-0.9615
G1 X1.6198 Y-0.95
G1 X1.6111 Y-0.9415
G1 X1.5999 Y-0.9322
G1 X1.586 Y-0.9225
G1 X1.5686 Y-0.9124
G1 X1.5469 Y-0.9019
G1 X1.5188 Y-0.891
G1 X1.4828 Y-0.8803
G1 X1.446 Y-0.8724
G1 X1.4088 Y-0.8666
G1 X1.3715 Y-0.8623
G1 X1.334 Y-0.8591
G1 X1.2965 Y-0.8567
G1 X1.2589 Y-0.855
G1 X1.2213 Y-0.8537
G1 X1.1837 Y-0.8527
G1 X1.1461 Y-0.852
G1 X1.1085 Y-0.8515
G1 X1.0709 Y-0.8511
G1 X1.0333 Y-0.8508
G1 X0.9957 Y-0.8506
G1 X0.958 Y-0.8504
G1 X0.8828 Y-0.8502
G1 X0.77 Y-0.8501
G1 X0.5443 Y-0.85
G1 X-0.3208
G1 X-2.3142
G1 X-3.405
G1 X-3.4426 Y-0.8492
G1 X-3.4785 Y-0.8379
G1 X-3.5099 Y-0.8172
G1 X-3.5359 Y-0.79
G1 X-3.5571 Y-0.7589
G1 X-3.5713 Y-0.7341
G1 X-3.5782 Y-0.7245
G1 X-3.5869 Y-0.7164
G1 X-3.5971 Y-0.7103
G1 X-3.6083 Y-0.7064
G1 X-3.6408 Y-0.6986
G1 X-3.6664 Y-0.6924
G1 X-3.675 Y-0.6895
G1 X-3.6921 Y-0.6831
G1 X-3.7012 Y-0.6795
G1 X-3.7403 Y-0.6633
G1 X-3.7549 Y-0.6624 F10.
G1 X-3.7693 Y-0.6702
G1 X-3.8373 Y-0.7071 F13.5
G2 X-3.9057 Y-0.7166 I-0.0469 J0.0865
G1 X-3.9181 Y-0.7137
G2 X-3.9703 Y-0.688 I0.0154 J0.0972
G1 X-4.0809 Y-0.5769
G1 X-4.145 Y-0.4992
G1 X-4.2074 Y-0.3974
G1 X-4.2478 Y-0.3034
G1 X-4.2833 Y-0.1838
G1 X-4.3016 Y-0.0641
G1 X-4.3044 Y0.0128
G1 X-4.2968 Y0.0983
G1 X-4.2778 Y0.2094
G1 X-4.255 Y0.2863
G1 X-4.1963 Y0.4183
G1 X-4.1279 Y0.5223
G1 X-4.0596 Y0.6009
G2 X-3.9484 Y0.6225 I0.0709 J-0.0683
G1 X-3.8989 Y0.6026
G3 X-3.8754 Y0.5984 I0.0224 J0.0582
G3 X-3.8542 Y0.6026 I-0.0011 J0.0623 F10.
G1 X-3.8459 Y0.6065
G1 X-3.8104 Y0.6282 F13.5
G1 X-3.8032 Y0.6326
G1 X-3.7817 Y0.6453
G1 X-3.7775 Y0.6475
G1 X-3.7519 Y0.6585
G1 X-3.7006 Y0.6797
G1 X-3.6921 Y0.6831
G1 X-3.675 Y0.6895
G1 X-3.6664 Y0.6924
G1 X-3.6408 Y0.6986
G1 X-3.5895 Y0.7109
G1 X-3.581 Y0.7128
G1 X-3.5639 Y0.7162
G1 X-3.5553 Y0.7176
G1 X-3.5182 Y0.7236
G1 X-3.4809 Y0.7288
G1 X-3.4436 Y0.7331
G1 X-3.4061 Y0.7366
G1 X-3.3686 Y0.7395
G1 X-3.3311 Y0.7418
G1 X-3.2935 Y0.7436
G1 X-3.2559 Y0.7451
G1 X-3.2183 Y0.7462
G1 X-3.1807 Y0.7471
G1 X-3.1431 Y0.7477
G1 X-3.1055 Y0.7483
G1 X-3.0679 Y0.7487
G1 X-3.0303 Y0.749
G1 X-2.9927 Y0.7492
G1 X-2.9551 Y0.7494
G1 X-2.8798 Y0.7497
G1 X-2.767 Y0.7499
G1 X-2.5789 Y0.75
G1 X-1.7138
G1 X-1.5634
G1 X0.4301
G1 X1.3855
G1 X1.3929 Y0.7505
G1 X1.4001 Y0.7519
G1 X1.4072 Y0.7542
G1 X1.4102 Y0.7554
G1 X1.4187 Y0.759
G1 X1.4325 Y0.765
G1 X1.4358 Y0.7664
G1 X1.4443 Y0.7716
G1 X1.4748 Y0.7906
G1 X1.4785 Y0.7934
G1 X1.4968 Y0.8077
G1 X1.5067 Y0.8162
G1 X1.5127 Y0.8215
G1 X1.5256 Y0.8333
G1 X1.5298 Y0.8376
G1 X1.5578 Y0.871
G1 X1.5685 Y0.8932 F10.
G1 X1.5711 Y0.8989
G3 X1.5784 Y0.9359 I-0.0911 J0.0372 F13.5
G1 X1.5811 Y1.0299
G1 X1.6766 Y1.2009
G1 X1.8204 Y1.3216
G1 X1.9752 Y1.4231
G1 X2.1281 Y1.5011
G1 X2.2904 Y1.562
G1 X2.4443 Y1.605
G1 X2.5896 Y1.6275
G1 X2.769 Y1.642
G1 X2.9485 Y1.636
G1 X3.1194 Y1.6102
G1 X3.2989 Y1.564
G1 X3.4528 Y1.5061
G1 X3.6066 Y1.4293
G1 X3.7487 Y1.3376
G1 X3.8715 Y1.2415
G1 X4.01 Y1.1068
G1 X4.1143 Y0.9786
G1 X4.2013 Y0.8504
G1 X4.2883 Y0.688
G1 X4.3039 Y0.6282
G1 X4.3038 Y-0.6197
G1 X4.2941 Y-0.6709
G1 X4.2715 Y-0.7222
G1 X4.1856 Y-0.8761
G1 X4.0999 Y-0.9957
G1 X3.9861 Y-1.1325
G1 X3.8459 Y-1.2635
G1 X3.7006 Y-1.3705
G1 X3.581 Y-1.4439
G1 X3.4186 Y-1.5206
G1 X3.2733 Y-1.5718
G1 X3.0853 Y-1.6165
G1 X2.9229 Y-1.6382
G1 X2.7519 Y-1.6406
G1 X2.5981 Y-1.6293
G1 X2.4186 Y-1.5989
G1 X2.2563 Y-1.5503
G1 X2.1024 Y-1.489
G1 X1.9461 Y-1.406
G1 X1.7947 Y-1.3018
G1 X1.6836 Y-1.2085
G2 X1.6485 Y-1.141 I0.0629 J0.0757
G1 X1.6411 Y-0.9902
G1 X1.6409 Y-0.9866 F10.
G1 X1.6299 Y-0.9615
G1 X1.5811 Y-0.8999 F13.5
G1 X1.569 Y-0.8846
G1 X1.564 Y-0.8785
G1 X1.5477 Y-0.859
G1 X1.5397 Y-0.8504
G1 X1.53 Y-0.8414
G1 X1.5172 Y-0.8315
G1 X1.5019 Y-0.8214
G1 X1.4823 Y-0.8106
G1 X1.458 Y-0.7997
G1 X1.4263 Y-0.7884
G1 X1.39 Y-0.7787
G1 X1.3531 Y-0.7715
G1 X1.3159 Y-0.766
G1 X1.2785 Y-0.762
G1 X1.241 Y-0.759
G1 X1.2034 Y-0.7567
G1 X1.1659 Y-0.755
G1 X1.1283 Y-0.7537
G1 X1.0907 Y-0.7528
G1 X1.0531 Y-0.7521
G1 X1.0155 Y-0.7515
G1 X0.9778 Y-0.7511
G1 X0.9402 Y-0.7509
G1 X0.9026 Y-0.7506
G1 X0.865 Y-0.7505
G1 X0.7898 Y-0.7503
G1 X0.677 Y-0.7501
G1 X0.4513 Y-0.75
G1 X-0.4138
G1 X-2.4073
G1 X-3.31
G1 X-3.3475 Y-0.7481
G1 X-3.3831 Y-0.736
G1 X-3.3872 Y-0.7336
G1 X-3.3965 Y-0.7292
G1 X-3.4065 Y-0.7265
G1 X-3.4167 Y-0.7256
G1 X-3.4442
G1 X-3.4528 Y-0.7252
G1 X-3.4698 Y-0.7243
G1 X-3.4784 Y-0.7238
G1 X-3.5297 Y-0.7197
G1 X-3.5553 Y-0.7176
G1 X-3.5639 Y-0.7162
G1 X-3.581 Y-0.7128
G1 X-3.5895 Y-0.7109
G1 X-3.6083 Y-0.7064
G1 X-3.6237 Y-0.7082 F10.
G1 X-3.6353 Y-0.7183
G1 X-3.6888 Y-0.765 F13.5
G2 X-3.7872 Y-0.7843 I-0.0656 J0.0734
G1 X-3.8497 Y-0.7564
G1 X-3.9484 Y-0.6952
G1 X-4.0425 Y-0.617
G1 X-4.103 Y-0.5513
G1 X-4.147 Y-0.4961
G1 X-4.2074 Y-0.3974
G1 X-4.2589 Y-0.2778
G1 X-4.2867 Y-0.1667
G1 X-4.3022 Y-0.0553
G1 X-4.3043 Y0.0128
G1 X-4.2972 Y0.0983
G1 X-4.2777 Y0.2094
G1 X-4.2553 Y0.2863
G1 X-4.2114 Y0.3889
G1 X-4.1613 Y0.4744
G1 X-4.1194 Y0.5323
G1 X-4.0484 Y0.6111
G1 X-3.9484 Y0.6956
G1 X-3.8203 Y0.7717
G1 X-3.7517 Y0.7991
G2 X-3.6408 Y0.777 I0.0397 J-0.0901
G1 X-3.6056 Y0.7393
G3 X-3.5853 Y0.7237 I0.0473 J0.0405
G3 X-3.5553 Y0.7176 I0.027 J0.0562 F10.
G1 X-3.5297 Y0.7197 F13.5
G1 X-3.4784 Y0.7238
G1 X-3.4698 Y0.7243
G1 X-3.4528 Y0.7252
G1 X-3.4442 Y0.7256
G1 X1.2478
G1 X1.2563
G1 X1.282 Y0.7269
G1 X1.2905 Y0.7275
G1 X1.3076 Y0.7289
G1 X1.3161 Y0.7296
G1 X1.3418 Y0.7341
G1 X1.3503 Y0.736
G1 X1.3674 Y0.7401
G1 X1.376 Y0.7423
G1 X1.4016 Y0.752
G1 X1.4072 Y0.7542
G1 X1.419 Y0.765 F10.
G1 X1.4208 Y0.7798
G1 X1.4222 Y0.7906 F13.5
G1 X1.4231 Y0.8761
G2 X1.4443 Y0.939 I0.0984 J0.0018
G1 X1.5725 Y1.0961
G1 X1.6706 Y1.1923
G1 X1.8204 Y1.3216
G1 X1.9752 Y1.4231
G1 X2.1281 Y1.5011
G1 X2.2904 Y1.562
G1 X2.4443 Y1.605
G1 X2.5896 Y1.6275
G1 X2.769 Y1.642
G1 X2.9485 Y1.636
G1 X3.1194 Y1.6102
G1 X3.2989 Y1.564
G1 X3.4528 Y1.5061
G1 X3.6066 Y1.4293
G1 X3.7487 Y1.3376
G1 X3.8715 Y1.2415
G1 X4.01 Y1.1068
G1 X4.1143 Y0.9786
G1 X4.2013 Y0.8504
G1 X4.2883 Y0.688
G1 X4.3039 Y0.6282
G1 X4.3038 Y-0.6197
G1 X4.2941 Y-0.6709
G1 X4.2715 Y-0.7222
G1 X4.1856 Y-0.8761
G1 X4.0999 Y-0.9957
G1 X3.9861 Y-1.1325
G1 X3.8459 Y-1.2635
G1 X3.7006 Y-1.3705
G1 X3.581 Y-1.4439
G1 X3.4186 Y-1.5206
G1 X3.2733 Y-1.5718
G1 X3.0853 Y-1.6165
G1 X2.9229 Y-1.6382
G1 X2.7605 Y-1.6412
G1 X2.6152 Y-1.6306
G1 X2.4272 Y-1.6014
G1 X2.2563 Y-1.5503
G1 X2.1024 Y-1.489
G1 X1.9461 Y-1.406
G1 X1.7947 Y-1.3018
G1 X1.6797 Y-1.2009
G1 X1.5601 Y-1.0831
G1 X1.5327 Y-1.047
G2 X1.5298 Y-0.9523 I0.0848 J0.0499
G1 X1.5517 Y-0.9103
G3 X1.5575 Y-0.8877 I-0.0409 J0.0226
G3 X1.553 Y-0.8675 I-0.0467 J0. F10.
G1 X1.5477 Y-0.859
G1 X1.5298 Y-0.8376 F13.5
G1 X1.5256 Y-0.8333
G1 X1.5127 Y-0.8215
G1 X1.5042 Y-0.814
G1 X1.4968 Y-0.8077
G1 X1.4785 Y-0.7934
G1 X1.4748 Y-0.7906
G1 X1.4443 Y-0.7716
G1 X1.4358 Y-0.7664
G1 X1.4273 Y-0.7627
G1 X1.4187 Y-0.759
G1 X1.4102 Y-0.7554
G1 X1.4016 Y-0.752
G1 X1.376 Y-0.7423
G1 X1.3674 Y-0.7401
G1 X1.3503 Y-0.736
G1 X1.3418 Y-0.7341
G1 X1.3161 Y-0.7296
G1 X1.3076 Y-0.7289
G1 X1.2905 Y-0.7275
G1 X1.282 Y-0.7269
G1 X1.2563 Y-0.7256
G1 X1.2478
G1 X-3.4167
G1 X-3.4312 Y-0.7308 F10.
G1 X-3.4411 Y-0.7428
G1 X-4.333 Y-1.8262 F13.5
G1 X-4.3416 Y-1.833
G2 X-4.4926 Y-1.7817 Z-0.1957 I-0.057 J0.0802
G1 X-4.4938 Y-1.7776 Z-0.1978 F10.
G1 X-4.4948 Y-1.7735 Z-0.2
G1 X-4.5 Y-1.7527
G1 Y-1.7467 F13.5
G1 X-4.5075 Y-1.7099
G1 X-4.5128 Y-1.6726
G1 X-4.5165 Y-1.6352
G1 X-4.5191 Y-1.5977
G1 X-4.5209 Y-1.5601
G1 X-4.5222 Y-1.5225
G1 X-4.523 Y-1.4849
G1 X-4.5236 Y-1.4473
G1 X-4.5241 Y-1.4097
G1 X-4.5243 Y-1.3721
G1 X-4.5245 Y-1.3345
G1 X-4.5247 Y-1.2969
G1 X-4.5248 Y-1.2217
G1 X-4.5249 Y-1.1088
G1 X-4.525 Y-0.7327
G1 Y0.2452
G1 Y1.5053
G1 X-4.5242 Y1.5146
G1 X-4.5195 Y1.5328
G1 X-4.5001 Y1.5651
G1 X-4.4714 Y1.5894
G1 X-4.4382 Y1.6071
G1 X-4.4028 Y1.6198
G1 X-4.3663 Y1.6289
G1 X-4.3293 Y1.6352
G1 X-4.2919 Y1.6397
G1 X-4.2544 Y1.6428
G1 X-4.2169 Y1.645
G1 X-4.1793 Y1.6466
G1 X-4.1417 Y1.6476
G1 X-4.1041 Y1.6483
G1 X-4.0665 Y1.6488
G1 X-4.0289 Y1.6492
G1 X-3.9913 Y1.6494
G1 X-3.9536 Y1.6496
G1 X-3.8784 Y1.6498
G1 X-3.8408 Y1.6499
G1 X-3.6904 Y1.65
G1 X-2.6372
G1 X-1.8473
G1 X0.1461
G1 X2.1396
G1 X4.1331
G1 X4.3869
G1 X4.3962 Y1.6485
G1 X4.4141 Y1.6425
G1 X4.4449 Y1.6209
G1 X4.4679 Y1.5912
G1 X4.4846 Y1.5575
G1 X4.4966 Y1.5218
G1 X4.5051 Y1.4852
G1 X4.5111 Y1.4481
G1 X4.5153 Y1.4107
G1 X4.5183 Y1.3732
G1 X4.5203 Y1.3356
G1 X4.5218 Y1.2981
G1 X4.5228 Y1.2605
G1 X4.5234 Y1.2229
G1 X4.5239 Y1.1852
G1 X4.5243 Y1.1476
G1 X4.5245 Y1.11
G1 X4.5246 Y1.0724
G1 X4.5248 Y0.9972
G1 X4.5249 Y0.8843
G1 X4.525 Y0.5458
G1 Y-0.0184
G1 Y-1.5041
G1 X4.5245 Y-1.5134
G1 X4.5205 Y-1.5318
G1 X4.5015 Y-1.5643
G1 X4.473 Y-1.5888
G1 X4.4399 Y-1.6067
G1 X4.4045 Y-1.6195
G1 X4.368 Y-1.6286
G1 X4.331 Y-1.6351
G1 X4.2936 Y-1.6396
G1 X4.2562 Y-1.6428
G1 X4.2186 Y-1.645
G1 X4.181 Y-1.6465
G1 X4.1434 Y-1.6476
G1 X4.1058 Y-1.6483
G1 X4.0682 Y-1.6488
G1 X4.0306 Y-1.6492
G1 X3.993 Y-1.6494
G1 X3.9554 Y-1.6496
G1 X3.8802 Y-1.6498
G1 X3.7673 Y-1.6499
G1 X3.4664 Y-1.65
G1 X2.0748
G1 X0.0813
G1 X-1.9122
G1 X-3.9056
G1 X-4.2818
G1 X-4.3 Y-1.6453
G1 X-4.333 Y-1.6273
G1 X-4.3584 Y-1.5995
G1 X-4.3772 Y-1.5669
G1 X-4.3909 Y-1.5319
G1 X-4.4008 Y-1.4956
G1 X-4.4079 Y-1.4587
G1 X-4.413 Y-1.4214
G1 X-4.4165 Y-1.384
G1 X-4.419 Y-1.3465
G1 X-4.4208 Y-1.3089
G1 X-4.4221 Y-1.2713
G1 X-4.4229 Y-1.2337
G1 X-4.4236 Y-1.1961
G1 X-4.424 Y-1.1585
G1 X-4.4243 Y-1.1209
G1 X-4.4245 Y-1.0833
G1 X-4.4247 Y-1.0456
G1 X-4.4248 Y-0.9704
G1 X-4.4249 Y-0.8576
G1 X-4.425 Y-0.5191
G1 Y-0.1053
G1 Y1.3804
G1 X-4.4215 Y1.3988
G1 X-4.4076 Y1.4338
G1 X-4.3834 Y1.4626
G1 X-4.3533 Y1.4852
G1 X-4.3199 Y1.5024
G1 X-4.2845 Y1.5152
G1 X-4.2481 Y1.5248
G1 X-4.2112 Y1.5317
G1 X-4.1739 Y1.5368
G1 X-4.1365 Y1.5405
G1 X-4.099 Y1.5432
G1 X-4.0614 Y1.5451
G1 X-4.0238 Y1.5465
G1 X-3.9862 Y1.5475
G1 X-3.9486 Y1.5482
G1 X-3.911 Y1.5487
G1 X-3.8734 Y1.5491
G1 X-3.8358 Y1.5494
G1 X-3.7982 Y1.5495
G1 X-3.723 Y1.5498
G1 X-3.6101 Y1.5499
G1 X-3.3844 Y1.55
G1 X-1.9928
G1 X0.0007
G1 X1.9942
G1 X3.9876
G1 X4.2509
G1 X4.2696 Y1.5475
G1 X4.3051 Y1.5352
G1 X4.3346 Y1.5119
G1 X4.3579 Y1.4824
G1 X4.3757 Y1.4492
G1 X4.389 Y1.4141
G1 X4.3988 Y1.3778
G1 X4.4061 Y1.3408
G1 X4.4114 Y1.3036
G1 X4.4152 Y1.2662
G1 X4.418 Y1.2287
G1 X4.42 Y1.1911
G1 X4.4214 Y1.1535
G1 X4.4224 Y1.1159
G1 X4.4232 Y1.0783
G1 X4.4237 Y1.0407
G1 X4.4241 Y1.0031
G1 X4.4243 Y0.9655
G1 X4.4245 Y0.9279
G1 X4.4248 Y0.8527
G1 X4.4249 Y0.7398
G1 X4.425 Y0.5141
G1 Y-0.0877
G1 Y-1.3665
G1 X4.4244 Y-1.3853
G1 X4.42 Y-1.4036
G1 X4.4046 Y-1.4379
G1 X4.3795 Y-1.4659
G1 X4.3489 Y-1.4877
G1 X4.3151 Y-1.5043
G1 X4.2796 Y-1.5167
G1 X4.2431 Y-1.5258
G1 X4.2061 Y-1.5325
G1 X4.1688 Y-1.5374
G1 X4.1314 Y-1.5409
G1 X4.0938 Y-1.5435
G1 X4.0563 Y-1.5454
G1 X4.0187 Y-1.5467
G1 X3.9811 Y-1.5476
G1 X3.9435 Y-1.5483
G1 X3.9059 Y-1.5488
G1 X3.8683 Y-1.5491
G1 X3.8306 Y-1.5494
G1 X3.793 Y-1.5496
G1 X3.7178 Y-1.5498
G1 X3.605 Y-1.5499
G1 X3.3417 Y-1.55
G1 X1.7996
G1 X-0.1939
G1 X-2.1874
G1 X-4.1432
G1 X-4.162 Y-1.5484
G1 X-4.1981 Y-1.538
G1 X-4.2287 Y-1.516
G1 X-4.253 Y-1.4874
G1 X-4.2717 Y-1.4547
G1 X-4.2859 Y-1.4199
G1 X-4.2964 Y-1.3838
G1 X-4.3042 Y-1.347
G1 X-4.3099 Y-1.3098
G1 X-4.3141 Y-1.2724
G1 X-4.3171 Y-1.2349
G1 X-4.3193 Y-1.1974
G1 X-4.3209 Y-1.1598
G1 X-4.3221 Y-1.1222
G1 X-4.3229 Y-1.0846
G1 X-4.3235 Y-1.047
G1 X-4.3239 Y-1.0094
G1 X-4.3242 Y-0.9718
G1 X-4.3244 Y-0.9342
G1 X-4.3246 Y-0.8966
G1 X-4.3248 Y-0.8213
G1 X-4.3249 Y-0.7085
G1 X-4.325 Y-0.4452
G1 Y0.3823
G1 Y1.2474
G1 X-4.3245 Y1.285
G1 X-4.3116 Y1.3203
G1 X-4.289 Y1.3504
G1 X-4.2602 Y1.3746
G1 X-4.2277 Y1.3934
G1 X-4.193 Y1.4079
G1 X-4.157 Y1.4188
G1 X-4.1203 Y1.427
G1 X-4.0832 Y1.4331
G1 X-4.0458 Y1.4377
G1 X-4.0084 Y1.441
G1 X-3.9708 Y1.4434
G1 X-3.9333 Y1.4452
G1 X-3.8957 Y1.4465
G1 X-3.8581 Y1.4475
G1 X-3.8205 Y1.4482
G1 X-3.7829 Y1.4487
G1 X-3.7452 Y1.449
G1 X-3.7076 Y1.4493
G1 X-3.67 Y1.4495
G1 X-3.5948 Y1.4497
G1 X-3.482 Y1.4499
G1 X-3.2939 Y1.45
G1 X-1.3004
G1 X0.693
G1 X2.3624
G1 X2.3678 Y1.4502
G1 X2.3731 Y1.451
G1 X2.3783 Y1.4522
G1 X2.4443 Y1.471
G1 X2.4528 Y1.4733
G1 X2.4568 Y1.4744
G1 X2.4785 Y1.4784
G1 X2.487 Y1.48
G1 X2.5896 Y1.4979
G1 X2.5981 Y1.4993
G1 X2.6238 Y1.5028
G1 X2.7605 Y1.5122
G1 X2.769 Y1.5124
G1 X2.7861 Y1.5122
G1 X2.7947 Y1.5121
G1 X2.9058 Y1.5081
G1 X2.9314 Y1.5068
G1 X2.94 Y1.5057
G1 X3.034 Y1.4925
G1 X3.0682 Y1.4877
G1 X3.0767 Y1.4863
G1 X3.0938 Y1.4828
G1 X3.1024 Y1.4809
G1 X3.1194 Y1.4767
G1 X3.1564 Y1.4694
G1 X3.1935 Y1.4634
G1 X3.2309 Y1.4592
G1 X3.2684 Y1.4564
G1 X3.3059 Y1.4544
G1 X3.3435 Y1.453
G1 X3.3811 Y1.4521
G1 X3.4187 Y1.4515
G1 X3.4563 Y1.451
G1 X3.4939 Y1.4507
G1 X3.5316 Y1.4505
G1 X3.5692 Y1.4503
G1 X3.6444 Y1.4502
G1 X3.7572 Y1.4501
G1 X4.0957 Y1.45
G1 X4.1334
G1 X4.1708 Y1.4465
G1 X4.2048 Y1.4304
G1 X4.2332 Y1.4057
G1 X4.2557 Y1.3756
G1 X4.2732 Y1.3423
G1 X4.2866 Y1.3072
G1 X4.2966 Y1.2709
G1 X4.3041 Y1.2341
G1 X4.3097 Y1.1969
G1 X4.3138 Y1.1595
G1 X4.3168 Y1.122
G1 X4.3191 Y1.0844
G1 X4.3207 Y1.0469
G1 X4.3219 Y1.0093
G1 X4.3227 Y0.9717
G1 X4.3233 Y0.934
G1 X4.3238 Y0.8964
G1 X4.3241 Y0.8588
G1 X4.3244 Y0.8212
G1 X4.3245 Y0.7836
G1 X4.3248 Y0.7084
G1 X4.3249 Y0.5955
G1 Y0.5579
G1 X4.325 Y0.2194
G1 Y-1.2475
G1 X4.3244 Y-1.2851
G1 X4.3115 Y-1.3204
G1 X4.2889 Y-1.3505
G1 X4.26 Y-1.3746
G1 X4.2275 Y-1.3935
G1 X4.1928 Y-1.4079
G1 X4.1568 Y-1.4189
G1 X4.1201 Y-1.4271
G1 X4.083 Y-1.4332
G1 X4.0456 Y-1.4377
G1 X4.0082 Y-1.441
G1 X3.9706 Y-1.4434
G1 X3.933 Y-1.4452
G1 X3.8955 Y-1.4465
G1 X3.8579 Y-1.4475
G1 X3.8203 Y-1.4482
G1 X3.7826 Y-1.4487
G1 X3.745 Y-1.449
G1 X3.7074 Y-1.4493
G1 X3.6698 Y-1.4495
G1 X3.5946 Y-1.4497
G1 X3.4817 Y-1.4499
G1 X3.2561 Y-1.45
G1 X3.2336
G1 X3.2285 Y-1.4502
G1 X3.2235 Y-1.4509
G1 X3.2185 Y-1.452
G1 X3.2135 Y-1.4533
G1 X3.1024 Y-1.4809
G1 X3.093 Y-1.4829
G1 X3.0767 Y-1.4863
G1 X3.0682 Y-1.4877
G1 X2.9485 Y-1.5045
G1 X2.94 Y-1.5057
G1 X2.9314 Y-1.5068
G1 X2.9058 Y-1.5081
G1 X2.7947 Y-1.5121
G1 X2.7861 Y-1.5122
G1 X2.769 Y-1.5124
G1 X2.7605 Y-1.5122
G1 X2.6238 Y-1.5028
G1 X2.5981 Y-1.4993
G1 X2.5896 Y-1.4979
G1 X2.487 Y-1.48
G1 X2.4785 Y-1.4784
G1 X2.4568 Y-1.4744
G1 X2.4528 Y-1.4733
G1 X2.4239 Y-1.4668
G1 X2.3867 Y-1.4616
G1 X2.3492 Y-1.458
G1 X2.3117 Y-1.4555
G1 X2.2741 Y-1.4538
G1 X2.2365 Y-1.4526
G1 X2.1989 Y-1.4518
G1 X2.1613 Y-1.4513
G1 X2.1237 Y-1.4509
G1 X2.0861 Y-1.4506
G1 X2.0485 Y-1.4504
G1 X1.9733 Y-1.4502
G1 X1.8604 Y-1.4501
G1 X1.5971 Y-1.45
G1 X0.4687
G1 X-1.5247
G1 X-3.5182
G1 X-4.0448
G1 X-4.0815 Y-1.442
G1 X-4.1138 Y-1.4227
G1 X-4.1403 Y-1.396
G1 X-4.1611 Y-1.3647
G1 X-4.1773 Y-1.3307
G1 X-4.1895 Y-1.2952
G1 X-4.1988 Y-1.2587
G1 X-4.2057 Y-1.2217
G1 X-4.2108 Y-1.1845
G1 X-4.2146 Y-1.1471
G1 X-4.2174 Y-1.1095
G1 X-4.2194 Y-1.072
G1 X-4.2209 Y-1.0344
G1 X-4.222 Y-0.9968
G1 X-4.2229 Y-0.9592
G1 X-4.2234 Y-0.9216
G1 X-4.2239 Y-0.884
G1 X-4.2242 Y-0.8464
G1 X-4.2244 Y-0.8088
G1 X-4.2246 Y-0.7712
G1 X-4.2248 Y-0.6959
G1 X-4.2249 Y-0.5831
G1 X-4.225 Y-0.3574
G1 Y-0.0565
G1 Y1.1471
G1 X-4.2228 Y1.1846
G1 X-4.2087 Y1.2195
G1 X-4.1855 Y1.2491
G1 X-4.1565 Y1.2731
G1 X-4.1239 Y1.2919
G1 X-4.0892 Y1.3064
G1 X-4.0533 Y1.3175
G1 X-4.0166 Y1.3258
G1 X-3.9795 Y1.3321
G1 X-3.9422 Y1.3368
G1 X-3.9048 Y1.3402
G1 X-3.8672 Y1.3428
G1 X-3.8297 Y1.3447
G1 X-3.7921 Y1.3461
G1 X-3.7545 Y1.3472
G1 X-3.7169 Y1.3479
G1 X-3.6793 Y1.3485
G1 X-3.6417 Y1.3489
G1 X-3.6041 Y1.3492
G1 X-3.5664 Y1.3494
G1 X-3.5288 Y1.3496
G1 X-3.4536 Y1.3498
G1 X-3.3408 Y1.3499
G1 X-3.1151 Y1.35
G1 X-1.5354
G1 X0.4581
G1 X2.1021
G1 X2.1115 Y1.3508
G1 X2.1206 Y1.353
G1 X2.1293 Y1.3567
G1 X2.1452 Y1.3651
G1 X2.1537 Y1.3692
G1 X2.1708 Y1.3771
G1 X2.1782 Y1.3803
G1 X2.2849 Y1.4231
G1 X2.2904 Y1.4252
G1 X2.308 Y1.4316
G1 X2.3161 Y1.4345
G1 X2.3783 Y1.4522
G1 X2.4081 Y1.4607 F10.
G1 X2.4357 Y1.4685 F13.5
G1 X2.4443 Y1.471
G1 X2.4528 Y1.4733
G1 X2.4568 Y1.4744
G1 X2.4785 Y1.4784
G1 X2.487 Y1.48
G1 X2.5896 Y1.4979
G1 X2.5981 Y1.4993
G1 X2.6238 Y1.5028
G1 X2.7605 Y1.5122
G1 X2.769 Y1.5124
G1 X2.7861 Y1.5122
G1 X2.7947 Y1.5121
G1 X2.9058 Y1.5081
G1 X2.9314 Y1.5068
G1 X2.94 Y1.5057
G1 X3.0682 Y1.4877
G1 X3.0767 Y1.4863
G1 X3.0893 Y1.4837
G1 X3.0938 Y1.4828 F10.
G1 X3.1024 Y1.4809
G1 X3.1194 Y1.4767
G1 X3.2135 Y1.4533 F13.5
G1 X3.2391 Y1.4465
G1 X3.2476 Y1.4436
G1 X3.3587 Y1.4033
G1 X3.3758 Y1.3971
G1 X3.3844 Y1.3937
G1 X3.4044 Y1.3857
G1 X3.434 Y1.3765
G1 X3.4707 Y1.3683
G1 X3.5079 Y1.3627
G1 X3.5453 Y1.3588
G1 X3.5828 Y1.3561
G1 X3.6204 Y1.3543
G1 X3.658 Y1.353
G1 X3.6956 Y1.3521
G1 X3.7332 Y1.3514
G1 X3.7708 Y1.351
G1 X3.8084 Y1.3507
G1 X3.846 Y1.3505
G1 X3.8836 Y1.3503
G1 X3.9588 Y1.3502
G1 X4.0341 Y1.3501
G1 X4.0712 Y1.3442
G1 X4.1046 Y1.3268
G1 X4.1324 Y1.3015
G1 X4.1546 Y1.2712
G1 X4.172 Y1.2378
G1 X4.1853 Y1.2026
G1 X4.1954 Y1.1664
G1 X4.2031 Y1.1296
G1 X4.2088 Y1.0924
G1 X4.213 Y1.055
G1 X4.2162 Y1.0175
G1 X4.2185 Y0.98
G1 X4.2202 Y0.9424
G1 X4.2215 Y0.9048
G1 X4.2224 Y0.8672
G1 X4.2231 Y0.8296
G1 X4.2236 Y0.792
G1 X4.224 Y0.7544
G1 X4.2243 Y0.7168
G1 X4.2245 Y0.6792
G1 X4.2247 Y0.604
G1 X4.2249 Y0.4911
G1 X4.225 Y0.3031
G1 Y0.115
G1 Y-1.1638
G1 X4.2175 Y-1.2007
G1 X4.1989 Y-1.2334
G1 X4.1728 Y-1.2605
G1 X4.142 Y-1.2821
G1 X4.1083 Y-1.2988
G1 X4.073 Y-1.3117
G1 X4.0367 Y-1.3215
G1 X3.9998 Y-1.3288
G1 X3.9626 Y-1.3343
G1 X3.9252 Y-1.3384
G1 X3.8877 Y-1.3415
G1 X3.8502 Y-1.3437
G1 X3.8126 Y-1.3454
G1 X3.775 Y-1.3466
G1 X3.7374 Y-1.3475
G1 X3.6998 Y-1.3482
G1 X3.6622 Y-1.3487
G1 X3.6246 Y-1.349
G1 X3.5869 Y-1.3493
G1 X3.5493 Y-1.3495
G1 X3.4892 Y-1.3497
G1 X3.4805 Y-1.3504
G1 X3.472 Y-1.3523
G1 X3.4639 Y-1.3555
G1 X3.4015 Y-1.3858
G1 X3.3929 Y-1.3897
G1 X3.3844 Y-1.3937
G1 X3.3758 Y-1.3971
G1 X3.3417 Y-1.4095
G1 X3.2476 Y-1.4436
G1 X3.2391 Y-1.4465
G1 X3.2185 Y-1.452
G1 X3.2135 Y-1.4533 F10.
G1 X3.1885 Y-1.4595
G1 X3.1024 Y-1.4809 F13.5
G1 X3.0938 Y-1.4828
G1 X3.0767 Y-1.4863
G1 X3.0682 Y-1.4877
G1 X2.94 Y-1.5057
G1 X2.9314 Y-1.5068
G1 X2.9058 Y-1.5081
G1 X2.7947 Y-1.5121
G1 X2.7861 Y-1.5122
G1 X2.769 Y-1.5124
G1 X2.7605 Y-1.5122
G1 X2.6323 Y-1.5034
G1 X2.6238 Y-1.5028
G1 X2.5981 Y-1.4993
G1 X2.5896 Y-1.4979
G1 X2.487 Y-1.48
G1 X2.4832 Y-1.4793
G1 X2.4785 Y-1.4784 F10.
G1 X2.4568 Y-1.4744
G1 X2.4528 Y-1.4733
G1 X2.4443 Y-1.471 F13.5
G1 X2.3161 Y-1.4345
G1 X2.299 Y-1.4283
G1 X2.2904 Y-1.4252
G1 X2.2849 Y-1.4231
G1 X2.2135 Y-1.3945
G1 X2.178 Y-1.3823
G1 X2.1444 Y-1.373
G1 X2.1075 Y-1.3659
G1 X2.0702 Y-1.361
G1 X2.0327 Y-1.3577
G1 X1.9952 Y-1.3553
G1 X1.9576 Y-1.3537
G1 X1.92 Y-1.3526
G1 X1.8824 Y-1.3518
G1 X1.8448 Y-1.3513
G1 X1.8072 Y-1.3509
G1 X1.7696 Y-1.3506
G1 X1.732 Y-1.3504
G1 X1.6567 Y-1.3502
G1 X1.5439 Y-1.3501
G1 X1.2806 Y-1.35
G1 X0.2275
G1 X-1.766
G1 X-3.7595
G1 X-3.9099
G1 X-3.9475 Y-1.3499
G1 X-3.9836 Y-1.3392
G1 X-4.0149 Y-1.3184
G1 X-4.0406 Y-1.2909
G1 X-4.061 Y-1.2593
G1 X-4.0768 Y-1.2252
G1 X-4.089 Y-1.1896
G1 X-4.0982 Y-1.1531
G1 X-4.1051 Y-1.1162
G1 X-4.1102 Y-1.0789
G1 X-4.1141 Y-1.0415
G1 X-4.1169 Y-1.004
G1 X-4.1191 Y-0.9664
G1 X-4.1206 Y-0.9288
G1 X-4.1218 Y-0.8913
G1 X-4.1226 Y-0.8536
G1 X-4.1233 Y-0.816
G1 X-4.1237 Y-0.7784
G1 X-4.1241 Y-0.7408
G1 X-4.1243 Y-0.7032
G1 X-4.1245 Y-0.6656
G1 X-4.1247 Y-0.5904
G1 X-4.1249 Y-0.4775
G1 X-4.125 Y-0.2743
G1 X-4.1255 Y-0.2667
G1 X-4.127 Y-0.2592
G1 X-4.1294 Y-0.252
G1 X-4.1365 Y-0.235
G1 X-4.1392 Y-0.2265
G1 X-4.145 Y-0.2071
G1 X-4.165 Y-0.1239
G1 X-4.1662 Y-0.1154
G1 X-4.1686 Y-0.0983
G1 X-4.1694 Y-0.0897
G1 X-4.1748 Y-0.0214
G1 X-4.1754 Y-0.0128
G1 Y0.0128
G1 X-4.1741 Y0.0299
G1 X-4.1694 Y0.0897
G1 X-4.1686 Y0.0983
G1 X-4.1662 Y0.1154
G1 X-4.165 Y0.1239
G1 X-4.1527 Y0.1752
G1 X-4.1457 Y0.2122
G1 X-4.1392 Y0.2492
G1 X-4.1348 Y0.2866
G1 X-4.1318 Y0.3241
G1 X-4.1297 Y0.3616
G1 X-4.1282 Y0.3992
G1 X-4.1272 Y0.4368
G1 X-4.1266 Y0.4744
G1 X-4.1261 Y0.512
G1 X-4.1257 Y0.5496
G1 X-4.1255 Y0.5872
G1 X-4.1254 Y0.6249
G1 X-4.1252 Y0.7001
G1 X-4.1251 Y0.8129
G1 X-4.125 Y1.0386
G1 X-4.1239 Y1.0762
G1 X-4.1113 Y1.1117
G1 X-4.0895 Y1.1423
G1 X-4.0614 Y1.1673
G1 X-4.0294 Y1.1871
G1 X-3.9951 Y1.2025
G1 X-3.9594 Y1.2143
G1 X-3.9229 Y1.2233
G1 X-3.8859 Y1.2301
G1 X-3.8486 Y1.2352
G1 X-3.8112 Y1.239
G1 X-3.7737 Y1.2419
G1 X-3.7362 Y1.244
G1 X-3.6986 Y1.2455
G1 X-3.661 Y1.2467
G1 X-3.6234 Y1.2476
G1 X-3.5858 Y1.2482
G1 X-3.5482 Y1.2487
G1 X-3.5106 Y1.249
G1 X-3.4729 Y1.2493
G1 X-3.4353 Y1.2495
G1 X-3.3601 Y1.2497
G1 X-3.2473 Y1.2499
G1 X-3.0968 Y1.25
G1 X-2.1189
G1 X-1.1034
G1 X0.8901
G1 X1.9292
G1 X1.9406 Y1.2511
G1 X1.9515 Y1.2544
G1 X1.9616 Y1.2598
G1 X2.0084 Y1.2911
G1 X2.0255 Y1.302
G1 X2.034 Y1.3065
G1 X2.1293 Y1.3567
G1 X2.141 Y1.3718 F10.
G1 X2.1429 Y1.3835
G1 X2.155 Y1.4573 F13.5
G2 X2.2135 Y1.5343 I0.0975 J-0.0134
G1 X2.299 Y1.5636
G1 X2.4443 Y1.605
G1 X2.5896 Y1.6275
G1 X2.769 Y1.642
G1 X2.9485 Y1.636
G1 X3.1194 Y1.6102
G1 X3.1793 Y1.5954
G2 X3.2322 Y1.5684 I-0.0161 J-0.0971
G1 X3.2948 Y1.5
G1 X3.3614 Y1.414
G1 X3.3676 Y1.406 F10.
G1 X3.3844 Y1.3937
G1 X3.3948 Y1.3889 F13.5
G1 X3.4015 Y1.3858
G1 X3.5211 Y1.3277
G1 X3.5468 Y1.3125
G1 X3.5722 Y1.299
G1 X3.5932 Y1.29
G1 X3.6209 Y1.2806
G1 X3.6574 Y1.2714
G1 X3.6944 Y1.265
G1 X3.7318 Y1.2605
G1 X3.7693 Y1.2574
G1 X3.8068 Y1.2552
G1 X3.8444 Y1.2537
G1 X3.882 Y1.2526
G1 X3.9196 Y1.2518
G1 X3.9571 Y1.2487
G1 X3.9918 Y1.2343
G1 X4.0215 Y1.2112
G1 X4.0457 Y1.1824
G1 X4.0647 Y1.15
G1 X4.0795 Y1.1154
G1 X4.0908 Y1.0795
G1 X4.0995 Y1.0429
G1 X4.106 Y1.0058
G1 X4.1108 Y0.9686
G1 X4.1145 Y0.9311
G1 X4.1172 Y0.8936
G1 X4.1192 Y0.856
G1 X4.1207 Y0.8185
G1 X4.1219 Y0.7809
G1 X4.1227 Y0.7433
G1 X4.1228 Y0.7371
G1 X4.1237 Y0.7278
G1 X4.126 Y0.7188
G1 X4.1298 Y0.7103
G1 X4.1557 Y0.6624
G1 X4.1601 Y0.6538
G1 X4.1642 Y0.6453
G1 X4.1677 Y0.6368
G1 X4.1705 Y0.6282
G1 X4.1728 Y0.6197
G1 X4.1743 Y0.6111
G1 X4.1753 Y0.6026
G1 X4.1759 Y0.594
G1 Y0.5855
G1 X4.1752 Y0.5769
G1 X4.174 Y0.5684
G1 X4.1723 Y0.5598
G1 X4.1668 Y0.5427
G1 X4.1635 Y0.5342
G1 X4.1585 Y0.5211
G1 X4.1495 Y0.4904
G1 X4.1418 Y0.4536
G1 X4.1365 Y0.4164
G1 X4.133 Y0.3789
G1 X4.1305 Y0.3414
G1 X4.1288 Y0.3038
G1 X4.1276 Y0.2662
G1 X4.1268 Y0.2286
G1 X4.1263 Y0.191
G1 X4.1259 Y0.1534
G1 X4.1256 Y0.1158
G1 X4.1254 Y0.0782
G1 X4.1252 Y0.0029
G1 X4.1251 Y-0.1099
G1 X4.125 Y-0.3732
G1 Y-0.4617
G1 X4.1261 Y-0.4723
G1 X4.1292 Y-0.4825
G1 X4.1342 Y-0.4918
G1 X4.141 Y-0.5
G1 X4.145 Y-0.5049
G1 X4.148 Y-0.5085
G1 X4.1536 Y-0.5163
G1 X4.1593 Y-0.5256
G1 X4.1635 Y-0.5342
G1 X4.1668 Y-0.5427
G1 X4.1723 Y-0.5598
G1 X4.174 Y-0.5684
G1 X4.1752 Y-0.5769
G1 X4.1759 Y-0.5855
G1 Y-0.594
G1 X4.1753 Y-0.6026
G1 X4.1743 Y-0.6111
G1 X4.1728 Y-0.6197
G1 X4.1705 Y-0.6282
G1 X4.1677 Y-0.6368
G1 X4.1642 Y-0.6453
G1 X4.161 Y-0.6533
G1 X4.152 Y-0.6814
G1 X4.1435 Y-0.718
G1 X4.1377 Y-0.7552
G1 X4.1338 Y-0.7926
G1 X4.1311 Y-0.8301
G1 X4.1292 Y-0.8677
G1 X4.1279 Y-0.9053
G1 X4.127 Y-0.9429
G1 X4.1264 Y-0.9805
G1 X4.126 Y-1.0181
G1 X4.1257 Y-1.0557
G1 X4.1194 Y-1.0928
G1 X4.1022 Y-1.1263
G1 X4.0772 Y-1.1543
G1 X4.0471 Y-1.1769
G1 X4.0139 Y-1.1946
G1 X3.9789 Y-1.2082
G1 X3.9427 Y-1.2187
G1 X3.906 Y-1.2266
G1 X3.8688 Y-1.2326
G1 X3.8315 Y-1.237
G1 X3.794 Y-1.2404
G1 X3.7565 Y-1.2429
G1 X3.7189 Y-1.2447
G1 X3.6813 Y-1.2461
G1 X3.6683 Y-1.2465
G1 X3.6581 Y-1.2476
G1 X3.6482 Y-1.2506
G1 X3.6391 Y-1.2552
G1 X3.5553 Y-1.3072
G1 X3.5468 Y-1.3125
G1 X3.5211 Y-1.3277
G1 X3.4639 Y-1.3555
G3 X3.4508 Y-1.3814 I0.0117 J-0.0221 F10.
G3 X3.4784 Y-1.4025 I0.0247 J0.0038 F13.5
G1 X3.9399 Y-1.3534
G1 X4.0351 Y-1.326
G1 X4.1039 Y-1.2949
G1 X4.1578 Y-1.2558
G1 X4.1983 Y-1.2112
G1 X4.2287 Y-1.1667
G1 X4.2492 Y-1.1068
G1 X4.2814 Y-0.6795
G3 X4.1848 Y-0.6226 I-0.0621 J0.005
G3 X4.1642 Y-0.6453 I0.0345 J-0.0519 F10.
G1 X4.1601 Y-0.6538 F13.5
G1 X4.1557 Y-0.6624
G1 X4.1003 Y-0.765
G1 X4.0955 Y-0.7735
G1 X4.0854 Y-0.7906
G1 X4.0738 Y-0.8127
G1 X4.0647 Y-0.834
G1 X4.0552 Y-0.8621
G1 X4.0462 Y-0.8986
G1 X4.0399 Y-0.9357
G1 X4.0349 Y-0.973
G1 X4.0212 Y-1.008
G1 X3.9991 Y-1.0385
G1 X3.9712 Y-1.0636
G1 X3.9395 Y-1.0838
G1 X3.9053 Y-1.0997
G1 X3.8698 Y-1.1119
G1 X3.8334 Y-1.1213
G1 X3.8203 Y-1.1238
G1 X3.8105 Y-1.1267
G1 X3.8013 Y-1.1311
G1 X3.793 Y-1.1372
G1 X3.7775 Y-1.1507
G1 X3.7684 Y-1.1581
G1 X3.6913 Y-1.218
G1 X3.6664 Y-1.2371
G1 X3.6575 Y-1.2436
G1 X3.6493 Y-1.2489
G1 X3.6391 Y-1.2552
G3 X3.6288 Y-1.2823 I0.0139 J-0.0208 F10.
G3 X3.6579 Y-1.3005 I0.0242 J0.0063 F13.5
G1 X3.9826 Y-1.2082
G1 X4.0425 Y-1.1725
G1 X4.0954 Y-1.1239
G1 X4.1279 Y-1.0811
G1 X4.1422 Y-1.047
G1 X4.1976 Y-0.8419
G3 X4.1077 Y-0.7697 I-0.0597 J0.0177
G3 X4.0854 Y-0.7906 I0.0302 J-0.0545 F10.
G1 X4.0801 Y-0.7991 F13.5
G1 X4.0042 Y-0.9103
G1 X3.998 Y-0.9188
G1 X3.9826 Y-0.937
G1 X3.9112 Y-1.0214
G1 X3.9038 Y-1.0299
G1 X3.8972 Y-1.0374
G1 X3.8874 Y-1.047
G1 X3.8696 Y-1.0641
G1 X3.7982 Y-1.1325
G1 X3.7946 Y-1.1358
G1 X3.793 Y-1.1372
G1 X3.7851 Y-1.1554 F10.
G1 X3.7856 Y-1.1664
G1 X3.7889 Y-1.2521 F13.5
G2 X3.7488 Y-1.3376 I-0.0982 J-0.006
G1 X3.5874 Y-1.4402
G1 X3.4186 Y-1.5206
G1 X3.2733 Y-1.5718
G1 X3.0853 Y-1.6165
G1 X2.9229 Y-1.6382
G1 X2.7519 Y-1.6406
G1 X2.5981 Y-1.6293
G1 X2.4443 Y-1.6051
G2 X2.3967 Y-1.5855 I0.0125 J0.0976
G1 X2.3075 Y-1.5111
G1 X2.2368 Y-1.4142
G1 X2.2306 Y-1.4057 F10.
G1 X2.2135 Y-1.3945
G1 X2.1782 Y-1.3803 F13.5
G1 X2.1708 Y-1.3771
G1 X2.1537 Y-1.3692
G1 X2.1452 Y-1.3651
G1 X2.034 Y-1.3065
G1 X2.0064 Y-1.2935
G1 X1.9817 Y-1.2843
G1 X1.9482 Y-1.2747
G1 X1.9113 Y-1.2673
G1 X1.8741 Y-1.2622
G1 X1.8366 Y-1.2586
G1 X1.7991 Y-1.256
G1 X1.7615 Y-1.2542
G1 X1.7239 Y-1.253
G1 X1.6863 Y-1.2521
G1 X1.6487 Y-1.2515
G1 X1.6111 Y-1.251
G1 X1.5735 Y-1.2507
G1 X1.5359 Y-1.2505
G1 X1.4983 Y-1.2504
G1 X1.4231 Y-1.2502
G1 X1.3102 Y-1.2501
G1 X1.0093 Y-1.25
G1 X0.069
G1 X-1.9245
G1 X-3.8427
G1 X-3.8789 Y-1.2399
G1 X-3.9107 Y-1.2198
G1 X-3.937 Y-1.1929
G1 X-3.9579 Y-1.1616
G1 X-3.9742 Y-1.1277
G1 X-3.9868 Y-1.0923
G1 X-3.9964 Y-1.0559
G1 X-4.0036 Y-1.019
G1 X-4.0091 Y-0.9818
G1 X-4.0132 Y-0.9444
G1 X-4.0162 Y-0.9069
G1 X-4.0185 Y-0.8693
G1 X-4.0202 Y-0.8318
G1 X-4.0214 Y-0.7942
G1 X-4.0224 Y-0.7566
G1 X-4.0231 Y-0.719
G1 X-4.0236 Y-0.6814
G1 X-4.0239 Y-0.6438
G1 X-4.0242 Y-0.6061
G1 X-4.0244 Y-0.5685
G1 X-4.0247 Y-0.4933
G1 X-4.0248 Y-0.4622
G1 X-4.0261 Y-0.4501
G1 X-4.0298 Y-0.4385
G1 X-4.036 Y-0.428
G1 X-4.0395 Y-0.4231
G1 X-4.051 Y-0.405
G1 X-4.0557 Y-0.3974
G1 X-4.0872 Y-0.3462
G1 X-4.0918 Y-0.3376
G1 X-4.1023 Y-0.3174
G1 X-4.1046 Y-0.312
G1 X-4.1294 Y-0.252
G1 X-4.1365 Y-0.235 F10.
G1 X-4.1392 Y-0.2265
G1 X-4.1402 Y-0.2231
G1 X-4.145 Y-0.2071 F13.5
G1 X-4.165 Y-0.1239
G1 X-4.1662 Y-0.1154
G1 X-4.1686 Y-0.0983
G1 X-4.1694 Y-0.0897
G1 X-4.1748 Y-0.0214
G1 X-4.1754 Y-0.0128
G1 Y0.0128
G1 X-4.1748 Y0.0214
G1 X-4.1694 Y0.0897
G1 X-4.1686 Y0.0983
G1 X-4.1662 Y0.1154
G1 X-4.165 Y0.1239
G1 X-4.1599 Y0.1451
G1 X-4.1527 Y0.1752 F10.
G1 X-4.145 Y0.2071 F13.5
G1 X-4.1392 Y0.2265
G1 X-4.1364 Y0.235
G1 X-4.1046 Y0.312
G1 X-4.1023 Y0.3174
G1 X-4.0918 Y0.3376
G1 X-4.0872 Y0.3462
G1 X-4.0852 Y0.3494
G1 X-4.0743 Y0.3693
G1 X-4.0656 Y0.3888
G1 X-4.0565 Y0.4147
G1 X-4.047 Y0.4505
G1 X-4.0403 Y0.4875
G1 X-4.0357 Y0.5248
G1 X-4.0325 Y0.5623
G1 X-4.0302 Y0.5998
G1 X-4.0287 Y0.6374
G1 X-4.0276 Y0.675
G1 X-4.0268 Y0.7126
G1 X-4.0263 Y0.7502
G1 X-4.0259 Y0.7878
G1 X-4.0256 Y0.8255
G1 X-4.0254 Y0.8631
G1 X-4.0252 Y0.9383
G1 X-4.0235 Y0.9759
G1 X-4.0105 Y1.0112
G1 X-3.9884 Y1.0416
G1 X-3.9603 Y1.0666
G1 X-3.9283 Y1.0864
G1 X-3.894 Y1.1018
G1 X-3.8583 Y1.1137
G1 X-3.8218 Y1.1228
G1 X-3.7848 Y1.1296
G1 X-3.7476 Y1.1348
G1 X-3.7102 Y1.1387
G1 X-3.6727 Y1.1416
G1 X-3.6351 Y1.1437
G1 X-3.5975 Y1.1453
G1 X-3.5599 Y1.1465
G1 X-3.5223 Y1.1474
G1 X-3.4847 Y1.1481
G1 X-3.4471 Y1.1486
G1 X-3.4095 Y1.149
G1 X-3.3719 Y1.1492
G1 X-3.3343 Y1.1494
G1 X-3.2591 Y1.1497
G1 X-3.1462 Y1.1499
G1 X-2.9582 Y1.15
G1 X-2.7325
G1 X-0.739
G1 X1.2544
G1 X1.7945
G1 X1.8046 Y1.1509
G1 X1.8143 Y1.1535
G1 X1.8235 Y1.1577
G1 X1.8318 Y1.1635
G1 X1.8665 Y1.1923
G1 X1.8802 Y1.2034
G1 X1.8888 Y1.2102
G1 X1.8973 Y1.2169
G1 X1.9616 Y1.2598
G1 X1.9695 Y1.2692 F10.
G1 X1.9738 Y1.2874
G1 X1.9981 Y1.3889 F13.5
G2 X2.0511 Y1.4624 I0.0974 J-0.0144
G1 X2.1366 Y1.5044
G1 X2.2904 Y1.562
G1 X2.4443 Y1.605
G1 X2.5896 Y1.6275
G1 X2.769 Y1.642
G1 X2.9485 Y1.636
G1 X3.1194 Y1.6102
G1 X3.2989 Y1.564
G1 X3.4271 Y1.5175
G2 X3.4926 Y1.4487 I-0.0297 J-0.0939
G1 X3.5205 Y1.3481
G3 X3.5259 Y1.3349 I0.06 J0.0167
G3 X3.5468 Y1.3125 I0.0546 J0.03 F10.
G1 X3.5614 Y1.3034 F13.5
G1 X3.6493 Y1.2489
G1 X3.6579 Y1.2434
G1 X3.6664 Y1.2371
G1 X3.6802 Y1.2265
G1 X3.6982 Y1.214
G1 X3.7134 Y1.2052
G1 X3.7328 Y1.1959
G1 X3.7579 Y1.1863
G1 X3.7918 Y1.1764
G1 X3.8286 Y1.1688
G1 X3.865 Y1.1591
G1 X3.8978 Y1.1408
G1 X3.9257 Y1.1155
G1 X3.9484 Y1.0855
G1 X3.9664 Y1.0525
G1 X3.9805 Y1.0176
G1 X3.9913 Y0.9816
G1 X3.9996 Y0.9449
G1 X4.0038 Y0.9202
G1 X4.0058 Y0.9121
G1 X4.009 Y0.9044
G1 X4.0132 Y0.8972
G1 X4.0801 Y0.7991
G1 X4.0854 Y0.7906
G1 X4.0955 Y0.7735
G1 X4.1003 Y0.765
G1 X4.1298 Y0.7103
G3 X4.1364 Y0.7025 I0.022 J0.0119 F10.
G2 X4.1436 Y0.6936 I-0.0154 J-0.0197
G1 X4.1474 Y0.6854
G1 X4.1935 Y0.5886 F13.5
G2 X4.1845 Y0.5569 I-0.0226 J-0.0108
G1 X4.1843 Y0.5567
G3 X4.1635 Y0.5342 I0.0341 J-0.0522 F10.
G1 X4.1593 Y0.5256 F13.5
G1 X4.1536 Y0.5163
G1 X4.148 Y0.5085
G1 X4.145 Y0.5049
G1 X4.141 Y0.5
G1 X4.1323 Y0.4915
G1 X4.1279 Y0.4874
G1 X4.1221 Y0.4829
G1 X4.1141 Y0.4761
G1 X4.1068 Y0.4687
G1 X4.0991 Y0.4596
G1 X4.0907 Y0.4479
G1 X4.0819 Y0.4333
G1 X4.0727 Y0.4147
G1 X4.0631 Y0.3909
G1 X4.0533 Y0.3589
G1 X4.0451 Y0.3222
G1 X4.0392 Y0.2851
G1 X4.0351 Y0.2477
G1 X4.0322 Y0.2102
G1 X4.0301 Y0.1726
G1 X4.0286 Y0.135
G1 X4.0276 Y0.0974
G1 X4.0268 Y0.0598
G1 X4.0263 Y0.0222
G1 X4.0259 Y-0.0154
G1 X4.0257 Y-0.053
G1 X4.0255 Y-0.0906
G1 X4.0252 Y-0.1658
G1 X4.0251 Y-0.2787
G1 X4.025 Y-0.3539
G1 X4.0253 Y-0.3915
G1 X4.0263 Y-0.4063
G1 X4.0283 Y-0.418
G1 X4.0326 Y-0.4291
G1 X4.0391 Y-0.4391
G1 X4.0475 Y-0.4475
G1 X4.0574 Y-0.4541
G1 X4.0685 Y-0.4585
G1 X4.0766 Y-0.4608
G1 X4.0813 Y-0.4622
G3 X4.1084 Y-0.4519 I0.0063 J0.0242 F10.
G3 X4.1126 Y-0.4394 I-0.0208 J0.0139 F13.5
G1 X4.1616 Y0.4612
G3 X4.1511 Y0.483 I-0.025 J0.0014
G3 X4.1221 Y0.4829 I-0.0144 J-0.0204 F10.
G1 X4.1194 Y0.4808 F13.5
G1 X4.1108 Y0.4753
G1 X4.1094 Y0.4744
G1 X4.1023 Y0.4704
G1 X4.0937 Y0.4663
G1 X4.0926 Y0.4658
G1 X4.0852 Y0.4634
G1 X4.0766 Y0.4608
G1 X4.0719 Y0.4595
G1 X4.0663 Y0.4575
G1 X4.0597 Y0.4546
G1 X4.0521 Y0.4504
G1 X4.0436 Y0.4447
G1 X4.0353 Y0.4382
G1 X4.026 Y0.4296
G1 X4.0161 Y0.4189
G1 X4.0062 Y0.4062
G1 X3.9955 Y0.39
G1 X3.9848 Y0.3705
G1 X3.9738 Y0.346
G1 X3.9625 Y0.3144
G1 X3.9527 Y0.2781
G1 X3.9455 Y0.2411
G1 X3.9401 Y0.2039
G1 X3.9361 Y0.1665
G1 X3.9332 Y0.129
G1 X3.931 Y0.0915
G1 X3.9294 Y0.0539
G1 X3.9282 Y0.0163
G1 X3.9274 Y-0.0213
G1 X3.9267 Y-0.0589
G1 X3.9263 Y-0.0965
G1 X3.9259 Y-0.1341
G1 X3.9257 Y-0.1717
G1 X3.9255 Y-0.2094
G1 X3.9254 Y-0.247
G1 X3.9253 Y-0.2846
G1 X3.9255 Y-0.3222
G1 X3.927 Y-0.354
G1 X3.93 Y-0.3769
G1 X3.9342 Y-0.3969
G1 X3.9392 Y-0.4135
G1 X3.941 Y-0.4183
G1 X3.9463 Y-0.4287
G1 X3.9535 Y-0.4378
G1 X3.9624 Y-0.4453
G1 X3.9726 Y-0.4509
G1 X3.9838 Y-0.4544
G1 X3.9954 Y-0.4556
G1 X4.0254
G1 X4.0425
G1 X4.051 Y-0.4561
G1 X4.0596 Y-0.4569
G1 X4.0681 Y-0.4584
G1 X4.0685 Y-0.4585
G3 X4.0955 Y-0.4479 I0.006 J0.0243 F10.
G3 X4.0995 Y-0.4343 I-0.021 J0.0136 F13.5
G1 X4.103 Y0.4351
G3 X4.0989 Y0.4488 I-0.025 J0.0001
G3 X4.0719 Y0.4595 I-0.021 J-0.0136 F10.
G1 X4.0681 Y0.4584 F13.5
G1 X4.0596 Y0.4569
G1 X4.051 Y0.4561
G1 X4.0425 Y0.4556
G1 X4.0254
G1 X4.0191 Y0.4552
G1 X4.0125 Y0.4544
G1 X4.0055 Y0.4529
G1 X3.9974 Y0.4504
G1 X3.9891 Y0.4471
G1 X3.9799 Y0.4426
G1 X3.9699 Y0.4367
G1 X3.9598 Y0.4296
G1 X3.9482 Y0.4199
G1 X3.9372 Y0.4091
G1 X3.9249 Y0.395
G1 X3.9129 Y0.3787
G1 X3.9001 Y0.3579
G1 X3.8877 Y0.3337
G1 X3.8749 Y0.3029
G1 X3.8633 Y0.2671
G1 X3.8543 Y0.2306
G1 X3.8474 Y0.1936
G1 X3.842 Y0.1564
G1 X3.8379 Y0.119
G1 X3.8348 Y0.0815
G1 X3.8324 Y0.044
G1 X3.8306 Y0.0064
G1 X3.8292 Y-0.0312
G1 X3.8281 Y-0.0688
G1 X3.8274 Y-0.1064
G1 X3.8268 Y-0.144
G1 X3.8263 Y-0.1816
G1 X3.826 Y-0.2192
G1 X3.8261 Y-0.2568
G1 X3.8271 Y-0.2944
G1 X3.8298 Y-0.332
G1 X3.8341 Y-0.3629
G1 X3.8391 Y-0.3856
G1 X3.8452 Y-0.4052
G1 X3.8516 Y-0.4213
G1 X3.8524 Y-0.4231
G1 X3.8594 Y-0.434
G1 X3.8686 Y-0.443
G1 X3.8796 Y-0.4499
G1 X3.8919 Y-0.4541
G1 X3.9047 Y-0.4556
G1 X3.9954
G3 X4.0184 Y-0.4379 I-0.0009 J0.025 F10.
G1 X4.0192 Y-0.4347 F13.5
G1 X4.0195 Y-0.4314
G1 X4.0495 Y0.4297
G1 Y0.4325
G1 X4.0491 Y0.4353
G1 X4.0484 Y0.438
G3 X4.0254 Y0.4556 I-0.0239 J-0.0074 F10.
G1 X3.9523 F13.5
G1 X3.9453 Y0.4552
G1 X3.9374 Y0.4542
G1 X3.9291 Y0.4524
G1 X3.92 Y0.4497
G1 X3.9099 Y0.4457
G1 X3.8995 Y0.4407
G1 X3.8878 Y0.4338
G1 X3.8762 Y0.4257
G1 X3.8631 Y0.4148
G1 X3.8505 Y0.4025
G1 X3.8364 Y0.3864
G1 X3.8231 Y0.3683
G1 X3.8088 Y0.3453
G1 X3.7944 Y0.3174
G1 X3.7802 Y0.2835
G1 X3.7685 Y0.2477
G1 X3.7592 Y0.2113
G1 X3.7518 Y0.1744
G1 X3.7459 Y0.1373
G1 X3.7413 Y0.1
G1 X3.7377 Y0.0625
G1 X3.7348 Y0.025
G1 X3.7326 Y-0.0125
G1 X3.7308 Y-0.0501
G1 X3.7295 Y-0.0877
G1 X3.7284 Y-0.1253
G1 X3.7277 Y-0.1629
G1 X3.7274 Y-0.2005
G1 X3.7279 Y-0.2381
G1 X3.7294 Y-0.2757
G1 X3.7324 Y-0.3132
G1 X3.7375 Y-0.3504
G1 X3.7435 Y-0.378
G1 X3.7499 Y-0.3994
G1 X3.7571 Y-0.4177
G1 X3.7595 Y-0.4228
G1 X3.7665 Y-0.4337
G1 X3.7757 Y-0.4429
G1 X3.7868 Y-0.4498
G1 X3.7991 Y-0.4541
G1 X3.812 Y-0.4556
G1 X3.9047
G3 X3.9277 Y-0.4379 I-0.0009 J0.025 F10.
G1 X3.9285 Y-0.435 F13.5
G1 X3.9288 Y-0.4319
G1 X3.9764 Y0.4292
G1 Y0.4321
G1 X3.976 Y0.4351
G1 X3.9753 Y0.4379
G3 X3.9523 Y0.4556 I-0.0239 J-0.0074 F10.
G1 X3.8715 F13.5
G1 X3.8632 Y0.4551
G1 X3.8552 Y0.4541
G1 X3.8458 Y0.4521
G1 X3.8362 Y0.4492
G1 X3.8254 Y0.445
G1 X3.814 Y0.4394
G1 X3.8018 Y0.4323
G1 X3.7886 Y0.423
G1 X3.7752 Y0.4119
G1 X3.7605 Y0.3976
G1 X3.7463 Y0.3812
G1 X3.7311 Y0.3608
G1 X3.7155 Y0.3357
G1 X3.7003 Y0.3062
G1 X3.6858 Y0.2715
G1 X3.674 Y0.2358
G1 X3.6643 Y0.1995
G1 X3.6564 Y0.1627
G1 X3.6501 Y0.1256
G1 X3.6449 Y0.0884
G1 X3.6408 Y0.051
G1 X3.6375 Y0.0135
G1 X3.6348 Y-0.024
G1 X3.6327 Y-0.0615
G1 X3.6311 Y-0.0991
G1 X3.6301 Y-0.1367
G1 X3.6296 Y-0.1743
G1 X3.6299 Y-0.2119
G1 X3.6312 Y-0.2495
G1 X3.6338 Y-0.2871
G1 X3.6381 Y-0.3244
G1 X3.6448 Y-0.3614
G1 X3.6518 Y-0.3879
G1 X3.6587 Y-0.4075
G1 X3.6646 Y-0.4209
G1 X3.6702 Y-0.4307
G1 X3.6774 Y-0.4392
G1 X3.6862 Y-0.4461
G1 X3.6961 Y-0.4513
G1 X3.7068 Y-0.4545
G1 X3.7179 Y-0.4556
G1 X3.812
G3 X3.835 Y-0.4379 I-0.0009 J0.025 F10.
G1 X3.8357 Y-0.4351 F13.5
G1 X3.8361 Y-0.4323
G1 X3.8956 Y0.4288
G1 Y0.4319
G1 X3.8953 Y0.435
G1 X3.8945 Y0.4379
G3 X3.8715 Y0.4556 I-0.0239 J-0.0074 F10.
G1 X3.7861 F13.5
G1 X3.7773 Y0.4551
G1 X3.7687 Y0.454
G1 X3.7593 Y0.452
G1 X3.7487 Y0.4488
G1 X3.7379 Y0.4446
G1 X3.7253 Y0.4385
G1 X3.713 Y0.4312
G1 X3.6988 Y0.4213
G1 X3.685 Y0.4098
G1 X3.6694 Y0.3946
G1 X3.6545 Y0.3775
G1 X3.6382 Y0.3555
G1 X3.622 Y0.3294
G1 X3.6057 Y0.2979
G1 X3.5912 Y0.2632
G1 X3.5792 Y0.2275
G1 X3.5692 Y0.1913
G1 X3.5609 Y0.1546
G1 X3.5541 Y0.1176
G1 X3.5485 Y0.0804
G1 X3.544 Y0.0431
G1 X3.5402 Y0.0056
G1 X3.5373 Y-0.0319
G1 X3.535 Y-0.0694
G1 X3.5334 Y-0.107
G1 X3.5325 Y-0.1446
G1 X3.5324 Y-0.1822
G1 X3.5332 Y-0.2198
G1 X3.5352 Y-0.2574
G1 X3.5386 Y-0.2948
G1 X3.5438 Y-0.3321
G1 X3.551 Y-0.3673
G1 X3.5583 Y-0.3924
G1 X3.566 Y-0.4126
G1 X3.5706 Y-0.4222
G1 X3.5775 Y-0.4334
G1 X3.5867 Y-0.4427
G1 X3.5978 Y-0.4497
G1 X3.6102 Y-0.4541
G1 X3.6233 Y-0.4556
G1 X3.7179
G3 X3.741 Y-0.4379 I-0.0009 J0.025 F10.
G1 X3.7416 Y-0.4353 F13.5
G1 X3.742 Y-0.4325
G1 X3.8101 Y0.4286
G1 X3.8102 Y0.4317
G1 X3.8098 Y0.4349
G1 X3.8091 Y0.4379
G3 X3.7861 Y0.4556 I-0.0239 J-0.0074 F10.
G1 X3.7006 F13.5
G1 X3.6886 Y0.455
G1 X3.6796 Y0.4538
G1 X3.6702 Y0.4518
G1 X3.6591 Y0.4484
G1 X3.648 Y0.4441
G1 X3.6353 Y0.4379
G1 X3.6222 Y0.4302
G1 X3.608 Y0.4203
G1 X3.5931 Y0.4079
G1 X3.5775 Y0.3927
G1 X3.5616 Y0.3744
G1 X3.5446 Y0.3515
G1 X3.5278 Y0.3244
G1 X3.5106 Y0.2912
G1 X3.4961 Y0.2565
G1 X3.4839 Y0.2209
G1 X3.4737 Y0.1847
G1 X3.4651 Y0.1481
G1 X3.458 Y0.1111
G1 X3.452 Y0.074
G1 X3.4471 Y0.0367
G1 X3.4431 Y-0.0007
G1 X3.44 Y-0.0382
G1 X3.4377 Y-0.0757
G1 X3.4361 Y-0.1133
G1 X3.4354 Y-0.1509
G1 X3.4356 Y-0.1885
G1 X3.4369 Y-0.2261
G1 X3.4394 Y-0.2636
G1 X3.4434 Y-0.301
G1 X3.4493 Y-0.3382
G1 X3.4568 Y-0.3715
G1 X3.4645 Y-0.3965
G1 X3.4724 Y-0.416
G1 X3.4759 Y-0.4232
G1 X3.4829 Y-0.434
G1 X3.4921 Y-0.4431
G1 X3.5031 Y-0.4499
G1 X3.5153 Y-0.4541
G1 X3.5282 Y-0.4556
G1 X3.6233
G3 X3.6463 Y-0.4379 I-0.0009 J0.025 F10.
G1 X3.6469 Y-0.4354 F13.5
G1 X3.6473 Y-0.4328
G1 X3.7246 Y0.4283
G1 X3.7247 Y0.4316
G1 X3.7244 Y0.4348
G1 X3.7236 Y0.4379
G3 X3.7006 Y0.4556 I-0.0239 J-0.0074 F10.
G1 X3.6066 F13.5
G1 X3.5985 Y0.4551
G1 X3.5891 Y0.4539
G1 X3.5796 Y0.4519
G1 X3.5684 Y0.4485
G1 X3.5567 Y0.444
G1 X3.5441 Y0.4378
G1 X3.5302 Y0.4297
G1 X3.516 Y0.4197
G1 X3.5002 Y0.4066
G1 X3.4846 Y0.3914
G1 X3.4679 Y0.3722
G1 X3.4504 Y0.3485
G1 X3.4331 Y0.3207
G1 X3.4158 Y0.2873
G1 X3.4012 Y0.2526
G1 X3.3888 Y0.2171
G1 X3.3783 Y0.181
G1 X3.3695 Y0.1444
G1 X3.362 Y0.1076
G1 X3.3557 Y0.0705
G1 X3.3506 Y0.0332
G1 X3.3464 Y-0.0042
G1 X3.3432 Y-0.0416
G1 X3.3408 Y-0.0792
G1 X3.3393 Y-0.1168
G1 X3.3387 Y-0.1544
G1 X3.3392 Y-0.192
G1 X3.3407 Y-0.2295
G1 X3.3436 Y-0.2671
G1 X3.348 Y-0.3044
G1 X3.3543 Y-0.3415
G1 X3.362 Y-0.3741
G1 X3.3698 Y-0.3986
G1 X3.3778 Y-0.4179
G1 X3.3808 Y-0.4237
G1 X3.3878 Y-0.4344
G1 X3.397 Y-0.4433
G1 X3.4079 Y-0.45
G1 X3.42 Y-0.4541
G1 X3.4327 Y-0.4556
G1 X3.5282
G3 X3.5512 Y-0.4379 I-0.0009 J0.025 F10.
G1 X3.5518 Y-0.4354 F13.5
G1 X3.5522 Y-0.4328
G1 X3.6306 Y0.4283
G1 X3.6307 Y0.4315
G1 X3.6304 Y0.4348
G1 X3.6296 Y0.4379
G3 X3.6066 Y0.4556 I-0.0239 J-0.0074 F10.
G1 X3.5126 F13.5
G1 X3.5066 Y0.4553
G1 X3.497 Y0.454
G1 X3.4872 Y0.4518
G1 X3.476 Y0.4484
G1 X3.4639 Y0.4437
G1 X3.4511 Y0.4374
G1 X3.4367 Y0.4289
G1 X3.4225 Y0.4188
G1 X3.4062 Y0.4052
G1 X3.3904 Y0.3897
G1 X3.3731 Y0.3698
G1 X3.3551 Y0.3454
G1 X3.3372 Y0.3163
G1 X3.32 Y0.2828
G1 X3.3054 Y0.2482
G1 X3.2929 Y0.2127
G1 X3.2823 Y0.1766
G1 X3.2733 Y0.1401
G1 X3.2656 Y0.1033
G1 X3.2592 Y0.0662
G1 X3.2539 Y0.029
G1 X3.2497 Y-0.0084
G1 X3.2464 Y-0.0459
G1 X3.2441 Y-0.0834
G1 X3.2427 Y-0.121
G1 X3.2423 Y-0.1586
G1 X3.243 Y-0.1962
G1 X3.2448 Y-0.2338
G1 X3.248 Y-0.2713
G1 X3.2528 Y-0.3086
G1 X3.2594 Y-0.3456
G1 X3.2672 Y-0.3773
G1 X3.2751 Y-0.4009
G1 X3.2832 Y-0.42
G1 X3.2855 Y-0.4243
G1 X3.2925 Y-0.4348
G1 X3.3017 Y-0.4436
G1 X3.3125 Y-0.4501
G1 X3.3245 Y-0.4542
G1 X3.3371 Y-0.4556
G1 X3.4327
G3 X3.4558 Y-0.4379 I-0.0009 J0.025 F10.
G1 X3.4564 Y-0.4354 F13.5
G1 X3.4568 Y-0.4329
G1 X3.5366 Y0.4283
G1 X3.5367 Y0.4315
G1 X3.5364 Y0.4348
G1 X3.5356 Y0.4379
G3 X3.5126 Y0.4556 I-0.0239 J-0.0074 F10.
G1 X3.4224 F13.5
G1 X3.414 Y0.4551
G1 X3.4046 Y0.4539
G1 X3.3945 Y0.4517
G1 X3.3834 Y0.4484
G1 X3.3708 Y0.4435
G1 X3.3582 Y0.4374
G1 X3.3435 Y0.4287
G1 X3.3292 Y0.4187
G1 X3.3127 Y0.405
G1 X3.2967 Y0.3893
G1 X3.279 Y0.3691
G1 X3.2608 Y0.3445
G1 X3.2425 Y0.315
G1 X3.2252 Y0.2816
G1 X3.2104 Y0.247
G1 X3.1978 Y0.2116
G1 X3.1869 Y0.1756
G1 X3.1776 Y0.1392
G1 X3.1698 Y0.1024
G1 X3.1632 Y0.0653
G1 X3.1578 Y0.0281
G1 X3.1534 Y-0.0092
G1 X3.1501 Y-0.0467
G1 X3.1477 Y-0.0842
G1 X3.1463 Y-0.1218
G1 X3.146 Y-0.1594
G1 X3.1468 Y-0.197
G1 X3.1488 Y-0.2346
G1 X3.1521 Y-0.2721
G1 X3.157 Y-0.3094
G1 X3.1638 Y-0.3464
G1 X3.1717 Y-0.378
G1 X3.1796 Y-0.4016
G1 X3.1878 Y-0.4206
G1 X3.1898 Y-0.4244
G1 X3.1969 Y-0.4349
G1 X3.2061 Y-0.4436
G1 X3.2169 Y-0.4501
G1 X3.2288 Y-0.4542
G1 X3.2414 Y-0.4556
G1 X3.3371
G3 X3.3601 Y-0.4379 I-0.0009 J0.025 F10.
G1 X3.3608 Y-0.4355 F13.5
G1 X3.3611 Y-0.433
G1 X3.4464 Y0.4281
G3 X3.4454 Y0.4379 I-0.0249 J0.0025
G3 X3.4224 Y0.4556 I-0.0239 J-0.0074 F10.
G1 X3.3331 F13.5
G1 X3.3204 Y0.4549
G1 X3.3109 Y0.4537
G1 X3.3007 Y0.4515
G1 X3.2895 Y0.4481
G1 X3.2768 Y0.4432
G1 X3.2641 Y0.437
G1 X3.2493 Y0.4283
G1 X3.2347 Y0.4181
G1 X3.2181 Y0.4043
G1 X3.2019 Y0.3884
G1 X3.184 Y0.3679
G1 X3.1654 Y0.3429
G1 X3.1467 Y0.3128
G1 X3.1295 Y0.2794
G1 X3.1147 Y0.2448
G1 X3.1019 Y0.2094
G1 X3.091 Y0.1735
G1 X3.0816 Y0.137
G1 X3.0736 Y0.1003
G1 X3.067 Y0.0633
G1 X3.0615 Y0.026
G1 X3.0571 Y-0.0113
G1 X3.0537 Y-0.0488
G1 X3.0514 Y-0.0863
G1 X3.0501 Y-0.1239
G1 X3.0498 Y-0.1615
G1 X3.0507 Y-0.1991
G1 X3.0529 Y-0.2367
G1 X3.0564 Y-0.2741
G1 X3.0614 Y-0.3114
G1 X3.0684 Y-0.3484
G1 X3.0763 Y-0.3795
G1 X3.0842 Y-0.4027
G1 X3.0924 Y-0.4215
G1 X3.0941 Y-0.4247
G1 X3.1012 Y-0.4351
G1 X3.1104 Y-0.4437
G1 X3.1212 Y-0.4502
G1 X3.1331 Y-0.4542
G1 X3.1456 Y-0.4556
G1 X3.2414
G3 X3.2644 Y-0.4379 I-0.0009 J0.025 F10.
G1 X3.265 Y-0.4356 F13.5
G1 X3.2654 Y-0.4332
G1 X3.3571 Y0.4279
G3 X3.3561 Y0.4379 I-0.0249 J0.0026
G3 X3.3331 Y0.4556 I-0.0239 J-0.0074 F10.
G1 X3.2391 F13.5
G1 X3.2264 Y0.4549
G1 X3.2169 Y0.4537
G1 X3.2065 Y0.4514
G1 X3.1953 Y0.4481
G1 X3.1825 Y0.4431
G1 X3.1697 Y0.4369
G1 X3.1547 Y0.4281
G1 X3.14 Y0.4177
G1 X3.1233 Y0.4038
G1 X3.1068 Y0.3877
G1 X3.0886 Y0.3669
G1 X3.0699 Y0.3417
G1 X3.0509 Y0.3112
G1 X3.0337 Y0.2778
G1 X3.0188 Y0.2432
G1 X3.006 Y0.2079
G1 X2.995 Y0.1719
G1 X2.9856 Y0.1355
G1 X2.9776 Y0.0987
G1 X2.9708 Y0.0617
G1 X2.9653 Y0.0245
G1 X2.9609 Y-0.0128
G1 X2.9575 Y-0.0503
G1 X2.9552 Y-0.0878
G1 X2.9539 Y-0.1254
G1 X2.9538 Y-0.163
G1 X2.9547 Y-0.2006
G1 X2.957 Y-0.2382
G1 X2.9606 Y-0.2756
G1 X2.9657 Y-0.3129
G1 X2.9728 Y-0.3498
G1 X2.9808 Y-0.3806
G1 X2.9887 Y-0.4035
G1 X2.997 Y-0.4223
G1 X2.9984 Y-0.4249
G1 X3.0055 Y-0.4352
G1 X3.0146 Y-0.4438
G1 X3.0254 Y-0.4502
G1 X3.0373 Y-0.4542
G1 X3.0497 Y-0.4556
G1 X3.1456
G3 X3.1686 Y-0.4379 I-0.0009 J0.025 F10.
