%
(simpleCamWrench)
(T31  D=0.25 CR=0. - ZMIN=-0.26 - flat end mill)
G90 G54 G64 G50 G17 G40 G80 G94 G91.1 G49
G20 (Inch)
G30

N10(Bore3)
T31 G43 H31 M6
S4500 M3 M9
G54
G0 X-3.4755 Y-0.0487
G0 Z0.6
G0 Z0.08
G1 Z0.025 F10.
G1 Y-0.049 Z0.0211
G1 Y-0.0499 Z0.0173
G1 Y-0.0514 Z0.0137
G1 Y-0.0535 Z0.0103
G1 Y-0.056 Z0.0073
G1 Y-0.059 Z0.0048
G1 Y-0.0624 Z0.0027
G1 Y-0.066 Z0.0012
G1 Y-0.0698 Z0.0003
G1 Y-0.0737 Z0.
G1 Y-0.0862
G3 X-3.4505 Y-0.1112 I0.025 J0.
G3 Y0.1112 Z-0.0197 I0. J0.1112 F13.5
G3 Y-0.1112 Z-0.0394 I0. J-0.1112
G3 Y0.1112 Z-0.0591 I0. J0.1112
G3 Y-0.1112 Z-0.0787 I0. J-0.1112
G3 Y0.1112 Z-0.0984 I0. J0.1112
G3 Y-0.1112 Z-0.1181 I0. J-0.1112
G3 Y0.1112 Z-0.1378 I0. J0.1112
G3 Y-0.1112 Z-0.1575 I0. J-0.1112
G3 Y0.1112 Z-0.1772 I0. J0.1112
G3 Y-0.1112 Z-0.1969 I0. J-0.1112
G3 Y0.1112 Z-0.2165 I0. J0.1112
G3 Y-0.1112 Z-0.2362 I0. J-0.1112
G3 Y0.1112 Z-0.2559 I0. J0.1112
G3 X-3.5181 Y0.0883 Z-0.26 I0. J-0.1112
G3 X-3.3828 Y-0.0883 I0.0676 J-0.0883
G3 X-3.5181 Y0.0883 I-0.0676 J0.0883
G3 X-3.5227 Y0.0533 I0.0152 J-0.0198 F10.
G1 X-3.5151 Y0.0433
G1 X-3.5127 Y0.0402 Z-0.2597
G1 X-3.5104 Y0.0372 Z-0.2588
G1 X-3.5082 Y0.0343 Z-0.2573
G1 X-3.5062 Y0.0317 Z-0.2552
G1 X-3.5044 Y0.0293 Z-0.2527
G1 X-3.5028 Y0.0273 Z-0.2497
G1 X-3.5016 Y0.0256 Z-0.2463
G1 X-3.5007 Y0.0245 Z-0.2427
G1 X-3.5001 Y0.0237 Z-0.2389
G1 X-3.4999 Y0.0235 Z-0.235
G0 Z0.6

N20(2D Adaptive2)
S4500 M3 M9
G0 X-4.5258 Y-1.9114
G0 Z0.6
G0 Z0.2
G0 Z-0.05
G1 Z-0.075 F10.
G1 X-4.5257 Y-1.9111 Z-0.0789
G1 X-4.5255 Y-1.9102 Z-0.0827
G1 X-4.5251 Y-1.9087 Z-0.0863
G1 X-4.5246 Y-1.9067 Z-0.0897
G1 X-4.524 Y-1.9043 Z-0.0927
G1 X-4.5232 Y-1.9014 Z-0.0952
G1 X-4.5224 Y-1.8981 Z-0.0973
G1 X-4.5215 Y-1.8946 Z-0.0988
G1 X-4.5205 Y-1.8909 Z-0.0997
G1 X-4.5196 Y-1.8872 Z-0.1
G3 X-4.5 Y-1.7511 I-0.6183 J0.1584
G1 Y-1.7451 F13.5
G1 X-4.5072 Y-1.7096
G1 X-4.5124 Y-1.6738
G1 X-4.5161 Y-1.6378
G1 X-4.5187 Y-1.6017
G1 X-4.5206 Y-1.5656
G1 X-4.5219 Y-1.5294
G1 X-4.5228 Y-1.4932
G1 X-4.5234 Y-1.4571
G1 X-4.5239 Y-1.4209
G1 X-4.5242 Y-1.3847
G1 X-4.5245 Y-1.3485
G1 X-4.5246 Y-1.3124
G1 X-4.5248 Y-1.24
G1 X-4.5249 Y-1.1314
G1 X-4.525 Y-0.842
G1 Y0.2435
G1 Y1.5098
G1 X-4.5214 Y1.5276
G1 X-4.5049 Y1.5597
G1 X-4.4784 Y1.5844
G1 X-4.4472 Y1.6028
G1 X-4.4136 Y1.6162
G1 X-4.3788 Y1.6259
G1 X-4.3433 Y1.6329
G1 X-4.3074 Y1.6379
G1 X-4.2714 Y1.6414
G1 X-4.2353 Y1.6439
G1 X-4.1992 Y1.6457
G1 X-4.163 Y1.647
G1 X-4.1269 Y1.6479
G1 X-4.0907 Y1.6485
G1 X-4.0545 Y1.6489
G1 X-4.0183 Y1.6493
G1 X-3.9822 Y1.6495
G1 X-3.946 Y1.6496
G1 X-3.8736 Y1.6498
G1 X-3.7651 Y1.6499
G1 X-3.4756 Y1.65
G1 X-1.8836
G1 X0.1064
G1 X2.0964
G1 X4.0864
G1 X4.3849
G1 X4.3939 Y1.6486
G1 X4.4111 Y1.6431
G1 X4.4414 Y1.6233
G1 X4.4644 Y1.5954
G1 X4.4814 Y1.5635
G1 X4.4939 Y1.5295
G1 X4.5028 Y1.4944
G1 X4.5093 Y1.4588
G1 X4.5138 Y1.4229
G1 X4.5171 Y1.3869
G1 X4.5194 Y1.3508
G1 X4.5211 Y1.3147
G1 X4.5222 Y1.2785
G1 X4.523 Y1.2423
G1 X4.5236 Y1.2061
G1 X4.524 Y1.17
G1 X4.5243 Y1.1338
G1 X4.5245 Y1.0976
G1 X4.5247 Y1.0614
G1 X4.5248 Y0.9891
G1 X4.5249 Y0.8805
G1 X4.525 Y0.5549
G1 Y0.0121
G1 Y-1.5075
G1 X4.5224 Y-1.5254
G1 X4.5145 Y-1.5417
G1 X4.4929 Y-1.5707
G1 X4.4641 Y-1.5926
G1 X4.4318 Y-1.6088
G1 X4.3975 Y-1.6206
G1 X4.3624 Y-1.6291
G1 X4.3267 Y-1.6351
G1 X4.2908 Y-1.6395
G1 X4.2547 Y-1.6426
G1 X4.2186 Y-1.6447
G1 X4.1825 Y-1.6463
G1 X4.1463 Y-1.6474
G1 X4.1101 Y-1.6482
G1 X4.0739 Y-1.6487
G1 X4.0378 Y-1.6491
G1 X4.0016 Y-1.6494
G1 X3.9654 Y-1.6495
G1 X3.893 Y-1.6498
G1 X3.7845 Y-1.6499
G1 X3.5674 Y-1.65
G1 X2.1201
G1 X0.1301
G1 X-1.8599
G1 X-3.8499
G1 X-4.2841
G1 X-4.3014 Y-1.6448
G1 X-4.3329 Y-1.6269
G1 X-4.3573 Y-1.6002
G1 X-4.3757 Y-1.569
G1 X-4.3893 Y-1.5355
G1 X-4.3992 Y-1.5007
G1 X-4.4065 Y-1.4653
G1 X-4.4117 Y-1.4295
G1 X-4.4155 Y-1.3935
G1 X-4.4182 Y-1.3574
G1 X-4.4202 Y-1.3213
G1 X-4.4215 Y-1.2851
G1 X-4.4225 Y-1.249
G1 X-4.4232 Y-1.2128
G1 X-4.4237 Y-1.1766
G1 X-4.4241 Y-1.1404
G1 X-4.4244 Y-1.1043
G1 X-4.4245 Y-1.0681
G1 X-4.4248 Y-0.9957
G1 X-4.4249 Y-0.8872
G1 X-4.425 Y-0.6701
G1 Y-0.1635
G1 Y1.3923
G1 X-4.4136 Y1.4266
G1 X-4.392 Y1.4556
G1 X-4.3642 Y1.4788
G1 X-4.3328 Y1.4968
G1 X-4.2993 Y1.5105
G1 X-4.2646 Y1.5208
G1 X-4.2293 Y1.5285
G1 X-4.1935 Y1.5343
G1 X-4.1576 Y1.5385
G1 X-4.1216 Y1.5416
G1 X-4.0854 Y1.5439
G1 X-4.0493 Y1.5456
G1 X-4.0131 Y1.5468
G1 X-3.977 Y1.5477
G1 X-3.9408 Y1.5483
G1 X-3.9046 Y1.5488
G1 X-3.8684 Y1.5491
G1 X-3.8322 Y1.5494
G1 X-3.7961 Y1.5495
G1 X-3.7237 Y1.5498
G1 X-3.6152 Y1.5499
G1 X-3.3981 Y1.55
G1 X-2.0593
G1 X-0.0693
G1 X1.9207
G1 X3.9107
G1 X4.2544
G1 X4.2722 Y1.5467
G1 X4.306 Y1.5338
G1 X4.3342 Y1.5112
G1 X4.3566 Y1.4828
G1 X4.374 Y1.451
G1 X4.3872 Y1.4173
G1 X4.3971 Y1.3825
G1 X4.4045 Y1.3471
G1 X4.41 Y1.3113
G1 X4.414 Y1.2754
G1 X4.417 Y1.2393
G1 X4.4192 Y1.2032
G1 X4.4208 Y1.167
G1 X4.4219 Y1.1309
G1 X4.4228 Y1.0947
G1 X4.4234 Y1.0585
G1 X4.4238 Y1.0224
G1 X4.4242 Y0.9862
G1 X4.4244 Y0.95
G1 X4.4246 Y0.9138
G1 X4.4248 Y0.8415
G1 X4.4249 Y0.7329
G1 X4.425 Y0.5158
G1 Y-0.0269
G1 Y-1.3656
G1 X4.4243 Y-1.3837
G1 X4.416 Y-1.4189
G1 X4.3963 Y-1.4493
G1 X4.3697 Y-1.4738
G1 X4.339 Y-1.4929
G1 X4.3059 Y-1.5075
G1 X4.2715 Y-1.5186
G1 X4.2362 Y-1.5269
G1 X4.2006 Y-1.5331
G1 X4.1647 Y-1.5376
G1 X4.1287 Y-1.541
G1 X4.0926 Y-1.5434
G1 X4.0564 Y-1.5452
G1 X4.0203 Y-1.5465
G1 X3.9841 Y-1.5475
G1 X3.9479 Y-1.5482
G1 X3.9117 Y-1.5487
G1 X3.8756 Y-1.549
G1 X3.8394 Y-1.5493
G1 X3.8032 Y-1.5495
G1 X3.7308 Y-1.5497
G1 X3.6223 Y-1.5499
G1 X3.4052 Y-1.55
G1 X1.8856
G1 X-0.1044
G1 X-2.0944
G1 X-4.0844
G1 X-4.1568
G1 X-4.192 Y-1.5415
G1 X-4.2224 Y-1.5219
G1 X-4.247 Y-1.4954
G1 X-4.2663 Y-1.4648
G1 X-4.2812 Y-1.4318
G1 X-4.2925 Y-1.3974
G1 X-4.3009 Y-1.3622
G1 X-4.3073 Y-1.3266
G1 X-4.312 Y-1.2907
G1 X-4.3154 Y-1.2547
G1 X-4.318 Y-1.2186
G1 X-4.3199 Y-1.1825
G1 X-4.3213 Y-1.1463
G1 X-4.3223 Y-1.1102
G1 X-4.323 Y-1.074
G1 X-4.3236 Y-1.0378
G1 X-4.324 Y-1.0016
G1 X-4.3242 Y-0.9655
G1 X-4.3244 Y-0.9293
G1 X-4.3246 Y-0.8931
G1 X-4.3248 Y-0.8207
G1 X-4.3249 Y-0.7122
G1 X-4.325 Y-0.4589
G1 Y0.3009
G1 Y1.2778
G1 X-4.315 Y1.3126
G1 X-4.2951 Y1.3428
G1 X-4.2687 Y1.3676
G1 X-4.2384 Y1.3873
G1 X-4.2056 Y1.4026
G1 X-4.1714 Y1.4144
G1 X-4.1363 Y1.4234
G1 X-4.1008 Y1.4301
G1 X-4.065 Y1.4352
G1 X-4.029 Y1.4391
G1 X-3.9929 Y1.4419
G1 X-3.9568 Y1.444
G1 X-3.9206 Y1.4456
G1 X-3.8845 Y1.4467
G1 X-3.8483 Y1.4476
G1 X-3.8121 Y1.4482
G1 X-3.776 Y1.4487
G1 X-3.7398 Y1.449
G1 X-3.7036 Y1.4493
G1 X-3.6674 Y1.4495
G1 X-3.595 Y1.4497
G1 X-3.4865 Y1.4499
G1 X-3.378 Y1.45
G1 X-2.8352
G1 X-1.388
G1 X0.6021
G1 X2.399
G1 X2.4043 Y1.4502
G1 X2.4097 Y1.451
G1 X2.4149 Y1.4522
G1 X2.4502 Y1.4622
G1 X2.4585 Y1.4645
G1 X2.4749 Y1.4676
G1 X2.4831 Y1.4692
G1 X2.59 Y1.4878
G1 X2.5982 Y1.4892
G1 X2.6174 Y1.4922
G1 X2.6229 Y1.4927
G1 X2.6722 Y1.4961
G1 X2.7545 Y1.5018
G1 X2.7791 Y1.5025
G1 X2.7873 Y1.5023
G1 X2.9107 Y1.498
G1 X2.9189 Y1.4975
G1 X2.9353 Y1.496
G1 X2.9436 Y1.4951
G1 X3.0751 Y1.4766
G1 X3.0797 Y1.4757
G1 X3.0834 Y1.4749
G1 X3.119 Y1.4687
G1 X3.1547 Y1.4631
G1 X3.1907 Y1.4592
G1 X3.2268 Y1.4564
G1 X3.2629 Y1.4545
G1 X3.2991 Y1.4532
G1 X3.3352 Y1.4522
G1 X3.3714 Y1.4516
G1 X3.4076 Y1.4511
G1 X3.4438 Y1.4508
G1 X3.48 Y1.4506
G1 X3.5161 Y1.4504
G1 X3.5885 Y1.4502
G1 X3.697 Y1.4501
G1 X3.9503 Y1.45
G1 X4.1312
G1 X4.1673 Y1.4469
G1 X4.2004 Y1.4324
G1 X4.2284 Y1.4094
G1 X4.251 Y1.3812
G1 X4.2689 Y1.3497
G1 X4.2827 Y1.3163
G1 X4.2932 Y1.2817
G1 X4.3013 Y1.2464
G1 X4.3073 Y1.2107
G1 X4.3119 Y1.1748
G1 X4.3153 Y1.1388
G1 X4.3178 Y1.1027
G1 X4.3197 Y1.0666
G1 X4.3211 Y1.0304
G1 X4.3221 Y0.9942
G1 X4.3229 Y0.9581
G1 X4.3234 Y0.9219
G1 X4.3238 Y0.8857
G1 X4.3242 Y0.8495
G1 X4.3244 Y0.8134
G1 X4.3245 Y0.7772
G1 X4.3248 Y0.7048
G1 X4.3249 Y0.5963
G1 X4.325 Y0.3792
G1 Y-1.249
G1 X4.3241 Y-1.2852
G1 X4.3116 Y-1.3191
G1 X4.2901 Y-1.3482
G1 X4.2627 Y-1.3719
G1 X4.2318 Y-1.3906
G1 X4.1986 Y-1.4052
G1 X4.1642 Y-1.4163
G1 X4.129 Y-1.4248
G1 X4.0934 Y-1.4312
G1 X4.0576 Y-1.436
G1 X4.0216 Y-1.4396
G1 X3.9855 Y-1.4423
G1 X3.9494 Y-1.4443
G1 X3.9132 Y-1.4458
G1 X3.877 Y-1.4469
G1 X3.8409 Y-1.4477
G1 X3.8047 Y-1.4483
G1 X3.7685 Y-1.4488
G1 X3.7323 Y-1.4491
G1 X3.6962 Y-1.4493
G1 X3.66 Y-1.4495
G1 X3.5876 Y-1.4497
G1 X3.4791 Y-1.4499
G1 X3.262 Y-1.45
G1 X3.1925
G1 X3.1878 Y-1.4502
G1 X3.1831 Y-1.4508
G1 X3.1784 Y-1.4517
G1 X3.108 Y-1.4692
G1 X3.0998 Y-1.4712
G1 X3.0797 Y-1.4757
G1 X3.0751 Y-1.4766
G1 X2.9436 Y-1.4951
G1 X2.9353 Y-1.496
G1 X2.9189 Y-1.4975
G1 X2.9107 Y-1.498
G1 X2.7873 Y-1.5023
G1 X2.7791 Y-1.5025
G1 X2.7545 Y-1.5018
G1 X2.6393 Y-1.4938
G1 X2.6229 Y-1.4927
G1 X2.6174 Y-1.4922
G1 X2.5982 Y-1.4892
G1 X2.59 Y-1.4878
G1 X2.4913 Y-1.4706
G1 X2.4554 Y-1.4662
G1 X2.4196 Y-1.4613
G1 X2.3836 Y-1.4579
G1 X2.3475 Y-1.4556
G1 X2.3113 Y-1.4539
G1 X2.2751 Y-1.4528
G1 X2.239 Y-1.4519
G1 X2.2028 Y-1.4514
G1 X2.1666 Y-1.451
G1 X2.1304 Y-1.4507
G1 X2.0943 Y-1.4505
G1 X2.0581 Y-1.4503
G1 X1.9857 Y-1.4502
G1 X1.8772 Y-1.4501
G1 X1.5515 Y-1.45
G1 X0.5023
G1 X-1.4878
G1 X-3.4778
G1 X-4.0205
G1 X-4.0567 Y-1.4497
G1 X-4.0909 Y-1.438
G1 X-4.1204 Y-1.417
G1 X-4.1445 Y-1.39
G1 X-4.1636 Y-1.3593
G1 X-4.1786 Y-1.3264
G1 X-4.19 Y-1.2921
G1 X-4.1988 Y-1.2569
G1 X-4.2054 Y-1.2214
G1 X-4.2104 Y-1.1855
G1 X-4.2141 Y-1.1495
G1 X-4.2169 Y-1.1135
G1 X-4.219 Y-1.0774
G1 X-4.2206 Y-1.0412
G1 X-4.2217 Y-1.005
G1 X-4.2226 Y-0.9689
G1 X-4.2232 Y-0.9327
G1 X-4.2237 Y-0.8965
G1 X-4.224 Y-0.8603
G1 X-4.2243 Y-0.8242
G1 X-4.2245 Y-0.788
G1 X-4.2247 Y-0.7156
G1 X-4.2249 Y-0.6071
G1 X-4.225 Y-0.4262
G1 Y-0.1005
G1 Y1.1659
G1 X-4.2169 Y1.2011
G1 X-4.1989 Y1.2325
G1 X-4.1739 Y1.2587
G1 X-4.1445 Y1.2797
G1 X-4.1124 Y1.2964
G1 X-4.0786 Y1.3093
G1 X-4.0438 Y1.3193
G1 X-4.0084 Y1.3269
G1 X-3.9727 Y1.3326
G1 X-3.9368 Y1.337
G1 X-3.9008 Y1.3403
G1 X-3.8647 Y1.3427
G1 X-3.8285 Y1.3446
G1 X-3.7924 Y1.346
G1 X-3.7562 Y1.347
G1 X-3.72 Y1.3478
G1 X-3.6839 Y1.3483
G1 X-3.6477 Y1.3488
G1 X-3.6115 Y1.3491
G1 X-3.5753 Y1.3493
G1 X-3.5391 Y1.3495
G1 X-3.4668 Y1.3497
G1 X-3.3582 Y1.3499
G1 X-3.1411 Y1.35
G1 X-1.5853
G1 X0.4047
G1 X2.1235
G1 X2.1329 Y1.3508
G1 X2.1421 Y1.353
G1 X2.1507 Y1.3567
G1 X2.1582 Y1.3606
G1 X2.1625 Y1.3627
G1 X2.1871 Y1.3731
G1 X2.294 Y1.416
G1 X2.3001 Y1.4182
G1 X2.3187 Y1.4246
G1 X2.3241 Y1.4264
G1 X2.4149 Y1.4522
G1 X2.4338 Y1.4576 F10.
G1 X2.4447 Y1.4607
G1 X2.4502 Y1.4622 F13.5
G1 X2.4585 Y1.4645
G1 X2.4749 Y1.4676
G1 X2.4831 Y1.4692
G1 X2.59 Y1.4878
G1 X2.5982 Y1.4892
G1 X2.6174 Y1.4922
G1 X2.6229 Y1.4927
G1 X2.6476 Y1.4944
G1 X2.7545 Y1.5018
G1 X2.7791 Y1.5025
G1 X2.7873 Y1.5023
G1 X2.9107 Y1.498
G1 X2.9189 Y1.4975
G1 X2.9353 Y1.496
G1 X2.9436 Y1.4951
G1 X3.0528 Y1.4797
G1 X3.0751 Y1.4766 F10.
G1 X3.0797 Y1.4757
G1 X3.0834 Y1.4749
G1 X3.0998 Y1.4712 F13.5
G1 X3.108 Y1.4692
G1 X3.2149 Y1.4427
G1 X3.2231 Y1.4405
G1 X3.2314 Y1.4382
G1 X3.2396 Y1.4358
G1 X3.3711 Y1.3882
G1 X3.3886 Y1.3819
G1 X3.4225 Y1.3726
G1 X3.458 Y1.3659
G1 X3.4939 Y1.3612
G1 X3.5299 Y1.3579
G1 X3.566 Y1.3556
G1 X3.6022 Y1.354
G1 X3.6384 Y1.3528
G1 X3.6745 Y1.352
G1 X3.7107 Y1.3514
G1 X3.7469 Y1.351
G1 X3.7831 Y1.3507
G1 X3.8192 Y1.3505
G1 X3.8554 Y1.3504
G1 X3.9278 Y1.3502
G1 X4.0363 Y1.3501
G1 X4.0719 Y1.3433
G1 X4.1038 Y1.3262
G1 X4.1306 Y1.3019
G1 X4.1523 Y1.273
G1 X4.1695 Y1.2411
G1 X4.1828 Y1.2075
G1 X4.1931 Y1.1728
G1 X4.201 Y1.1375
G1 X4.2069 Y1.1018
G1 X4.2115 Y1.0659
G1 X4.2149 Y1.0299
G1 X4.2174 Y0.9938
G1 X4.2194 Y0.9577
G1 X4.2208 Y0.9215
G1 X4.2219 Y0.8853
G1 X4.2227 Y0.8492
G1 X4.2233 Y0.813
G1 X4.2237 Y0.7768
G1 X4.224 Y0.7406
G1 X4.2243 Y0.7045
G1 X4.2245 Y0.6683
G1 X4.2247 Y0.5959
G1 X4.2249 Y0.4874
G1 X4.225 Y0.3065
G1 Y0.1255
G1 Y-1.1408
G1 X4.2243 Y-1.177
G1 X4.2127 Y-1.2113
G1 X4.1922 Y-1.241
G1 X4.1656 Y-1.2656
G1 X4.1352 Y-1.2852
G1 X4.1024 Y-1.3006
G1 X4.0683 Y-1.3126
G1 X4.0333 Y-1.3218
G1 X3.9978 Y-1.3288
G1 X3.962 Y-1.3341
G1 X3.926 Y-1.3381
G1 X3.89 Y-1.3411
G1 X3.8539 Y-1.3433
G1 X3.8177 Y-1.345
G1 X3.7816 Y-1.3463
G1 X3.7454 Y-1.3473
G1 X3.7092 Y-1.348
G1 X3.6731 Y-1.3485
G1 X3.6369 Y-1.3489
G1 X3.6007 Y-1.3492
G1 X3.5645 Y-1.3494
G1 X3.5283 Y-1.3495
G1 X3.4662 Y-1.3497
G1 X3.4575 Y-1.3504
G1 X3.449 Y-1.3524
G1 X3.4409 Y-1.3556
G1 X3.404 Y-1.3734
G1 X3.3958 Y-1.3773
G1 X3.3781 Y-1.3853
G1 X3.3711 Y-1.3882
G1 X3.2396 Y-1.4358
G1 X3.2314 Y-1.4382
G1 X3.2231 Y-1.4405
G1 X3.2141 Y-1.4428
G1 X3.1784 Y-1.4517
G1 X3.1484 Y-1.4592 F10.
G1 X3.108 Y-1.4692 F13.5
G1 X3.0998 Y-1.4712
G1 X3.0797 Y-1.4757
G1 X3.0751 Y-1.4766
G1 X2.9436 Y-1.4951
G1 X2.9353 Y-1.496
G1 X2.9189 Y-1.4975
G1 X2.9107 Y-1.498
G1 X2.7873 Y-1.5023
G1 X2.7791 Y-1.5025
G1 X2.7545 Y-1.5018
G1 X2.6393 Y-1.4938
G1 X2.6229 Y-1.4927
G1 X2.6174 Y-1.4922
G1 X2.5982 Y-1.4892
G1 X2.59 Y-1.4878
G1 X2.5218 Y-1.4759
G1 X2.4913 Y-1.4706 F10.
G1 X2.4831 Y-1.4692 F13.5
G1 X2.4742 Y-1.4675
G1 X2.4585 Y-1.4645
G1 X2.4502 Y-1.4622
G1 X2.4091 Y-1.4506
G1 X2.3241 Y-1.4264
G1 X2.3187 Y-1.4246
G1 X2.3001 Y-1.4182
G1 X2.294 Y-1.416
G1 X2.238 Y-1.3935
G1 X2.2038 Y-1.3818
G1 X2.1697 Y-1.3725
G1 X2.1341 Y-1.3658
G1 X2.0983 Y-1.3611
G1 X2.0622 Y-1.3579
G1 X2.0261 Y-1.3556
G1 X1.99 Y-1.3539
G1 X1.9538 Y-1.3528
G1 X1.9176 Y-1.352
G1 X1.8815 Y-1.3514
G1 X1.8453 Y-1.351
G1 X1.8091 Y-1.3507
G1 X1.7729 Y-1.3505
G1 X1.7367 Y-1.3504
G1 X1.6644 Y-1.3502
G1 X1.5558 Y-1.3501
G1 X1.2664 Y-1.35
G1 X0.2533
G1 X-1.7367
G1 X-3.7267
G1 X-3.9076
G1 X-3.9438
G1 X-3.9788 Y-1.3407
G1 X-4.0097 Y-1.3218
G1 X-4.0353 Y-1.2963
G1 X-4.056 Y-1.2666
G1 X-4.0723 Y-1.2343
G1 X-4.085 Y-1.2004
G1 X-4.0947 Y-1.1656
G1 X-4.1022 Y-1.1302
G1 X-4.1078 Y-1.0945
G1 X-4.1121 Y-1.0585
G1 X-4.1154 Y-1.0225
G1 X-4.1178 Y-0.9864
G1 X-4.1196 Y-0.9503
G1 X-4.121 Y-0.9141
G1 X-4.122 Y-0.8779
G1 X-4.1228 Y-0.8418
G1 X-4.1233 Y-0.8056
G1 X-4.1238 Y-0.7694
G1 X-4.1241 Y-0.7332
G1 X-4.1243 Y-0.697
G1 X-4.1245 Y-0.6609
G1 X-4.1247 Y-0.5885
G1 X-4.1249 Y-0.4799
G1 X-4.125 Y-0.2629
G1 Y-0.2478
G1 X-4.1254 Y-0.2406
G1 X-4.1268 Y-0.2335
G1 X-4.129 Y-0.2266
G1 X-4.1292 Y-0.2261
G1 X-4.1315 Y-0.2179
G1 X-4.136 Y-0.2014
G1 X-4.1381 Y-0.1932
G1 X-4.1539 Y-0.1274
G1 X-4.1558 Y-0.1192
G1 X-4.1579 Y-0.1028
G1 X-4.1589 Y-0.0945
G1 X-4.1596 Y-0.0863
G1 X-4.1648 Y-0.0206
G1 X-4.1654 Y-0.0123
G1 Y0.0123
G1 X-4.1635 Y0.037
G1 X-4.1596 Y0.0863
G1 X-4.1589 Y0.0945
G1 X-4.1569 Y0.111
G1 X-4.1558 Y0.1192
G1 X-4.1522 Y0.1342
G1 X-4.1456 Y0.1698
G1 X-4.1394 Y0.2054
G1 X-4.1351 Y0.2414
G1 X-4.1321 Y0.2774
G1 X-4.13 Y0.3135
G1 X-4.1285 Y0.3497
G1 X-4.1275 Y0.3859
G1 X-4.1267 Y0.422
G1 X-4.1262 Y0.4582
G1 X-4.1259 Y0.4944
G1 X-4.1256 Y0.5306
G1 X-4.1254 Y0.5667
G1 X-4.1252 Y0.6391
G1 X-4.1251 Y0.7477
G1 X-4.125 Y1.0009
G1 Y1.0371
G1 X-4.1239 Y1.0733
G1 X-4.1126 Y1.1076
G1 X-4.0924 Y1.1376
G1 X-4.0661 Y1.1625
G1 X-4.036 Y1.1825
G1 X-4.0034 Y1.1983
G1 X-3.9694 Y1.2106
G1 X-3.9345 Y1.2201
G1 X-3.899 Y1.2274
G1 X-3.8633 Y1.2329
G1 X-3.8273 Y1.2371
G1 X-3.7913 Y1.2403
G1 X-3.7552 Y1.2427
G1 X-3.7191 Y1.2445
G1 X-3.6829 Y1.2459
G1 X-3.6467 Y1.2469
G1 X-3.6106 Y1.2477
G1 X-3.5744 Y1.2483
G1 X-3.5382 Y1.2487
G1 X-3.502 Y1.249
G1 X-3.4658 Y1.2493
G1 X-3.4297 Y1.2495
G1 X-3.3573 Y1.2497
G1 X-3.2487 Y1.2499
G1 X-3.1402 Y1.25
G1 X-2.6698
G1 X-1.1502
G1 X0.8398
G1 X1.9472
G1 X1.9586 Y1.2511
G1 X1.9695 Y1.2544
G1 X1.9796 Y1.2598
G1 X2.0074 Y1.2784
G1 X2.0227 Y1.2885
G1 X2.0309 Y1.2933
G1 X2.049 Y1.3031
G1 X2.0646 Y1.3113
G1 X2.1507 Y1.3567
G1 X2.1625 Y1.3719 F10.
G1 X2.1654 Y1.3833
G1 X2.1895 Y1.4757 F13.5
G2 X2.2611 Y1.5488 I0.0959 J-0.0224
G1 X2.4502 Y1.5958
G1 X2.6147 Y1.6214
G1 X2.7956 Y1.6318
G1 X2.96 Y1.6247
G1 X3.1245 Y1.5991
G1 X3.2396 Y1.5704
G2 X3.3079 Y1.5086 I-0.0242 J-0.0954
G1 X3.3377 Y1.4264
G3 X3.3474 Y1.4075 I0.0595 J0.0184
G3 X3.3711 Y1.3882 I0.0499 J0.0373 F10.
G1 X3.3781 Y1.3853 F13.5
G1 X3.3963 Y1.3771
G1 X3.404 Y1.3734
G1 X3.5027 Y1.3256
G1 X3.5109 Y1.3214
G1 X3.5292 Y1.3113
G1 X3.5356 Y1.3077
G1 X3.548 Y1.3008
G1 X3.5677 Y1.2919
G1 X3.5935 Y1.2826
G1 X3.6284 Y1.2732
G1 X3.664 Y1.2665
G1 X3.6999 Y1.2618
G1 X3.7359 Y1.2584
G1 X3.772 Y1.256
G1 X3.8081 Y1.2543
G1 X3.8443 Y1.2531
G1 X3.8805 Y1.2522
G1 X3.9167 Y1.2516
G1 X3.9527 Y1.249
G1 X3.9866 Y1.2362
G1 X4.0159 Y1.215
G1 X4.0401 Y1.1881
G1 X4.0595 Y1.1576
G1 X4.0749 Y1.1248
G1 X4.0868 Y1.0906
G1 X4.096 Y1.0556
G1 X4.103 Y1.0202
G1 X4.1084 Y0.9844
G1 X4.1125 Y0.9484
G1 X4.1156 Y0.9124
G1 X4.1179 Y0.8763
G1 X4.1197 Y0.8401
G1 X4.121 Y0.804
G1 X4.122 Y0.7678
G1 X4.1228 Y0.7316
G1 X4.123 Y0.7156
G1 X4.1239 Y0.7064
G1 X4.1263 Y0.6973
G1 X4.13 Y0.6888
G1 X4.1446 Y0.6618
G1 X4.1522 Y0.6472
G1 X4.1532 Y0.6454
G1 X4.1569 Y0.6372
G1 X4.1598 Y0.6289
G1 X4.1605 Y0.6269
G1 X4.1622 Y0.6207
G1 X4.164 Y0.6125
G1 X4.1651 Y0.6043
G1 X4.1658 Y0.596
G1 X4.1659 Y0.5878
G1 X4.1654 Y0.5796
G1 X4.1644 Y0.5714
G1 X4.1628 Y0.5632
G1 X4.1608 Y0.5549
G1 X4.1605 Y0.554
G1 X4.1502 Y0.5193
G1 X4.1426 Y0.4839
G1 X4.1373 Y0.4481
G1 X4.1336 Y0.4121
G1 X4.1311 Y0.376
G1 X4.1292 Y0.3399
G1 X4.128 Y0.3037
G1 X4.1271 Y0.2675
G1 X4.1265 Y0.2314
G1 X4.126 Y0.1952
G1 X4.1257 Y0.159
G1 X4.1255 Y0.1228
G1 X4.1254 Y0.0866
G1 X4.1252 Y0.0143
G1 X4.1251 Y-0.0943
G1 X4.125 Y-0.3837
G1 Y-0.4758
G1 X4.1258 Y-0.4856
G1 X4.1283 Y-0.4951
G1 X4.1323 Y-0.5041
G1 X4.1378 Y-0.5123
G1 X4.144 Y-0.52
G1 X4.1454 Y-0.5221
G1 X4.1546 Y-0.5385
G1 X4.1564 Y-0.5426
G1 X4.1579 Y-0.5467
G1 X4.1608 Y-0.5549
G1 X4.1628 Y-0.5632
G1 X4.1644 Y-0.5714
G1 X4.1654 Y-0.5796
G1 X4.1659 Y-0.5878
G1 X4.1658 Y-0.596
G1 X4.1651 Y-0.6043
G1 X4.164 Y-0.6125
G1 X4.1622 Y-0.6207
G1 X4.1605 Y-0.6269
G1 X4.1598 Y-0.6289
G1 X4.1496 Y-0.6636
G1 X4.1422 Y-0.6991
G1 X4.137 Y-0.7349
G1 X4.1334 Y-0.7709
G1 X4.1309 Y-0.807
G1 X4.1292 Y-0.8431
G1 X4.1279 Y-0.8793
G1 X4.1271 Y-0.9154
G1 X4.1265 Y-0.9516
G1 X4.126 Y-0.9878
G1 X4.1257 Y-1.024
G1 X4.1255 Y-1.0602
G1 X4.118 Y-1.0956
G1 X4.1006 Y-1.1273
G1 X4.0763 Y-1.154
G1 X4.0473 Y-1.1757
G1 X4.0155 Y-1.193
G1 X3.9819 Y-1.2065
G1 X3.9473 Y-1.2169
G1 X3.912 Y-1.2249
G1 X3.8763 Y-1.2311
G1 X3.8405 Y-1.2357
G1 X3.8044 Y-1.2393
G1 X3.7684 Y-1.2419
G1 X3.7322 Y-1.2439
G1 X3.6961 Y-1.2455
G1 X3.6599 Y-1.2466
G1 X3.6489 Y-1.2469
G1 X3.6386 Y-1.248
G1 X3.6287 Y-1.251
G1 X3.6195 Y-1.2556
G1 X3.5356 Y-1.3077
G1 X3.5274 Y-1.3123
G1 X3.5109 Y-1.3214
G1 X3.5027 Y-1.3256
G1 X3.4409 Y-1.3556
G3 X3.4278 Y-1.3815 I0.0117 J-0.0221 F10.
G3 X3.4534 Y-1.4027 I0.0247 J0.0038 F13.5
G1 X3.9467 Y-1.3505
G1 X4.0371 Y-1.325
G1 X4.1111 Y-1.2887
G1 X4.1605 Y-1.2525
G1 X4.2053 Y-1.2044
G1 X4.2345 Y-1.1501
G1 X4.2518 Y-1.0976
G1 X4.2801 Y-0.6536
G3 X4.1776 Y-0.604 I-0.0623 J0.0021
G3 X4.1598 Y-0.6289 I0.0403 J-0.0475 F10.
G1 X4.1569 Y-0.6372 F13.5
G1 X4.1532 Y-0.6454
G1 X4.1489 Y-0.6536
G1 X4.144 Y-0.6629
G1 X4.0869 Y-0.7687
G1 X4.0865 Y-0.7694
G1 X4.0739 Y-0.7932
G1 X4.0648 Y-0.8141
G1 X4.0555 Y-0.8419
G1 X4.0467 Y-0.877
G1 X4.0404 Y-0.9127
G1 X4.036 Y-0.9486
G1 X4.0291 Y-0.9841
G1 X4.0133 Y-1.0166
G1 X3.9904 Y-1.0447
G1 X3.9625 Y-1.0677
G1 X3.9315 Y-1.0863
G1 X3.8984 Y-1.101
G1 X3.8641 Y-1.1125
G1 X3.829 Y-1.1214
G1 X3.8037 Y-1.1262
G1 X3.7942 Y-1.1289
G1 X3.7851 Y-1.1331
G1 X3.7769 Y-1.1387
G1 X3.7666 Y-1.1469
G1 X3.6671 Y-1.224
G1 X3.6602 Y-1.2291
G1 X3.6483 Y-1.2373
G1 X3.6425 Y-1.2413
G1 X3.6195 Y-1.2556
G3 X3.6092 Y-1.2827 I0.0139 J-0.0208 F10.
G3 X3.6425 Y-1.2997 I0.0242 J0.0063 F13.5
G1 X3.9796 Y-1.2075
G1 X4.0454 Y-1.1684
G1 X4.0957 Y-1.1211
G1 X4.1276 Y-1.0774
G1 X4.1466 Y-1.04
G1 X4.1994 Y-0.818
G3 X4.1088 Y-0.7485 I-0.0605 J0.0149
G3 X4.0869 Y-0.7687 I0.03 J-0.0546 F10.
G1 X4.0865 Y-0.7694
G1 X4.0771 Y-0.7851 F13.5
G1 X4.0719 Y-0.7934
G1 X3.996 Y-0.9045
G1 X3.9933 Y-0.9085
G1 X3.9796 Y-0.9251
G1 X3.9714 Y-0.9349
G1 X3.9101 Y-1.0071
G1 X3.9056 Y-1.0124
G1 X3.8884 Y-1.0318
G1 X3.8809 Y-1.0395
G1 X3.7987 Y-1.1182
G1 X3.7806 Y-1.1352
G1 X3.7769 Y-1.1387
G1 X3.7696 Y-1.1563 F10.
G1 X3.77 Y-1.1681
G1 X3.7732 Y-1.262 F13.5
G2 X3.7247 Y-1.3502 I-0.0984 J-0.0034
G1 X3.5438 Y-1.4498
G1 X3.404 Y-1.5152
G1 X3.2642 Y-1.5639
G1 X3.0916 Y-1.6056
G1 X2.9271 Y-1.6278
G1 X2.738 Y-1.6306
G1 X2.6065 Y-1.6198
G1 X2.442 Y-1.5945
G2 X2.3772 Y-1.5579 I0.0123 J0.0977
G1 X2.261 Y-1.4135
G1 X2.2516 Y-1.4017 F10.
G1 X2.238 Y-1.3935
G1 X2.1871 Y-1.3731 F13.5
G1 X2.1625 Y-1.3627
G1 X2.1582 Y-1.3606
G1 X2.0556 Y-1.3066
G1 X2.0278 Y-1.2935
G1 X2.0033 Y-1.2843
G1 X1.9699 Y-1.2747
G1 X1.9344 Y-1.2676
G1 X1.8986 Y-1.2626
G1 X1.8626 Y-1.259
G1 X1.8265 Y-1.2564
G1 X1.7904 Y-1.2546
G1 X1.7542 Y-1.2533
G1 X1.718 Y-1.2523
G1 X1.6819 Y-1.2517
G1 X1.6457 Y-1.2512
G1 X1.6095 Y-1.2509
G1 X1.5733 Y-1.2506
G1 X1.5371 Y-1.2504
G1 X1.4648 Y-1.2502
G1 X1.3562 Y-1.2501
G1 X1.1391 Y-1.25
G1 X0.0899
G1 X-1.9001
G1 X-3.8178
G1 X-3.8539 Y-1.2475
G1 X-3.8876 Y-1.2345
G1 X-3.9168 Y-1.2131
G1 X-3.9409 Y-1.1861
G1 X-3.9601 Y-1.1554
G1 X-3.9753 Y-1.1226
G1 X-3.9871 Y-1.0884
G1 X-3.9962 Y-1.0534
G1 X-4.0032 Y-1.0179
G1 X-4.0086 Y-0.9821
G1 X-4.0126 Y-0.9461
G1 X-4.0157 Y-0.9101
G1 X-4.018 Y-0.874
G1 X-4.0197 Y-0.8378
G1 X-4.021 Y-0.8017
G1 X-4.022 Y-0.7655
G1 X-4.0228 Y-0.7293
G1 X-4.0233 Y-0.6932
G1 X-4.0238 Y-0.657
G1 X-4.0241 Y-0.6208
G1 X-4.0243 Y-0.5846
G1 X-4.0245 Y-0.5484
G1 X-4.0247 Y-0.4761
G1 X-4.0248 Y-0.4446
G1 X-4.026 Y-0.4328
G1 X-4.0295 Y-0.4216
G1 X-4.0353 Y-0.4113
G1 X-4.0371 Y-0.4086
G1 X-4.0734 Y-0.3494
G1 X-4.0834 Y-0.333
G1 X-4.0865 Y-0.3271
G1 X-4.0951 Y-0.3083
G1 X-4.0987 Y-0.3001
G1 X-4.1264 Y-0.2331
G1 X-4.129 Y-0.2266
G1 X-4.1292 Y-0.2261 F10.
G1 X-4.1315 Y-0.2179
G1 X-4.136 Y-0.2014
G1 X-4.1372 Y-0.1968
G1 X-4.1381 Y-0.1932 F13.5
G1 X-4.1522 Y-0.1342
G1 X-4.1539 Y-0.1274
G1 X-4.1558 Y-0.1192
G1 X-4.1569 Y-0.111
G1 X-4.1589 Y-0.0945
G1 X-4.1596 Y-0.0863
G1 X-4.1648 Y-0.0206
G1 X-4.1654 Y-0.0123
G1 Y0.0123
G1 X-4.1648 Y0.0206
G1 X-4.1596 Y0.0863
G1 X-4.1589 Y0.0945
G1 X-4.1577 Y0.1038
G1 X-4.1569 Y0.111 F10.
G1 X-4.1558 Y0.1192
G1 X-4.1539 Y0.1274
G1 X-4.1522 Y0.1342
G1 X-4.1381 Y0.1932 F13.5
G1 X-4.1358 Y0.2023
G1 X-4.1315 Y0.2179
G1 X-4.1292 Y0.2261
G1 X-4.1276 Y0.2302
G1 X-4.1259 Y0.2343
G1 X-4.0987 Y0.3001
G1 X-4.0951 Y0.3083
G1 X-4.0865 Y0.3271
G1 X-4.0834 Y0.333
G1 X-4.0807 Y0.3375
G1 X-4.0737 Y0.3504
G1 X-4.065 Y0.3701
G1 X-4.0559 Y0.3961
G1 X-4.0468 Y0.4311
G1 X-4.0404 Y0.4667
G1 X-4.0359 Y0.5026
G1 X-4.0327 Y0.5386
G1 X-4.0305 Y0.5748
G1 X-4.0289 Y0.6109
G1 X-4.0278 Y0.6471
G1 X-4.027 Y0.6832
G1 X-4.0264 Y0.7194
G1 X-4.026 Y0.7556
G1 X-4.0257 Y0.7918
G1 X-4.0255 Y0.828
G1 X-4.0254 Y0.8641
G1 X-4.0252 Y0.9365
G1 X-4.0236 Y0.9727
G1 X-4.0119 Y1.0069
G1 X-3.9914 Y1.0368
G1 X-3.9651 Y1.0616
G1 X-3.935 Y1.0816
G1 X-3.9025 Y1.0975
G1 X-3.8685 Y1.1099
G1 X-3.8336 Y1.1194
G1 X-3.7982 Y1.1268
G1 X-3.7624 Y1.1324
G1 X-3.7265 Y1.1367
G1 X-3.6905 Y1.14
G1 X-3.6544 Y1.1424
G1 X-3.6182 Y1.1443
G1 X-3.5821 Y1.1457
G1 X-3.5459 Y1.1468
G1 X-3.5097 Y1.1476
G1 X-3.4736 Y1.1482
G1 X-3.4374 Y1.1486
G1 X-3.4012 Y1.149
G1 X-3.365 Y1.1492
G1 X-3.3288 Y1.1494
G1 X-3.2565 Y1.1497
G1 X-3.1479 Y1.1499
G1 X-2.967 Y1.15
G1 X-2.7499
G1 X-0.7599
G1 X1.2301
G1 X1.8102
G1 X1.8202 Y1.1509
G1 X1.83 Y1.1535
G1 X1.8391 Y1.1577
G1 X1.8474 Y1.1635
G1 X1.8911 Y1.1998
G1 X1.8993 Y1.2056
G1 X1.9158 Y1.2171
G1 X1.924 Y1.2227
G1 X1.9796 Y1.2598
G1 X1.9898 Y1.277 F10.
G1 X1.9918 Y1.2878
G1 X2.0102 Y1.3853 F13.5
G2 X2.0638 Y1.4577 I0.0971 J-0.0159
G1 X2.1625 Y1.503
G1 X2.294 Y1.5539
G1 X2.4502 Y1.5958
G1 X2.5982 Y1.6183
G1 X2.776 Y1.6323
G1 X2.96 Y1.6247
G1 X3.1245 Y1.5991
G1 X3.2971 Y1.5537
G1 X3.4122 Y1.5123
G2 X3.476 Y1.4511 I-0.029 J-0.094
G1 X3.5097 Y1.3447
G3 X3.5151 Y1.3305 I0.0605 J0.0148
G3 X3.5356 Y1.3077 I0.0551 J0.029 F10.
G1 X3.6425 Y1.2413 F13.5
G1 X3.6507 Y1.2357
G1 X3.6602 Y1.2291
G1 X3.6671 Y1.224
G1 X3.6812 Y1.2142
G1 X3.6962 Y1.2054
G1 X3.7152 Y1.1963
G1 X3.74 Y1.1867
G1 X3.7734 Y1.1768
G1 X3.8088 Y1.1693
G1 X3.8445 Y1.1637
G1 X3.8783 Y1.1508
G1 X3.9081 Y1.1302
G1 X3.9331 Y1.1041
G1 X3.9535 Y1.0742
G1 X3.9697 Y1.0418
G1 X3.9825 Y1.008
G1 X3.9925 Y0.9732
G1 X4.0002 Y0.9379
G1 X4.0061 Y0.9022
G1 X4.0063 Y0.9009
G1 X4.0081 Y0.8919
G1 X4.0114 Y0.8833
G1 X4.016 Y0.8753
G1 X4.0719 Y0.7934
G1 X4.0771 Y0.7851
G1 X4.0869 Y0.7687
G1 X4.13 Y0.6888
G3 X4.1366 Y0.681 I0.022 J0.0119 F10.
G1 X4.1387 Y0.6792
G1 X4.1405 Y0.6772
G1 X4.1422 Y0.675
G1 X4.1489 Y0.6646
G1 X4.1834 Y0.6119 F13.5
G2 X4.1785 Y0.5791 I-0.0209 J-0.0137
G1 X4.1782 Y0.5789
G3 X4.1605 Y0.554 I0.0403 J-0.0475 F10.
G1 X4.1579 Y0.5467 F13.5
G1 X4.1564 Y0.5426
G1 X4.1546 Y0.5385
G1 X4.1454 Y0.5221
G1 X4.144 Y0.52
G1 X4.1325 Y0.5056
G1 X4.1276 Y0.5005
G1 X4.1241 Y0.4974
G1 X4.1194 Y0.4937
G1 X4.1131 Y0.4884
G1 X4.1061 Y0.4814
G1 X4.0984 Y0.4724
G1 X4.0903 Y0.4611
G1 X4.0816 Y0.4468
G1 X4.0726 Y0.4287
G1 X4.0631 Y0.4052
G1 X4.0534 Y0.3739
G1 X4.0454 Y0.3386
G1 X4.0397 Y0.3029
G1 X4.0356 Y0.2669
G1 X4.0326 Y0.2309
G1 X4.0305 Y0.1948
G1 X4.029 Y0.1586
G1 X4.0278 Y0.1224
G1 X4.0271 Y0.0863
G1 X4.0265 Y0.0501
G1 X4.0261 Y0.0139
G1 X4.0258 Y-0.0223
G1 X4.0256 Y-0.0585
G1 X4.0254 Y-0.0946
G1 X4.0252 Y-0.167
G1 X4.0251 Y-0.2755
G1 X4.025 Y-0.3841
G1 X4.0256 Y-0.4122
G1 X4.0273 Y-0.425
G1 X4.0316 Y-0.4371
G1 X4.0384 Y-0.448
G1 X4.0473 Y-0.4573
G1 X4.058 Y-0.4644
G1 X4.07 Y-0.4691
G3 X4.0969 Y-0.4582 I0.0058 J0.0243 F10.
G3 X4.1007 Y-0.4464 I-0.0211 J0.0134 F13.5
G1 X4.1588 Y0.4718
G3 X4.1483 Y0.4938 I-0.025 J0.0016
G3 X4.1194 Y0.4937 I-0.0144 J-0.0204 F10.
G1 X4.1111 Y0.4874 F13.5
G1 X4.1029 Y0.4821
G1 X4.1009 Y0.4809
G1 X4.0947 Y0.4778
G1 X4.0865 Y0.4741
G1 X4.0782 Y0.4714
G1 X4.0737 Y0.4701
G1 X4.0667 Y0.4678
G1 X4.0605 Y0.4652
G1 X4.0532 Y0.4614
G1 X4.0451 Y0.4564
G1 X4.0371 Y0.4504
G1 X4.0281 Y0.4425
G1 X4.0186 Y0.4328
G1 X4.0089 Y0.421
G1 X3.9985 Y0.4062
G1 X3.988 Y0.3882
G1 X3.9771 Y0.3658
G1 X3.966 Y0.337
G1 X3.9557 Y0.3023
G1 X3.948 Y0.267
G1 X3.9422 Y0.2313
G1 X3.9378 Y0.1953
G1 X3.9345 Y0.1593
G1 X3.9321 Y0.1232
G1 X3.9303 Y0.0871
G1 X3.9289 Y0.0509
G1 X3.9279 Y0.0148
G1 X3.9272 Y-0.0214
G1 X3.9266 Y-0.0576
G1 X3.9262 Y-0.0938
G1 X3.9259 Y-0.13
G1 X3.9256 Y-0.1661
G1 X3.9255 Y-0.2023
G1 X3.9253 Y-0.2747
G1 Y-0.3109
G1 X3.9259 Y-0.347
G1 X3.9282 Y-0.3747
G1 X3.9317 Y-0.3961
G1 X3.936 Y-0.4137
G1 X3.9401 Y-0.4258
G1 X3.9451 Y-0.4368
G1 X3.9523 Y-0.4465
G1 X3.9613 Y-0.4546
G1 X3.9718 Y-0.4606
G1 X3.9834 Y-0.4643
G1 X3.9954 Y-0.4656
G1 X4.0371
G1 X4.0454 Y-0.4658
G1 X4.0536 Y-0.4663
G1 X4.0618 Y-0.4674
G1 X4.07 Y-0.4691
G3 X4.0962 Y-0.4567 I0.0043 J0.0246 F10.
G3 X4.0994 Y-0.4447 I-0.0218 J0.0122 F13.5
G1 X4.1045 Y0.4457
G3 X4.1006 Y0.4592 I-0.025 J0.0001
G3 X4.0737 Y0.4701 I-0.0211 J-0.0134 F10.
G1 X4.07 Y0.4691 F13.5
G1 X4.0618 Y0.4674
G1 X4.0536 Y0.4663
G1 X4.0454 Y0.4658
G1 X4.0371 Y0.4656
G1 X4.0244
G1 X4.0183 Y0.4652
G1 X4.0121 Y0.4644
G1 X4.0048 Y0.4629
G1 X3.9971 Y0.4606
G1 X3.9887 Y0.4573
G1 X3.9793 Y0.4527
G1 X3.9699 Y0.4472
G1 X3.9591 Y0.4396
G1 X3.9485 Y0.4308
G1 X3.937 Y0.4196
G1 X3.9251 Y0.4059
G1 X3.9129 Y0.3895
G1 X3.9006 Y0.3697
G1 X3.8878 Y0.3449
G1 X3.875 Y0.3143
G1 X3.8638 Y0.28
G1 X3.855 Y0.2449
G1 X3.8481 Y0.2093
G1 X3.8428 Y0.1735
G1 X3.8387 Y0.1376
G1 X3.8355 Y0.1016
G1 X3.833 Y0.0655
G1 X3.8311 Y0.0293
G1 X3.8296 Y-0.0068
G1 X3.8285 Y-0.043
G1 X3.8277 Y-0.0792
G1 X3.827 Y-0.1153
G1 X3.8265 Y-0.1515
G1 X3.8262 Y-0.1877
G1 X3.8259 Y-0.2239
G1 Y-0.2601
G1 X3.8266 Y-0.2962
G1 X3.8288 Y-0.3324
G1 X3.833 Y-0.3669
G1 X3.8379 Y-0.3909
G1 X3.8438 Y-0.4113
G1 X3.8501 Y-0.428
G1 X3.8521 Y-0.4322
G1 X3.859 Y-0.4433
G1 X3.8682 Y-0.4527
G1 X3.8793 Y-0.4597
G1 X3.8917 Y-0.4641
G1 X3.9048 Y-0.4656
G1 X3.9954
G3 X4.0184 Y-0.4479 I-0.0009 J0.025 F10.
G1 X4.0192 Y-0.4447 F13.5
G1 X4.0195 Y-0.4414
G1 X4.0485 Y0.4397
G1 X4.0484 Y0.4425
G1 X4.0481 Y0.4452
G1 X4.0474 Y0.4479
G3 X4.0244 Y0.4656 I-0.0239 J-0.0074 F10.
G1 X3.9549 F13.5
G1 X3.9445 Y0.465
G1 X3.9367 Y0.464
G1 X3.9285 Y0.4622
G1 X3.9193 Y0.4595
G1 X3.9094 Y0.4556
G1 X3.8989 Y0.4506
G1 X3.8873 Y0.4437
G1 X3.8758 Y0.4356
G1 X3.8627 Y0.4247
G1 X3.8502 Y0.4125
G1 X3.8361 Y0.3965
G1 X3.8228 Y0.3784
G1 X3.8087 Y0.3557
G1 X3.7943 Y0.328
G1 X3.7804 Y0.2946
G1 X3.7691 Y0.2602
G1 X3.76 Y0.2252
G1 X3.7527 Y0.1898
G1 X3.7468 Y0.1541
G1 X3.7422 Y0.1182
G1 X3.7385 Y0.0822
G1 X3.7355 Y0.0461
G1 X3.7332 Y0.01
G1 X3.7314 Y-0.0261
G1 X3.73 Y-0.0623
G1 X3.7288 Y-0.0984
G1 X3.728 Y-0.1346
G1 X3.7274 Y-0.1708
G1 X3.7271 Y-0.207
G1 X3.7275 Y-0.2432
G1 X3.7288 Y-0.2793
G1 X3.7315 Y-0.3154
G1 X3.736 Y-0.3513
G1 X3.7418 Y-0.3811
G1 X3.7483 Y-0.4046
G1 X3.7552 Y-0.4232
G1 X3.7591 Y-0.4317
G1 X3.766 Y-0.443
G1 X3.7752 Y-0.4525
G1 X3.7864 Y-0.4596
G1 X3.7989 Y-0.464
G1 X3.812 Y-0.4656
G1 X3.9048
G3 X3.9278 Y-0.4479 I-0.0009 J0.025 F10.
G1 X3.9285 Y-0.445 F13.5
G1 X3.9289 Y-0.442
G1 X3.979 Y0.4391
G1 Y0.4421
G1 X3.9786 Y0.4451
G1 X3.9779 Y0.4479
G3 X3.9549 Y0.4656 I-0.0239 J-0.0074 F10.
G1 X3.8727 F13.5
G1 X3.8627 Y0.4651
G1 X3.8548 Y0.464
G1 X3.8454 Y0.462
G1 X3.8358 Y0.4591
G1 X3.825 Y0.4549
G1 X3.8136 Y0.4494
G1 X3.8015 Y0.4422
G1 X3.7883 Y0.433
G1 X3.775 Y0.422
G1 X3.7604 Y0.4077
G1 X3.7461 Y0.3913
G1 X3.7311 Y0.371
G1 X3.7156 Y0.3462
G1 X3.7002 Y0.3162
G1 X3.6862 Y0.2828
G1 X3.6747 Y0.2485
G1 X3.6652 Y0.2136
G1 X3.6575 Y0.1782
G1 X3.6512 Y0.1426
G1 X3.646 Y0.1068
G1 X3.6418 Y0.0709
G1 X3.6384 Y0.0348
G1 X3.6357 Y-0.0012
G1 X3.6335 Y-0.0373
G1 X3.6317 Y-0.0735
G1 X3.6304 Y-0.1096
G1 X3.6295 Y-0.1458
G1 X3.6291 Y-0.182
G1 X3.6295 Y-0.2182
G1 X3.6307 Y-0.2543
G1 X3.6331 Y-0.2904
G1 X3.637 Y-0.3264
G1 X3.6429 Y-0.3621
G1 X3.6498 Y-0.391
G1 X3.6566 Y-0.4118
G1 X3.6644 Y-0.4306
G1 X3.6661 Y-0.4339
G1 X3.6732 Y-0.4445
G1 X3.6823 Y-0.4534
G1 X3.6932 Y-0.46
G1 X3.7053 Y-0.4642
G1 X3.718 Y-0.4656
G1 X3.812
G3 X3.8351 Y-0.4479 I-0.0009 J0.025 F10.
G1 X3.8357 Y-0.4451 F13.5
G1 X3.8361 Y-0.4423
G1 X3.8968 Y0.4388
G1 Y0.4419
G1 X3.8964 Y0.445
G1 X3.8957 Y0.4479
G3 X3.8727 Y0.4656 I-0.0239 J-0.0074 F10.
G1 X3.7822 F13.5
G1 X3.7763 Y0.4653
G1 X3.7677 Y0.4641
G1 X3.7581 Y0.4619
G1 X3.7475 Y0.4586
G1 X3.7365 Y0.4542
G1 X3.7239 Y0.448
G1 X3.7115 Y0.4405
G1 X3.6971 Y0.4302
G1 X3.6833 Y0.4186
G1 X3.6677 Y0.403
G1 X3.6527 Y0.3856
G1 X3.6367 Y0.3635
G1 X3.6202 Y0.3365
G1 X3.6039 Y0.3042
G1 X3.5902 Y0.2707
G1 X3.5788 Y0.2364
G1 X3.5692 Y0.2015
G1 X3.5613 Y0.1662
G1 X3.5547 Y0.1307
G1 X3.5492 Y0.0949
G1 X3.5447 Y0.059
G1 X3.5409 Y0.023
G1 X3.5379 Y-0.0131
G1 X3.5355 Y-0.0492
G1 X3.5336 Y-0.0853
G1 X3.5324 Y-0.1214
G1 X3.5318 Y-0.1576
G1 X3.5319 Y-0.1938
G1 X3.5329 Y-0.23
G1 X3.5349 Y-0.2661
G1 X3.5382 Y-0.3021
G1 X3.5431 Y-0.338
G1 X3.5502 Y-0.3735
G1 X3.5575 Y-0.3999
G1 X3.5647 Y-0.4194
G1 X3.5703 Y-0.4316
G1 X3.5772 Y-0.443
G1 X3.5865 Y-0.4525
G1 X3.5976 Y-0.4596
G1 X3.6101 Y-0.464
G1 X3.6233 Y-0.4656
G1 X3.718
G3 X3.741 Y-0.4479 I-0.0009 J0.025 F10.
G1 X3.7417 Y-0.4452 F13.5
G1 X3.742 Y-0.4424
G1 X3.8063 Y0.4387
G1 Y0.4418
G1 X3.806 Y0.4449
G1 X3.8053 Y0.4479
G3 X3.7822 Y0.4656 I-0.0239 J-0.0074 F10.
G1 X3.7 F13.5
G1 X3.6884 Y0.465
G1 X3.6793 Y0.4638
G1 X3.6699 Y0.4618
G1 X3.659 Y0.4585
G1 X3.6477 Y0.4541
G1 X3.6353 Y0.4481
G1 X3.6219 Y0.4402
G1 X3.6081 Y0.4305
G1 X3.5928 Y0.4178
G1 X3.5776 Y0.403
G1 X3.5615 Y0.3845
G1 X3.5445 Y0.3616
G1 X3.5278 Y0.3347
G1 X3.5112 Y0.3025
G1 X3.4971 Y0.2692
G1 X3.4853 Y0.235
G1 X3.4752 Y0.2003
G1 X3.4667 Y0.1651
G1 X3.4596 Y0.1296
G1 X3.4536 Y0.0939
G1 X3.4486 Y0.0581
G1 X3.4444 Y0.0221
G1 X3.4411 Y-0.0139
G1 X3.4384 Y-0.05
G1 X3.4364 Y-0.0861
G1 X3.4352 Y-0.1222
G1 X3.4347 Y-0.1584
G1 X3.435 Y-0.1946
G1 X3.4362 Y-0.2308
G1 X3.4386 Y-0.2669
G1 X3.4423 Y-0.3029
G1 X3.4476 Y-0.3387
G1 X3.4549 Y-0.3741
G1 X3.4627 Y-0.4013
G1 X3.4703 Y-0.4213
G1 X3.4754 Y-0.4321
G1 X3.4823 Y-0.4433
G1 X3.4916 Y-0.4527
G1 X3.5027 Y-0.4597
G1 X3.5151 Y-0.4641
G1 X3.5281 Y-0.4656
G1 X3.6233
G3 X3.6463 Y-0.4479 I-0.0009 J0.025 F10.
G1 X3.647 Y-0.4454 F13.5
G1 X3.6473 Y-0.4427
G1 X3.7241 Y0.4384
G1 Y0.4416
G1 X3.7238 Y0.4448
G1 X3.723 Y0.4479
G3 X3.7 Y0.4656 I-0.0239 J-0.0074 F10.
G1 X3.6096 F13.5
G1 X3.5982 Y0.465
G1 X3.5889 Y0.4638
G1 X3.5793 Y0.4617
G1 X3.5682 Y0.4584
G1 X3.5565 Y0.4538
G1 X3.5438 Y0.4477
G1 X3.5301 Y0.4396
G1 X3.5159 Y0.4296
G1 X3.5003 Y0.4166
G1 X3.4846 Y0.4013
G1 X3.468 Y0.3824
G1 X3.4506 Y0.3589
G1 X3.433 Y0.3305
G1 X3.4164 Y0.2983
G1 X3.4022 Y0.265
G1 X3.3901 Y0.2309
G1 X3.3799 Y0.1962
G1 X3.3711 Y0.1611
G1 X3.3636 Y0.1257
G1 X3.3573 Y0.0901
G1 X3.3521 Y0.0543
G1 X3.3477 Y0.0184
G1 X3.3442 Y-0.0176
G1 X3.3414 Y-0.0537
G1 X3.3395 Y-0.0898
G1 X3.3383 Y-0.126
G1 X3.3379 Y-0.1622
G1 X3.3385 Y-0.1984
G1 X3.34 Y-0.2345
G1 X3.3427 Y-0.2706
G1 X3.3468 Y-0.3065
G1 X3.3524 Y-0.3423
G1 X3.3601 Y-0.3776
G1 X3.3681 Y-0.4041
G1 X3.3759 Y-0.424
G1 X3.3803 Y-0.4328
G1 X3.3873 Y-0.4438
G1 X3.3965 Y-0.453
G1 X3.4075 Y-0.4598
G1 X3.4198 Y-0.4641
G1 X3.4327 Y-0.4656
G1 X3.5281
G3 X3.5512 Y-0.4479 I-0.0009 J0.025 F10.
G1 X3.5518 Y-0.4454 F13.5
G1 X3.5522 Y-0.4429
G1 X3.6336 Y0.4383
G1 X3.6337 Y0.4415
G1 X3.6333 Y0.4448
G1 X3.6326 Y0.4479
G3 X3.6096 Y0.4656 I-0.0239 J-0.0074 F10.
G1 X3.5191 F13.5
G1 X3.5066 Y0.4649
G1 X3.4971 Y0.4637
G1 X3.4874 Y0.4616
G1 X3.4762 Y0.4583
G1 X3.4642 Y0.4536
G1 X3.4515 Y0.4474
G1 X3.4371 Y0.4389
G1 X3.4229 Y0.429
G1 X3.4068 Y0.4156
G1 X3.3909 Y0.4001
G1 X3.3739 Y0.3806
G1 X3.356 Y0.3564
G1 X3.3378 Y0.3272
G1 X3.3212 Y0.295
G1 X3.307 Y0.2618
G1 X3.2948 Y0.2277
G1 X3.2843 Y0.1931
G1 X3.2753 Y0.1581
G1 X3.2676 Y0.1227
G1 X3.2611 Y0.0871
G1 X3.2556 Y0.0513
G1 X3.2511 Y0.0154
G1 X3.2475 Y-0.0206
G1 X3.2447 Y-0.0566
G1 X3.2427 Y-0.0928
G1 X3.2417 Y-0.1289
G1 X3.2414 Y-0.1651
G1 X3.2422 Y-0.2013
G1 X3.2439 Y-0.2374
G1 X3.2468 Y-0.2735
G1 X3.2512 Y-0.3094
G1 X3.2571 Y-0.3451
G1 X3.2651 Y-0.3801
G1 X3.2731 Y-0.406
G1 X3.2811 Y-0.4257
G1 X3.2849 Y-0.4333
G1 X3.2919 Y-0.4441
G1 X3.3011 Y-0.4531
G1 X3.3121 Y-0.4599
G1 X3.3242 Y-0.4641
G1 X3.3371 Y-0.4656
G1 X3.4327
G3 X3.4557 Y-0.4479 I-0.0009 J0.025 F10.
G1 X3.4563 Y-0.4455 F13.5
G1 X3.4567 Y-0.443
G1 X3.5431 Y0.4381
G3 X3.5421 Y0.4479 I-0.0249 J0.0024
G3 X3.5191 Y0.4656 I-0.0239 J-0.0074 F10.
G1 X3.4205 F13.5
G1 X3.4143 Y0.4652
G1 X3.4047 Y0.464
G1 X3.3947 Y0.4619
G1 X3.3836 Y0.4585
G1 X3.3711 Y0.4537
G1 X3.3584 Y0.4475
G1 X3.3437 Y0.4388
G1 X3.3293 Y0.4287
G1 X3.3129 Y0.4151
G1 X3.2968 Y0.3994
G1 X3.2793 Y0.3794
G1 X3.261 Y0.3546
G1 X3.2424 Y0.3247
G1 X3.2258 Y0.2926
G1 X3.2115 Y0.2593
G1 X3.1992 Y0.2253
G1 X3.1885 Y0.1907
G1 X3.1793 Y0.1557
G1 X3.1715 Y0.1204
G1 X3.1648 Y0.0849
G1 X3.1592 Y0.0491
G1 X3.1546 Y0.0132
G1 X3.1509 Y-0.0228
G1 X3.1482 Y-0.0588
G1 X3.1462 Y-0.095
G1 X3.1452 Y-0.1311
G1 X3.1451 Y-0.1673
G1 X3.1459 Y-0.2035
G1 X3.1478 Y-0.2396
G1 X3.151 Y-0.2757
G1 X3.1555 Y-0.3116
G1 X3.1617 Y-0.3472
G1 X3.1697 Y-0.3818
G1 X3.1778 Y-0.4073
G1 X3.1858 Y-0.4268
G1 X3.1893 Y-0.4336
G1 X3.1963 Y-0.4443
G1 X3.2055 Y-0.4533
G1 X3.2164 Y-0.46
G1 X3.2285 Y-0.4641
G1 X3.2413 Y-0.4656
G1 X3.3371
G3 X3.3601 Y-0.4479 I-0.0009 J0.025 F10.
G1 X3.3607 Y-0.4455 F13.5
G1 X3.3611 Y-0.4429
G1 X3.4445 Y0.4382
G1 X3.4446 Y0.4415
G1 X3.4442 Y0.4447
G1 X3.4435 Y0.4479
G3 X3.4205 Y0.4656 I-0.0239 J-0.0074 F10.
G1 X3.33 F13.5
G1 X3.3206 Y0.4651
G1 X3.3111 Y0.4638
G1 X3.3009 Y0.4617
G1 X3.2898 Y0.4583
G1 X3.2771 Y0.4534
G1 X3.2644 Y0.4472
G1 X3.2495 Y0.4384
G1 X3.2349 Y0.4282
G1 X3.2183 Y0.4144
G1 X3.202 Y0.3985
G1 X3.1843 Y0.3782
G1 X3.1657 Y0.353
G1 X3.1467 Y0.3226
G1 X3.1301 Y0.2904
G1 X3.1158 Y0.2572
G1 X3.1033 Y0.2232
G1 X3.0926 Y0.1887
G1 X3.0833 Y0.1537
G1 X3.0754 Y0.1184
G1 X3.0686 Y0.0829
G1 X3.0629 Y0.0472
G1 X3.0583 Y0.0113
G1 X3.0545 Y-0.0247
G1 X3.0517 Y-0.0608
G1 X3.0499 Y-0.0969
G1 X3.0489 Y-0.1331
G1 X3.0488 Y-0.1693
G1 X3.0498 Y-0.2054
G1 X3.0518 Y-0.2416
G1 X3.0551 Y-0.2776
G1 X3.0598 Y-0.3135
G1 X3.0661 Y-0.3491
G1 X3.0742 Y-0.3833
G1 X3.0824 Y-0.4084
G1 X3.0904 Y-0.4278
G1 X3.0935 Y-0.4339
G1 X3.1006 Y-0.4445
G1 X3.1098 Y-0.4534
G1 X3.1207 Y-0.46
G1 X3.1327 Y-0.4642
G1 X3.1454 Y-0.4656
G1 X3.2413
G3 X3.2643 Y-0.4479 I-0.0009 J0.025 F10.
G1 X3.2649 Y-0.4455 F13.5
G1 X3.2653 Y-0.4431
G1 X3.354 Y0.4381
G3 X3.353 Y0.4479 I-0.0249 J0.0025
G3 X3.33 Y0.4656 I-0.0239 J-0.0074 F10.
G1 X3.2396 F13.5
G1 X3.2265 Y0.4649
G1 X3.2169 Y0.4636
G1 X3.2066 Y0.4614
G1 X3.1955 Y0.4581
G1 X3.1826 Y0.4531
G1 X3.1698 Y0.4469
G1 X3.1549 Y0.4381
G1 X3.1401 Y0.4277
G1 X3.1234 Y0.4138
G1 X3.1069 Y0.3978
G1 X3.0889 Y0.3771
G1 X3.0701 Y0.3517
G1 X3.051 Y0.321
G1 X3.0344 Y0.2888
G1 X3.02 Y0.2556
G1 X3.0075 Y0.2217
G1 X2.9966 Y0.1872
G1 X2.9873 Y0.1522
G1 X2.9792 Y0.1169
G1 X2.9724 Y0.0814
G1 X2.9667 Y0.0457
G1 X2.962 Y0.0098
G1 X2.9582 Y-0.0262
G1 X2.9555 Y-0.0623
G1 X2.9536 Y-0.0984
G1 X2.9527 Y-0.1346
G1 Y-0.1708
G1 X2.9537 Y-0.2069
G1 X2.9558 Y-0.243
G1 X2.9592 Y-0.2791
G1 X2.964 Y-0.3149
G1 X2.9704 Y-0.3505
G1 X2.9786 Y-0.3844
G1 X2.9868 Y-0.4092
G1 X2.9949 Y-0.4285
G1 X2.9977 Y-0.434
G1 X3.0048 Y-0.4446
G1 X3.014 Y-0.4535
G1 X3.0248 Y-0.4601
G1 X3.0369 Y-0.4642
G1 X3.0495 Y-0.4656
G1 X3.1454
G3 X3.1685 Y-0.4479 I-0.0009 J0.025 F10.
G1 X3.1691 Y-0.4456 F13.5
G1 X3.1694 Y-0.4432
G1 X3.2636 Y0.4379
G3 X3.2626 Y0.4479 I-0.0249 J0.0027
G3 X3.2396 Y0.4656 I-0.0239 J-0.0074 F10.
G1 X3.1409 F13.5
G1 X3.1322 Y0.4651
G1 X3.1227 Y0.4639
G1 X3.1121 Y0.4616
G1 X3.101 Y0.4583
G1 X3.088 Y0.4532
G1 X3.0751 Y0.447
G1 X3.0602 Y0.4382
G1 X3.0451 Y0.4276
G1 X3.0283 Y0.4137
G1 X3.0116 Y0.3974
G1 X2.9934 Y0.3765
G1 X2.9744 Y0.3508
G1 X2.9553 Y0.3201
G1 X2.9387 Y0.288
G1 X2.9242 Y0.2548
G1 X2.9117 Y0.2209
G1 X2.9008 Y0.1864
G1 X2.8913 Y0.1514
G1 X2.8832 Y0.1162
G1 X2.8763 Y0.0807
G1 X2.8706 Y0.0449
G1 X2.8658 Y0.0091
G1 X2.8621 Y-0.0269
G1 X2.8593 Y-0.063
G1 X2.8574 Y-0.0991
G1 X2.8565 Y-0.1353
G1 Y-0.1715
G1 X2.8576 Y-0.2076
G1 X2.8598 Y-0.2438
G1 X2.8632 Y-0.2798
G1 X2.8681 Y-0.3156
G1 X2.8746 Y-0.3512
G1 X2.8828 Y-0.3849
G1 X2.891 Y-0.4097
G1 X2.8991 Y-0.4289
G1 X2.9018 Y-0.4342
G1 X2.9089 Y-0.4447
G1 X2.9181 Y-0.4535
G1 X2.9289 Y-0.4601
G1 X2.9409 Y-0.4642
G1 X2.9536 Y-0.4656
G1 X3.0495
G3 X3.0725 Y-0.4479 I-0.0009 J0.025 F10.
G1 X3.0731 Y-0.4456 F13.5
G1 X3.0735 Y-0.4431
G1 X3.1649 Y0.438
G3 X3.1639 Y0.4479 I-0.0249 J0.0026
G3 X3.1409 Y0.4656 I-0.0239 J-0.0074 F10.
G1 X3.0505 F13.5
G1 X3.0371 Y0.4649
G1 X3.0275 Y0.4636
G1 X3.0169 Y0.4614
G1 X3.0058 Y0.458
G1 X2.9928 Y0.4529
G1 X2.9798 Y0.4467
G1 X2.9649 Y0.4379
G1 X2.9497 Y0.4272
G1 X2.9329 Y0.4133
G1 X2.9161 Y0.3969
G1 X2.8978 Y0.3759
G1 X2.8786 Y0.35
G1 X2.8595 Y0.3193
G1 X2.8429 Y0.2872
G1 X2.8284 Y0.254
G1 X2.8158 Y0.2201
G1 X2.8048 Y0.1856
G1 X2.7954 Y0.1507
G1 X2.7872 Y0.1155
G1 X2.7803 Y0.0799
G1 X2.7745 Y0.0442
G1 X2.7697 Y0.0084
G1 X2.7659 Y-0.0276
G1 X2.7631 Y-0.0637
G1 X2.7613 Y-0.0998
G1 X2.7604 Y-0.136
G1 X2.7605 Y-0.1722
G1 X2.7616 Y-0.2083
G1 X2.7638 Y-0.2445
G1 X2.7673 Y-0.2805
G1 X2.7722 Y-0.3163
G1 X2.7787 Y-0.3519
G1 X2.787 Y-0.3855
G1 X2.7951 Y-0.4101
G1 X2.8033 Y-0.4293
G1 X2.8059 Y-0.4342
G1 X2.813 Y-0.4448
G1 X2.8221 Y-0.4535
G1 X2.833 Y-0.4601
G1 X2.845 Y-0.4642
G1 X2.8576 Y-0.4656
G1 X2.9536
G3 X2.9766 Y-0.4479 I-0.0009 J0.025 F10.
G1 X2.9772 Y-0.4456 F13.5
G1 X2.9775 Y-0.4433
G1 X3.0744 Y0.4378
G3 X3.0735 Y0.4479 I-0.0249 J0.0027
G3 X3.0505 Y0.4656 I-0.0239 J-0.0074 F10.
G1 X2.9518 F13.5
G1 X2.9421 Y0.4651
G1 X2.9326 Y0.4638
G1 X2.9219 Y0.4615
G1 X2.9107 Y0.4582
G1 X2.8976 Y0.4531
G1 X2.8846 Y0.4468
G1 X2.8696 Y0.438
G1 X2.8543 Y0.4272
G1 X2.8375 Y0.4132
G1 X2.8205 Y0.3967
G1 X2.8021 Y0.3755
G1 X2.7828 Y0.3496
G1 X2.7637 Y0.3188
G1 X2.7471 Y0.2867
G1 X2.7326 Y0.2536
G1 X2.7199 Y0.2197
G1 X2.7089 Y0.1852
G1 X2.6994 Y0.1503
G1 X2.6912 Y0.115
G1 X2.6843 Y0.0795
G1 X2.6784 Y0.0438
G1 X2.6736 Y0.008
G1 X2.6698 Y-0.028
G1 X2.667 Y-0.0641
G1 X2.6652 Y-0.1002
G1 X2.6643 Y-0.1364
G1 X2.6644 Y-0.1726
G1 X2.6655 Y-0.2087
G1 X2.6678 Y-0.2448
G1 X2.6713 Y-0.2809
G1 X2.6762 Y-0.3167
G1 X2.6828 Y-0.3523
G1 X2.6911 Y-0.3858
G1 X2.6992 Y-0.4103
G1 X2.7074 Y-0.4295
G1 X2.7099 Y-0.4343
G1 X2.717 Y-0.4448
G1 X2.7262 Y-0.4536
G1 X2.737 Y-0.4601
G1 X2.749 Y-0.4642
G1 X2.7616 Y-0.4656
G1 X2.8576
G3 X2.8806 Y-0.4479 I-0.0009 J0.025 F10.
G1 X2.8812 Y-0.4456 F13.5
G1 X2.8816 Y-0.4432
G1 X2.9758 Y0.4379
G3 X2.9748 Y0.4479 I-0.0249 J0.0027
G3 X2.9518 Y0.4656 I-0.0239 J-0.0074 F10.
G1 X2.8531 F13.5
G1 X2.8469 Y0.4652
G1 X2.8373 Y0.464
G1 X2.8265 Y0.4617
G1 X2.8154 Y0.4583
G1 X2.8023 Y0.4532
G1 X2.7891 Y0.4469
G1 X2.7742 Y0.4381
G1 X2.7587 Y0.4272
G1 X2.7419 Y0.4132
G1 X2.7249 Y0.3966
G1 X2.7063 Y0.3754
G1 X2.687 Y0.3493
G1 X2.6679 Y0.3185
G1 X2.6512 Y0.2864
G1 X2.6367 Y0.2533
G1 X2.624 Y0.2194
G1 X2.613 Y0.1849
G1 X2.6035 Y0.15
G1 X2.5953 Y0.1148
G1 X2.5883 Y0.0793
G1 X2.5824 Y0.0436
G1 X2.5776 Y0.0077
G1 X2.5738 Y-0.0282
G1 X2.571 Y-0.0643
G1 X2.5691 Y-0.1004
G1 X2.5682 Y-0.1366
G1 X2.5683 Y-0.1728
G1 X2.5695 Y-0.209
G1 X2.5718 Y-0.2451
G1 X2.5753 Y-0.2811
G1 X2.5802 Y-0.3169
G1 X2.5868 Y-0.3525
G1 X2.5951 Y-0.3859
G1 X2.6033 Y-0.4104
G1 X2.6115 Y-0.4296
G1 X2.6139 Y-0.4343
G1 X2.621 Y-0.4448
G1 X2.6302 Y-0.4536
G1 X2.641 Y-0.4601
G1 X2.653 Y-0.4642
G1 X2.6656 Y-0.4656
G1 X2.7616
G3 X2.7846 Y-0.4479 I-0.0009 J0.025 F10.
G1 X2.7852 Y-0.4456 F13.5
G1 X2.7856 Y-0.4431
G1 X2.8771 Y0.438
G3 X2.8761 Y0.4479 I-0.0249 J0.0026
G3 X2.8531 Y0.4656 I-0.0239 J-0.0074 F10.
G1 X2.7627 F13.5
G1 X2.751 Y0.465
G1 X2.7415 Y0.4637
G1 X2.7307 Y0.4614
G1 X2.7196 Y0.4581
G1 X2.7065 Y0.453
G1 X2.6933 Y0.4466
G1 X2.6784 Y0.4378
G1 X2.6629 Y0.4269
G1 X2.6461 Y0.4129
G1 X2.629 Y0.3963
G1 X2.6104 Y0.375
G1 X2.5911 Y0.3489
G1 X2.572 Y0.3182
G1 X2.5553 Y0.286
G1 X2.5407 Y0.2529
G1 X2.5281 Y0.219
G1 X2.517 Y0.1846
G1 X2.5075 Y0.1497
G1 X2.4992 Y0.1144
G1 X2.4922 Y0.079
G1 X2.4863 Y0.0433
G1 X2.4815 Y0.0074
G1 X2.4777 Y-0.0286
G1 X2.4749 Y-0.0647
G1 X2.4731 Y-0.1008
G1 X2.4722 Y-0.137
G1 X2.4723 Y-0.1732
G1 X2.4735 Y-0.2093
G1 X2.4758 Y-0.2454
G1 X2.4793 Y-0.2814
G1 X2.4843 Y-0.3173
G1 X2.4909 Y-0.3528
G1 X2.4992 Y-0.3862
G1 X2.5073 Y-0.4106
G1 X2.5155 Y-0.4297
G1 X2.5179 Y-0.4344
G1 X2.525 Y-0.4449
G1 X2.5342 Y-0.4536
G1 X2.545 Y-0.4601
G1 X2.557 Y-0.4642
G1 X2.5696 Y-0.4656
G1 X2.6656
G3 X2.6886 Y-0.4479 I-0.0009 J0.025 F10.
G1 X2.6892 Y-0.4456 F13.5
G1 X2.6896 Y-0.4433
G1 X2.7867 Y0.4378
G3 X2.7857 Y0.4479 I-0.0248 J0.0027
G3 X2.7627 Y0.4656 I-0.0239 J-0.0074 F10.
G1 X2.664 F13.5
G1 X2.6556 Y0.4651
G1 X2.6461 Y0.4639
G1 X2.6352 Y0.4616
G1 X2.6241 Y0.4582
G1 X2.6109 Y0.4531
G1 X2.5977 Y0.4467
G1 X2.5828 Y0.4379
G1 X2.5672 Y0.427
G1 X2.5504 Y0.413
G1 X2.5332 Y0.3962
G1 X2.5146 Y0.3749
G1 X2.4952 Y0.3487
G1 X2.4761 Y0.318
G1 X2.4594 Y0.2859
G1 X2.4448 Y0.2528
G1 X2.4321 Y0.2189
G1 X2.4211 Y0.1844
G1 X2.4115 Y0.1495
G1 X2.4033 Y0.1143
G1 X2.3962 Y0.0788
G1 X2.3903 Y0.0431
G1 X2.3855 Y0.0072
G1 X2.3817 Y-0.0287
G1 X2.3789 Y-0.0648
G1 X2.377 Y-0.1009
G1 X2.3761 Y-0.1371
G1 X2.3763 Y-0.1733
G1 X2.3768 Y-0.1913
G1 X2.3779 Y-0.2008
G1 X2.3806 Y-0.2099
G1 X2.3846 Y-0.2186
G1 X2.5171 Y-0.4481
G1 X2.5223 Y-0.4563
G1 X2.5242 Y-0.4584
G1 X2.5263 Y-0.4602
G1 X2.5283 Y-0.4617
G1 X2.5304 Y-0.4628
G1 X2.5325 Y-0.4638
G1 X2.5346 Y-0.4645
G1 X2.5376 Y-0.4652
G1 X2.5407 Y-0.4655
G1 X2.5696 Y-0.4656
G3 X2.5926 Y-0.4479 I-0.0009 J0.025 F10.
G1 X2.5932 Y-0.4456 F13.5
G1 X2.5936 Y-0.4432
G1 X2.688 Y0.4379
G3 X2.687 Y0.4479 I-0.0249 J0.0027
G3 X2.664 Y0.4656 I-0.0239 J-0.0074 F10.
G1 X2.5653 F13.5
G1 X2.5594 Y0.4653
G1 X2.5497 Y0.4639
G1 X2.548 Y0.4636
G1 X2.5365 Y0.4597
G1 X2.5261 Y0.4537
G1 X2.5171 Y0.4455
G1 X2.51 Y0.4358
G3 X2.5138 Y0.407 I0.0221 J-0.0117 F10.
G3 X2.5435 Y0.4018 I0.0183 J0.017 F13.5
G1 X2.5759 Y0.4183
G3 X2.5884 Y0.4479 I-0.0114 J0.0223
G3 X2.5653 Y0.4656 I-0.0239 J-0.0074 F10.
G1 X2.5407 Y0.4655 F13.5
G1 X2.5376 Y0.4652
G1 X2.5346 Y0.4645
G1 X2.5325 Y0.4638
G1 X2.5304 Y0.4628
G1 X2.5283 Y0.4617
G1 X2.5263 Y0.4602
G1 X2.5242 Y0.4584
G1 X2.5223 Y0.4563
G1 X2.5171 Y0.4481
G1 X2.3463 Y0.1521
G1 X2.3311 Y0.1225
G1 X2.3188 Y0.093
G1 X2.3077 Y0.0586
G1 X2.2991 Y0.0234
G1 X2.2925 Y-0.0121
G1 X2.2901 Y-0.0304
G1 X2.2897 Y-0.0431
G1 X2.2922 Y-0.0557
G1 X2.2973 Y-0.0674
G3 X2.3241 Y-0.0785 I0.0212 J0.0132 F10.
G3 X2.3428 Y-0.0603 I-0.0056 J0.0244 F13.5
G1 X2.3917 Y0.1327
G3 X2.373 Y0.1632 I-0.0242 J0.0061
G3 X2.3463 Y0.1521 I-0.0056 J-0.0244 F10.
G1 X2.2656 Y0.0123 F13.5
G1 X2.2645 Y0.0103
G1 X2.2637 Y0.0082
G1 X2.2626 Y0.0041
G1 X2.2623 Y0.
G1 X2.2626 Y-0.0041
G1 X2.2637 Y-0.0082
G1 X2.2645 Y-0.0103
G1 X2.2656 Y-0.0123
G1 X2.3846 Y-0.2186
G1 X2.3927 Y-0.2266 F10.
G1 X2.4119 Y-0.2301
G1 X2.4173 Y-0.2311 F13.5
G1 X4.0865 Y-0.3396
G1 X4.144 Y-0.3581
G1 X4.188 Y-0.3823
G1 X4.2321 Y-0.4234
G1 X4.2624 Y-0.4645
G1 X4.2847 Y-0.5138
G1 X4.2952 Y-0.5714
G1 X4.2899 Y-0.6454
G1 X4.266 Y-0.7111
G1 X4.179 Y-0.8674
G1 X4.0945 Y-0.9907
G1 X3.9736 Y-1.1304
G1 X3.848 Y-1.2488
G1 X3.722 Y-1.3442
G1 X3.5685 Y-1.4379
G1 X3.4122 Y-1.5122
G1 X3.2642 Y-1.5639
G1 X3.0916 Y-1.6056
G1 X2.9271 Y-1.6278
G1 X2.7627 Y-1.6312
G1 X2.5736 Y-1.6166
G1 X2.4173 Y-1.5886
G1 X2.2611 Y-1.5425
G1 X2.146 Y-1.4966
G2 X2.0876 Y-1.41 I0.0399 J0.09
G1 X2.0867 Y-1.3606
G3 X2.0775 Y-1.3279 I-0.0623 J0.0001
G3 X2.0626 Y-1.3113 I-0.0531 J-0.0326 F10.
G1 X2.0556 Y-1.3066
G1 X2.0391 Y-1.2978 F13.5
G1 X2.0309 Y-1.2933
G1 X2.0227 Y-1.2885
G1 X2.0062 Y-1.2776
G1 X1.9213 Y-1.2209
G1 X1.9158 Y-1.2171
G1 X1.903 Y-1.2091
G1 X1.8857 Y-1.2001
G1 X1.8634 Y-1.1906
G1 X1.834 Y-1.1808
G1 X1.7989 Y-1.1722
G1 X1.7632 Y-1.166
G1 X1.7273 Y-1.1616
G1 X1.6913 Y-1.1584
G1 X1.6551 Y-1.1561
G1 X1.619 Y-1.1544
G1 X1.5828 Y-1.1532
G1 X1.5467 Y-1.1523
G1 X1.5105 Y-1.1517
G1 X1.4743 Y-1.1512
G1 X1.4381 Y-1.1509
G1 X1.402 Y-1.1506
G1 X1.3658 Y-1.1505
G1 X1.2934 Y-1.1502
G1 X1.1849 Y-1.1501
G1 X0.9678 Y-1.15
G1 X-0.0453
G1 X-2.0353
G1 X-3.6997
G1 X-3.7359 Y-1.1498
G1 X-3.7711 Y-1.1414
G1 X-3.8025 Y-1.1235
G1 X-3.829 Y-1.0988
G1 X-3.8505 Y-1.0697
G1 X-3.8676 Y-1.0379
G1 X-3.881 Y-1.0043
G1 X-3.8914 Y-0.9696
G1 X-3.8995 Y-0.9343
G1 X-3.9056 Y-0.8987
G1 X-3.9103 Y-0.8628
G1 X-3.9139 Y-0.8268
G1 X-3.9166 Y-0.7907
G1 X-3.9187 Y-0.7546
G1 X-3.9202 Y-0.7184
G1 X-3.9214 Y-0.6823
G1 X-3.9223 Y-0.6461
G1 X-3.923 Y-0.6099
G1 X-3.9235 Y-0.5738
G1 X-3.9236 Y-0.5607
G1 X-3.925 Y-0.5485
G1 X-3.9289 Y-0.5369
G1 X-3.9352 Y-0.5264
G1 X-3.9435 Y-0.5174
G1 X-3.9467 Y-0.5146
G1 X-3.9638 Y-0.4974
G1 X-3.9714 Y-0.4891
G1 X-4.0207 Y-0.4313
G1 X-4.0326 Y-0.4152
G1 X-4.0353 Y-0.4113
G1 X-4.0454 Y-0.4034 F10.
G1 X-4.0632 Y-0.4008
G1 X-4.1522 Y-0.3883 F13.5
G2 X-4.2324 Y-0.3247 I0.0121 J0.0977
G1 X-4.2595 Y-0.2425
G1 X-4.2853 Y-0.1274
G1 X-4.2959 Y-0.0041
G1 X-4.2873 Y0.111
G1 X-4.2696 Y0.2014
G1 X-4.2677 Y0.2096
G2 X-4.2098 Y0.2768 I0.0955 J-0.0238
G1 X-4.1036 Y0.3168
G1 X-4.1029 Y0.317 F10.
G1 X-4.0807 Y0.3375
G1 X-4.0684 Y0.3576 F13.5
G1 X-4.0371 Y0.4086
G1 X-4.0326 Y0.4152
G1 X-4.0207 Y0.4313
G1 X-4.0064 Y0.4481
G1 X-3.9943 Y0.4637
G1 X-3.9857 Y0.4769
G1 X-3.9768 Y0.4934
G1 X-3.9674 Y0.5147
G1 X-3.9577 Y0.5426
G1 X-3.9485 Y0.5777
G1 X-3.942 Y0.6132
G1 X-3.9373 Y0.6491
G1 X-3.9339 Y0.6851
G1 X-3.9314 Y0.7212
G1 X-3.9296 Y0.7574
G1 X-3.9284 Y0.7935
G1 X-3.9274 Y0.8297
G1 X-3.9262 Y0.8659
G1 X-3.9157 Y0.9005
G1 X-3.8965 Y0.9311
G1 X-3.871 Y0.9568
G1 X-3.8414 Y0.9776
G1 X-3.8092 Y0.9942
G1 X-3.7755 Y1.0072
G1 X-3.7407 Y1.0173
G1 X-3.7054 Y1.0251
G1 X-3.6697 Y1.0311
G1 X-3.6338 Y1.0356
G1 X-3.5978 Y1.0391
G1 X-3.5617 Y1.0418
G1 X-3.5256 Y1.0438
G1 X-3.4894 Y1.0453
G1 X-3.4533 Y1.0465
G1 X-3.4171 Y1.0473
G1 X-3.3809 Y1.048
G1 X-3.3448 Y1.0485
G1 X-3.3086 Y1.0489
G1 X-3.2724 Y1.0491
G1 X-3.2362 Y1.0494
G1 X-3.1638 Y1.0496
G1 X-3.0915 Y1.0498
G1 X-2.9468 Y1.0499
G1 X-2.5849 Y1.05
G1 X-2.4402
G1 X-0.4502
G1 X1.5398
G1 X1.6987
G1 X1.7103 Y1.0512
G1 X1.7213 Y1.0546
G1 X1.7315 Y1.0601
G1 X1.7404 Y1.0676
G1 X1.7617 Y1.0893
G1 X1.7678 Y1.0953
G1 X1.7787 Y1.1058
G1 X1.7842 Y1.111
G1 X1.8474 Y1.1635
G1 X1.8557 Y1.1798 F10.
G1 X1.8558 Y1.1924
G1 X1.8567 Y1.2866 F13.5
G2 X1.9076 Y1.3745 I0.0984 J0.0017
G1 X2.1213 Y1.4862
G1 X2.294 Y1.5539
G1 X2.4502 Y1.5958
G1 X2.5982 Y1.6183
G1 X2.776 Y1.6323
G1 X2.96 Y1.6247
G1 X3.1245 Y1.5991
G1 X3.2971 Y1.5537
G1 X3.4394 Y1.5004
G1 X3.5847 Y1.4295
G2 X3.6408 Y1.3442 I-0.0423 J-0.0889
G1 X3.6447 Y1.2702
G3 X3.6491 Y1.2488 I0.0623 J0.0017
G3 X3.6671 Y1.224 I0.0579 J0.0231 F10.
G1 X3.7666 Y1.1469 F13.5
G1 X3.7769 Y1.1387
G1 X3.7857 Y1.1304
G1 X3.7987 Y1.1182
G1 X3.8809 Y1.0395
G1 X3.8884 Y1.0318
G1 X3.9056 Y1.0124
G1 X3.9101 Y1.0071
G1 X3.9729 Y0.9331
G1 X3.9797 Y0.9249
G1 X3.9933 Y0.9085
G1 X3.996 Y0.9045
G1 X4.016 Y0.8753
G1 X4.0289 Y0.8662 F10.
G1 X4.044 Y0.8651
G1 X4.144 Y0.858 F13.5
G2 X4.2241 Y0.8016 I-0.0091 J-0.098
G1 X4.2838 Y0.6678
G1 X4.2959 Y0.6043
G1 X4.2952 Y-0.6125
G1 X4.2805 Y-0.6783
G1 X4.2392 Y-0.7605
G1 X4.1769 Y-0.8705
G1 X4.0876 Y-0.9989
G1 X3.9714 Y-1.1326
G1 X3.8426 Y-1.2538
G1 X3.7165 Y-1.3477
G1 X3.5685 Y-1.4379
G1 X3.4122 Y-1.5122
G1 X3.2642 Y-1.564
G1 X3.0916 Y-1.6056
G1 X2.9271 Y-1.6278
G1 X2.7627 Y-1.6312
G1 X2.5736 Y-1.6166
G1 X2.4173 Y-1.5887
G1 X2.2529 Y-1.5399
G1 X2.1049 Y-1.4794
G2 X2.0668 Y-1.4511 I0.0379 J0.0909
G1 X1.9861 Y-1.3606
G1 X1.9335 Y-1.2418
G1 X1.9278 Y-1.2291 F10.
G1 X1.9158 Y-1.2171
G1 X1.8977 Y-1.2044 F13.5
G1 X1.8911 Y-1.1998
G1 X1.8089 Y-1.1315
G1 X1.7943 Y-1.1205
G1 X1.7802 Y-1.1116
G1 X1.762 Y-1.1021
G1 X1.7389 Y-1.0923
G1 X1.7085 Y-1.0821
G1 X1.6733 Y-1.0734
G1 X1.6377 Y-1.0672
G1 X1.6018 Y-1.0626
G1 X1.5658 Y-1.0592
G1 X1.5297 Y-1.0567
G1 X1.4935 Y-1.0549
G1 X1.4574 Y-1.0536
G1 X1.4212 Y-1.0527
G1 X1.385 Y-1.0519
G1 X1.3489 Y-1.0514
G1 X1.3127 Y-1.051
G1 X1.2765 Y-1.0508
G1 X1.2403 Y-1.0506
G1 X1.2041 Y-1.0504
G1 X1.1318 Y-1.0502
G1 X1.0232 Y-1.0501
G1 X0.77 Y-1.05
G1 X-0.1708
G1 X-2.1608
G1 X-3.6081
G1 X-3.6442 Y-1.0487
G1 X-3.6786 Y-1.0375
G1 X-3.7088 Y-1.0176
G1 X-3.734 Y-0.9916
G1 X-3.7545 Y-0.9618
G1 X-3.7706 Y-0.9294
G1 X-3.7833 Y-0.8955
G1 X-3.7932 Y-0.8607
G1 X-3.8007 Y-0.8253
G1 X-3.8066 Y-0.7896
G1 X-3.811 Y-0.7537
G1 X-3.8144 Y-0.7177
G1 X-3.817 Y-0.6816
G1 X-3.8189 Y-0.6455
G1 X-3.8194 Y-0.6395
G1 X-3.8212 Y-0.6286
G1 X-3.8251 Y-0.6183
G1 X-3.8308 Y-0.6088
G1 X-3.8382 Y-0.6007
G1 X-3.8471 Y-0.594
G1 X-3.8572 Y-0.5878
G1 X-3.8645 Y-0.583
G1 X-3.8809 Y-0.5708
G1 X-3.8901 Y-0.5632
G1 X-3.9385 Y-0.5218
G1 X-3.9435 Y-0.5174
G1 X-3.9593 Y-0.5118 F10.
G1 X-3.9729 Y-0.5156
G1 X-4.0258 Y-0.5303 F13.5
G2 X-4.1358 Y-0.4941 I-0.0301 J0.0937
G1 X-4.2082 Y-0.3741
G1 X-4.2535 Y-0.265
G1 X-4.2853 Y-0.1274
G1 X-4.2959 Y-0.0041
G1 X-4.2869 Y0.1192
G1 X-4.2635 Y0.2261
G1 X-4.2437 Y0.2919
G1 X-4.2198 Y0.3494
G2 X-4.1522 Y0.4056 I0.0901 J-0.0396
G1 X-4.0323 Y0.4317
G1 X-4.0289 Y0.4324 F10.
G1 X-4.0064 Y0.4481
G1 X-3.9713 Y0.4892 F13.5
G1 X-3.9638 Y0.4974
G1 X-3.9467 Y0.5146
G1 X-3.9382 Y0.5221
G1 X-3.922 Y0.5359
G1 X-3.9162 Y0.5414
G1 X-3.9076 Y0.5509
G1 X-3.8989 Y0.5623
G1 X-3.8894 Y0.577
G1 X-3.8797 Y0.595
G1 X-3.8696 Y0.6182
G1 X-3.8591 Y0.6485
G1 X-3.8501 Y0.6836
G1 X-3.8435 Y0.7192
G1 X-3.8386 Y0.755
G1 X-3.829 Y0.7899
G1 X-3.8112 Y0.8214
G1 X-3.787 Y0.8483
G1 X-3.7584 Y0.8704
G1 X-3.7269 Y0.8882
G1 X-3.6936 Y0.9023
G1 X-3.6591 Y0.9134
G1 X-3.624 Y0.9219
G1 X-3.5884 Y0.9286
G1 X-3.5526 Y0.9337
G1 X-3.5166 Y0.9376
G1 X-3.4806 Y0.9406
G1 X-3.4444 Y0.9428
G1 X-3.4083 Y0.9446
G1 X-3.3721 Y0.9459
G1 X-3.336 Y0.9469
G1 X-3.2998 Y0.9476
G1 X-3.2636 Y0.9482
G1 X-3.2274 Y0.9487
G1 X-3.1913 Y0.949
G1 X-3.1551 Y0.9492
G1 X-3.1189 Y0.9494
G1 X-3.0465 Y0.9497
G1 X-2.938 Y0.9499
G1 X-2.7571 Y0.95
G1 X-2.1782
G1 X-0.1882
G1 X1.5847
G1 X1.6055
G1 X1.6185 Y0.9515
G1 X1.6308 Y0.9559
G1 X1.6419 Y0.9629
G1 X1.6511 Y0.9722
G1 X1.6592 Y0.9825
G1 X1.6609 Y0.9845
G1 X1.6736 Y0.9989
G1 X1.6773 Y1.003
G1 X1.7404 Y1.0676
G1 X1.7476 Y1.0893 F10.
G1 X1.7484 Y1.0973
G1 X1.7608 Y1.2209 F13.5
G2 X1.8029 Y1.2949 I0.0982 J-0.0068
G1 X1.9733 Y1.4108
G1 X2.1213 Y1.4862
G1 X2.294 Y1.5539
G1 X2.4502 Y1.5958
G1 X2.59 Y1.6174
G1 X2.7791 Y1.6323
G1 X2.96 Y1.6247
G1 X3.1245 Y1.599
G1 X3.2971 Y1.5537
G1 X3.4394 Y1.5004
G1 X3.6041 Y1.4182
G1 X3.7658 Y1.313
G1 X3.8645 Y1.2351
G1 X4.0044 Y1.0976
G1 X4.1126 Y0.966
G1 X4.1991 Y0.8345
G1 X4.2773 Y0.6865
G1 X4.292 Y0.6332
G1 X4.2959 Y0.5796
G1 X4.2949 Y-0.6146
G1 X4.2827 Y-0.67
G1 X4.2571 Y-0.7276
G1 X4.179 Y-0.8674
G1 X4.0945 Y-0.9907
G1 X3.9736 Y-1.1304
G1 X3.848 Y-1.2488
G1 X3.722 Y-1.3442
G1 X3.5685 Y-1.438
G1 X3.4122 Y-1.5122
G1 X3.256 Y-1.5662
G1 X3.0916 Y-1.6056
G1 X2.9271 Y-1.6278
G1 X2.7627 Y-1.6312
G1 X2.5736 Y-1.6166
G1 X2.4173 Y-1.5886
G1 X2.2529 Y-1.5399
G1 X2.0802 Y-1.4668
G1 X1.9487 Y-1.3956
G1 X1.8844 Y-1.3524
G2 X1.8436 Y-1.2866 I0.0566 J0.0805
G1 X1.8256 Y-1.1572
G1 X1.8253 Y-1.155 F10.
G1 X1.8089 Y-1.1315
G1 X1.7842 Y-1.111 F13.5
G1 X1.7787 Y-1.1058
G1 X1.7678 Y-1.0953
G1 X1.7617 Y-1.0893
G1 X1.7215 Y-1.0482
G1 X1.7074 Y-1.0351
G1 X1.6961 Y-1.0262
G1 X1.6821 Y-1.0169
G1 X1.6644 Y-1.0071
G1 X1.6418 Y-0.9969
G1 X1.6127 Y-0.9864
G1 X1.5778 Y-0.9769
G1 X1.5423 Y-0.9699
G1 X1.5065 Y-0.9648
G1 X1.4705 Y-0.9609
G1 X1.4345 Y-0.9581
G1 X1.3983 Y-0.956
G1 X1.3622 Y-0.9545
G1 X1.326 Y-0.9533
G1 X1.2898 Y-0.9524
G1 X1.2537 Y-0.9518
G1 X1.2175 Y-0.9513
G1 X1.1813 Y-0.951
G1 X1.1451 Y-0.9507
G1 X1.109 Y-0.9505
G1 X1.0366 Y-0.9503
G1 X0.928 Y-0.9501
G1 X0.7471 Y-0.95
G1 X-0.2298
G1 X-2.2198
G1 X-3.4861
G1 X-3.5223
G1 X-3.5581 Y-0.9448
G1 X-3.591 Y-0.9297
G1 X-3.6193 Y-0.9071
G1 X-3.6425 Y-0.8793
G1 X-3.6611 Y-0.8483
G1 X-3.6758 Y-0.8152
G1 X-3.6873 Y-0.7809
G1 X-3.6962 Y-0.7459
G1 X-3.7033 Y-0.7104
G1 X-3.7068 Y-0.6939
G1 X-3.7101 Y-0.6831
G1 X-3.7155 Y-0.6732
G1 X-3.7228 Y-0.6644
G1 X-3.7315 Y-0.6573
G1 X-3.7415 Y-0.652
G1 X-3.7494 Y-0.6487
G1 X-3.7576 Y-0.6453
G1 X-3.7749 Y-0.6372
G1 X-3.7822 Y-0.6337
G1 X-3.8234 Y-0.6086
G1 X-3.8471 Y-0.594
G1 X-3.8727 Y-0.5908 F10.
G1 X-3.8778
G1 X-4.0125 F13.5
G2 X-4.0865 Y-0.5543 I0.0025 J0.0984
G1 X-4.1556 Y-0.4645
G1 X-4.2098 Y-0.3703
G1 X-4.2535 Y-0.265
G1 X-4.2853 Y-0.1274
G1 X-4.2959 Y-0.0041
G1 X-4.2865 Y0.1192
G1 X-4.2677 Y0.2096
G1 X-4.2471 Y0.2836
G1 X-4.2001 Y0.3905
G1 X-4.1391 Y0.4892
G2 X-4.0454 Y0.5344 I0.0832 J-0.0526
G1 X-3.9549 Y0.5226
G1 X-3.9503 Y0.524
G1 X-3.9302 Y0.5303 F10.
G1 X-3.922 Y0.5359
G1 X-3.8891 Y0.564 F13.5
G1 X-3.8809 Y0.5708
G1 X-3.8645 Y0.583
G1 X-3.8572 Y0.5878
G1 X-3.848 Y0.5935
G1 X-3.8389 Y0.5997
G1 X-3.831 Y0.606
G1 X-3.8223 Y0.6144
G1 X-3.813 Y0.6248
G1 X-3.8033 Y0.6375
G1 X-3.7838 Y0.668
G1 X-3.7648 Y0.6987
G1 X-3.7418 Y0.7267
G1 X-3.715 Y0.7509
G1 X-3.6851 Y0.7713
G1 X-3.653 Y0.788
G1 X-3.6194 Y0.8015
G1 X-3.5848 Y0.8122
G1 X-3.5497 Y0.8207
G1 X-3.5141 Y0.8273
G1 X-3.4783 Y0.8325
G1 X-3.4423 Y0.8366
G1 X-3.4063 Y0.8397
G1 X-3.3702 Y0.8421
G1 X-3.334 Y0.844
G1 X-3.2979 Y0.8454
G1 X-3.2617 Y0.8465
G1 X-3.2256 Y0.8473
G1 X-3.1894 Y0.848
G1 X-3.1532 Y0.8484
G1 X-3.117 Y0.8488
G1 X-3.0808 Y0.8491
G1 X-3.0447 Y0.8493
G1 X-2.9723 Y0.8496
G1 X-2.8999 Y0.8498
G1 X-2.7914 Y0.8499
G1 X-2.5381 Y0.85
G1 X-1.9592
G1 X0.0308
G1 X1.5143
G1 X1.5276 Y0.8503
G1 X1.54 Y0.852
G1 X1.5517 Y0.8562
G1 X1.5622 Y0.8628
G1 X1.5711 Y0.8714
G1 X1.5746 Y0.8756
G1 X1.6007 Y0.9085
G1 X1.6511 Y0.9722
G1 X1.6557 Y0.9907 F10.
G1 X1.6539 Y1.0024
G1 X1.6393 Y1.0976 F13.5
G2 X1.6759 Y1.1934 I0.0968 J0.0179
G1 X1.8418 Y1.3239
G1 X1.9816 Y1.4151
G1 X2.1213 Y1.4862
G1 X2.294 Y1.5539
G1 X2.4502 Y1.5958
G1 X2.59 Y1.6174
G1 X2.7791 Y1.6323
G1 X2.96 Y1.6247
G1 X3.1245 Y1.5991
G1 X3.2971 Y1.5537
G1 X3.4394 Y1.5004
G1 X3.6041 Y1.4182
G1 X3.7658 Y1.313
G1 X3.8727 Y1.2277
G1 X4.0042 Y1.0963
G1 X4.1126 Y0.966
G1 X4.1991 Y0.8345
G1 X4.2773 Y0.6865
G1 X4.292 Y0.6332
G1 X4.2959 Y0.5796
G1 X4.2949 Y-0.6146
G1 X4.2827 Y-0.67
G1 X4.257 Y-0.7276
G1 X4.1789 Y-0.8674
G1 X4.0945 Y-0.9907
G1 X3.9736 Y-1.1304
G1 X3.848 Y-1.2488
G1 X3.7329 Y-1.3364
G1 X3.5685 Y-1.4379
G1 X3.4122 Y-1.5122
G1 X3.2642 Y-1.5639
G1 X3.0916 Y-1.6056
G1 X2.9271 Y-1.6278
G1 X2.7627 Y-1.6312
G1 X2.5736 Y-1.6166
G1 X2.4173 Y-1.5886
G1 X2.2529 Y-1.5399
G1 X2.0802 Y-1.4668
G1 X1.9487 Y-1.3954
G1 X1.813 Y-1.3031
G2 X1.7724 Y-1.2455 I0.0548 J0.0818
G1 X1.7348 Y-1.0757
G1 X1.7323 Y-1.0647 F10.
G1 X1.7215 Y-1.0482
G1 X1.6773 Y-1.003 F13.5
G1 X1.6736 Y-0.9989
G1 X1.6609 Y-0.9845
G1 X1.6592 Y-0.9825
G1 X1.6397 Y-0.9578
G1 X1.6327 Y-0.9498
G1 X1.6241 Y-0.9414
G1 X1.6128 Y-0.9321
G1 X1.5991 Y-0.9225
G1 X1.5816 Y-0.9122
G1 X1.56 Y-0.9018
G1 X1.5321 Y-0.891
G1 X1.4974 Y-0.8807
G1 X1.462 Y-0.873
G1 X1.4263 Y-0.8673
G1 X1.3904 Y-0.8629
G1 X1.3544 Y-0.8597
G1 X1.3183 Y-0.8573
G1 X1.2821 Y-0.8555
G1 X1.246 Y-0.8541
G1 X1.2098 Y-0.8531
G1 X1.1736 Y-0.8523
G1 X1.1375 Y-0.8517
G1 X1.1013 Y-0.8513
G1 X1.0651 Y-0.851
G1 X1.0289 Y-0.8507
G1 X0.9927 Y-0.8505
G1 X0.9204 Y-0.8503
G1 X0.8118 Y-0.8501
G1 X0.6309 Y-0.85
G1 X-0.3098
G1 X-2.2998
G1 X-3.4215
G1 X-3.4573 Y-0.8449
G1 X-3.4902 Y-0.8299
G1 X-3.5185 Y-0.8073
G1 X-3.5418 Y-0.7797
G1 X-3.561 Y-0.749
G1 X-3.5745 Y-0.7242
G1 X-3.5814 Y-0.7141
G1 X-3.5902 Y-0.7057
G1 X-3.6007 Y-0.6993
G1 X-3.6122 Y-0.6952
G1 X-3.6507 Y-0.6859
G1 X-3.6754 Y-0.6791
G1 X-3.6778 Y-0.6783
G1 X-3.6836 Y-0.676
G1 X-3.7415 Y-0.652
G1 X-3.7576 Y-0.6515 F10.
G1 X-3.7708 Y-0.6584
G1 X-3.8398 Y-0.6945 F13.5
G2 X-3.9467 Y-0.6848 I-0.0461 J0.087
G1 X-4.0289 Y-0.6123
G1 X-4.0993 Y-0.5385
G1 X-4.1556 Y-0.4645
G1 X-4.2098 Y-0.3703
G1 X-4.2536 Y-0.265
G1 X-4.2857 Y-0.1274
G1 X-4.2959 Y-0.0041
G1 X-4.2869 Y0.1192
G1 X-4.2505 Y0.2754
G1 X-4.2001 Y0.3905
G1 X-4.1386 Y0.4892
G1 X-4.0865 Y0.5543
G2 X-4.0042 Y0.5907 I0.0765 J-0.0619
G1 X-3.8777 Y0.5859
G1 X-3.8727 Y0.5857 F10.
G1 X-3.848 Y0.5935
G1 X-3.7901 Y0.6289 F13.5
G1 X-3.7822 Y0.6337
G1 X-3.7658 Y0.6414
G1 X-3.7573 Y0.6454
G1 X-3.7494 Y0.6487
G1 X-3.6836 Y0.676
G1 X-3.6778 Y0.6783
G1 X-3.6754 Y0.6791
G1 X-3.6671 Y0.6814
G1 X-3.6328 Y0.6928
G1 X-3.5979 Y0.7024
G1 X-3.5627 Y0.7109
G1 X-3.5273 Y0.7183
G1 X-3.4917 Y0.7245
G1 X-3.4558 Y0.7296
G1 X-3.4199 Y0.7338
G1 X-3.3839 Y0.7372
G1 X-3.3478 Y0.7399
G1 X-3.3117 Y0.7421
G1 X-3.2756 Y0.7438
G1 X-3.2394 Y0.7452
G1 X-3.2032 Y0.7462
G1 X-3.1671 Y0.7471
G1 X-3.1309 Y0.7477
G1 X-3.0947 Y0.7483
G1 X-3.0585 Y0.7487
G1 X-3.0223 Y0.749
G1 X-2.9862 Y0.7492
G1 X-2.95 Y0.7494
G1 X-2.8776 Y0.7496
G1 X-2.7691 Y0.7498
G1 X-2.5882 Y0.75
G1 X-1.9369
G1 X-1.6836
G1 X0.3064
G1 X1.4106
G1 X1.4188 Y0.7506
G1 X1.4267 Y0.7523
G1 X1.4344 Y0.7551
G1 X1.4389 Y0.7571
G1 X1.4453 Y0.7605
G1 X1.48 Y0.782
G1 X1.4882 Y0.7873
G1 X1.4956 Y0.7934
G1 X1.5211 Y0.8155
G1 X1.5239 Y0.818
G1 X1.5376 Y0.8316
G1 X1.5402 Y0.8345
G1 X1.5711 Y0.8714
G1 X1.5763 Y0.8867 F10.
G1 X1.571 Y0.9005
G1 X1.5458 Y0.9657 F13.5
G2 X1.5622 Y1.0689 I0.0906 J0.0385
G1 X1.6938 Y1.205
G1 X1.8418 Y1.3236
G1 X1.9816 Y1.4151
G1 X2.1213 Y1.4862
G1 X2.294 Y1.5539
G1 X2.4502 Y1.5958
G1 X2.59 Y1.6174
G1 X2.7791 Y1.6323
G1 X2.96 Y1.6247
G1 X3.1245 Y1.5991
G1 X3.2971 Y1.5537
G1 X3.4394 Y1.5004
G1 X3.6041 Y1.4182
G1 X3.7658 Y1.313
G1 X3.8727 Y1.2277
G1 X4.0042 Y1.0963
G1 X4.1126 Y0.966
G1 X4.1991 Y0.8345
G1 X4.2773 Y0.6865
G1 X4.292 Y0.6332
G1 X4.2958 Y0.5796
G1 X4.2925 Y-0.6289
G1 X4.2737 Y-0.6947
G1 X4.179 Y-0.8674
G1 X4.0945 Y-0.9907
G1 X3.9736 Y-1.1304
G1 X3.8426 Y-1.2538
G1 X3.7165 Y-1.3477
G1 X3.5685 Y-1.4379
G1 X3.4122 Y-1.5122
G1 X3.2642 Y-1.5639
G1 X3.0916 Y-1.6056
G1 X2.9271 Y-1.6278
G1 X2.7216 Y-1.6297
G1 X2.5982 Y-1.6193
G1 X2.4173 Y-1.5886
G1 X2.2529 Y-1.5399
G1 X2.0802 Y-1.4668
G1 X1.9487 Y-1.3956
G1 X1.8007 Y-1.2935
G1 X1.6855 Y-1.1962
G1 X1.6773 Y-1.1886
G2 X1.6478 Y-1.114 I0.0687 J0.0704
G1 X1.6505 Y-0.9864
G1 X1.6506 Y-0.9825 F10.
G1 X1.6397 Y-0.9578
G1 X1.5942 Y-0.9002 F13.5
G1 X1.5746 Y-0.8756
G1 X1.5677 Y-0.8674
G1 X1.5622 Y-0.8608
G1 X1.5527 Y-0.8505
G1 X1.5429 Y-0.8414
G1 X1.5301 Y-0.8315
G1 X1.5149 Y-0.8214
G1 X1.4954 Y-0.8107
G1 X1.4707 Y-0.7997
G1 X1.4391 Y-0.7884
G1 X1.4041 Y-0.7791
G1 X1.3687 Y-0.772
G1 X1.3329 Y-0.7667
G1 X1.2969 Y-0.7626
G1 X1.2609 Y-0.7595
G1 X1.2248 Y-0.7572
G1 X1.1886 Y-0.7555
G1 X1.1525 Y-0.7541
G1 X1.1163 Y-0.7531
G1 X1.0801 Y-0.7524
G1 X1.0439 Y-0.7518
G1 X1.0078 Y-0.7513
G1 X0.9716 Y-0.751
G1 X0.9354 Y-0.7508
G1 X0.8992 Y-0.7506
G1 X0.8269 Y-0.7503
G1 X0.7183 Y-0.7501
G1 X0.5374 Y-0.75
G1 X-0.4033
G1 X-2.3933
G1 X-3.2979
G1 X-3.3341 Y-0.7497
G1 X-3.3692 Y-0.7409
G1 X-3.4012 Y-0.7241
G1 X-3.4108 Y-0.7194
G1 X-3.4211 Y-0.7165
G1 X-3.4317 Y-0.7156
G1 X-3.4369
G1 X-3.4616 Y-0.7149
G1 X-3.4698 Y-0.7144
G1 X-3.5438 Y-0.7086
G1 X-3.552 Y-0.7076
G1 X-3.5685 Y-0.7055
G1 X-3.5767 Y-0.7037
G1 X-3.6122 Y-0.6952
G1 X-3.626 Y-0.6963 F10.
G1 X-3.6405 Y-0.7053
G1 X-3.7157 Y-0.7523 F13.5
G2 X-3.8175 Y-0.7606 I-0.0578 J0.0797
G1 X-3.9056 Y-0.7107
G1 X-3.9549 Y-0.6782
G1 X-4.0289 Y-0.6123
G1 X-4.1029 Y-0.534
G1 X-4.1556 Y-0.4645
G1 X-4.2196 Y-0.3494
G1 X-4.2552 Y-0.259
G1 X-4.2853 Y-0.1274
G1 X-4.2959 Y-0.0041
G1 X-4.2886 Y0.0945
G1 X-4.2789 Y0.1603
G1 X-4.2471 Y0.2836
G1 X-4.2001 Y0.3905
G1 X-4.1386 Y0.4892
G1 X-4.0773 Y0.5632
G1 X-3.9935 Y0.6454
G1 X-3.9467 Y0.685
G2 X-3.8645 Y0.7048 I0.062 J-0.0765
G1 X-3.7905 Y0.6912
G1 X-3.6978 Y0.6822
G1 X-3.6754 Y0.68 F10.
G1 X-3.6671 Y0.6814
G1 X-3.6507 Y0.6859 F13.5
G1 X-3.5767 Y0.7037
G1 X-3.5685 Y0.7055
G1 X-3.552 Y0.7076
G1 X-3.5438 Y0.7086
G1 X-3.4698 Y0.7144
G1 X-3.4616 Y0.7149
G1 X-3.4369 Y0.7156
G1 X1.2416
G1 X1.2498
G1 X1.2745 Y0.7162
G1 X1.2909 Y0.7175
G1 X1.2991 Y0.7182
G1 X1.3073 Y0.7189
G1 X1.332 Y0.7214
G1 X1.3402 Y0.7232
G1 X1.3649 Y0.7292
G1 X1.3896 Y0.7362
G1 X1.3978 Y0.7393
G1 X1.4142 Y0.7462
G1 X1.4225 Y0.7497
G1 X1.4344 Y0.7551
G1 X1.4471 Y0.7696 F10.
G1 X1.4461 Y0.7812
G1 X1.441 Y0.8427 F13.5
G1 X1.4373 Y0.8756
G2 X1.4605 Y0.9496 I0.0979 J0.0099
G1 X1.5954 Y1.1058
G1 X1.7123 Y1.2209
G1 X1.85 Y1.3292
G1 X1.9816 Y1.4151
G1 X2.1213 Y1.4864
G1 X2.294 Y1.5539
G1 X2.4502 Y1.5958
G1 X2.6065 Y1.6198
G1 X2.7791 Y1.6323
G1 X2.96 Y1.6247
G1 X3.1245 Y1.5991
G1 X3.2971 Y1.5537
G1 X3.4394 Y1.5004
G1 X3.6041 Y1.4182
G1 X3.7658 Y1.313
G1 X3.8727 Y1.2277
G1 X4.0042 Y1.0963
G1 X4.1126 Y0.966
G1 X4.1991 Y0.8345
G1 X4.2773 Y0.6865
G1 X4.292 Y0.6332
G1 X4.2958 Y0.5796
G1 X4.2925 Y-0.6289
G1 X4.2737 Y-0.6947
G1 X4.179 Y-0.8674
G1 X4.0945 Y-0.9907
G1 X3.9736 Y-1.1304
G1 X3.8426 Y-1.2538
G1 X3.7165 Y-1.3477
G1 X3.5685 Y-1.4379
G1 X3.4122 Y-1.5122
G1 X3.2642 Y-1.5639
G1 X3.0916 Y-1.6056
G1 X2.9271 Y-1.6278
G1 X2.7216 Y-1.6297
G1 X2.5982 Y-1.6193
G1 X2.4173 Y-1.5887
G1 X2.2611 Y-1.5425
G1 X2.0815 Y-1.4675
G1 X1.9487 Y-1.3956
G1 X1.8007 Y-1.2934
G1 X1.6851 Y-1.1962
G1 X1.5622 Y-1.0689
G2 X1.554 Y-0.9503 I0.0741 J0.0647
G1 X1.5653 Y-0.9331
G3 X1.5745 Y-0.8888 I-0.0522 J0.034
G3 X1.5667 Y-0.8674 I-0.0615 J-0.0103 F10.
G1 X1.5622 Y-0.8608
G1 X1.5402 Y-0.8345 F13.5
G1 X1.5376 Y-0.8316
G1 X1.5239 Y-0.818
G1 X1.5211 Y-0.8155
G1 X1.4956 Y-0.7934
G1 X1.4882 Y-0.7873
G1 X1.48 Y-0.782
G1 X1.4453 Y-0.7605
G1 X1.4389 Y-0.7571
G1 X1.4225 Y-0.7497
G1 X1.409 Y-0.744
G1 X1.3978 Y-0.7393
G1 X1.3896 Y-0.7362
G1 X1.3649 Y-0.7292
G1 X1.3402 Y-0.7232
G1 X1.332 Y-0.7214
G1 X1.3073 Y-0.7189
G1 X1.2991 Y-0.7182
G1 X1.2827 Y-0.7169
G1 X1.2745 Y-0.7162
G1 X1.2498 Y-0.7156
G1 X1.2416
G1 X-3.4317
G1 X-3.4451 Y-0.72 F10.
G1 X-3.4556 Y-0.7331
G1 X-4.3331 Y-1.8246 F13.5
G1 X-4.3414 Y-1.8311
G2 X-4.4927 Y-1.78 Z-0.1956 I-0.0572 J0.0801
G1 X-4.4938 Y-1.7759 Z-0.1978 F10.
G1 X-4.4948 Y-1.7717 Z-0.2
G1 X-4.5 Y-1.7511
G1 Y-1.7451 F13.5
G1 X-4.5072 Y-1.7096
G1 X-4.5124 Y-1.6738
G1 X-4.5161 Y-1.6378
G1 X-4.5187 Y-1.6017
G1 X-4.5206 Y-1.5656
G1 X-4.5219 Y-1.5294
G1 X-4.5228 Y-1.4932
G1 X-4.5234 Y-1.4571
G1 X-4.5239 Y-1.4209
G1 X-4.5242 Y-1.3847
G1 X-4.5245 Y-1.3485
G1 X-4.5246 Y-1.3124
G1 X-4.5248 Y-1.24
G1 X-4.5249 Y-1.1314
G1 X-4.525 Y-0.842
G1 Y0.2435
G1 Y1.5098
G1 X-4.5214 Y1.5276
G1 X-4.5049 Y1.5597
G1 X-4.4784 Y1.5844
G1 X-4.4472 Y1.6028
G1 X-4.4136 Y1.6162
G1 X-4.3788 Y1.6259
G1 X-4.3433 Y1.6329
G1 X-4.3074 Y1.6379
G1 X-4.2714 Y1.6414
G1 X-4.2353 Y1.6439
G1 X-4.1992 Y1.6457
G1 X-4.163 Y1.647
G1 X-4.1269 Y1.6479
G1 X-4.0907 Y1.6485
G1 X-4.0545 Y1.6489
G1 X-4.0183 Y1.6493
G1 X-3.9822 Y1.6495
G1 X-3.946 Y1.6496
G1 X-3.8736 Y1.6498
G1 X-3.7651 Y1.6499
G1 X-3.4756 Y1.65
G1 X-1.8836
G1 X0.1064
G1 X2.0964
G1 X4.0864
G1 X4.3849
G1 X4.3939 Y1.6486
G1 X4.4111 Y1.6431
G1 X4.4414 Y1.6233
G1 X4.4644 Y1.5954
G1 X4.4814 Y1.5635
G1 X4.4939 Y1.5295
G1 X4.5028 Y1.4944
G1 X4.5093 Y1.4588
G1 X4.5138 Y1.4229
G1 X4.5171 Y1.3869
G1 X4.5194 Y1.3508
G1 X4.5211 Y1.3147
G1 X4.5222 Y1.2785
G1 X4.523 Y1.2423
G1 X4.5236 Y1.2061
G1 X4.524 Y1.17
G1 X4.5243 Y1.1338
G1 X4.5245 Y1.0976
G1 X4.5247 Y1.0614
G1 X4.5248 Y0.9891
G1 X4.5249 Y0.8805
G1 X4.525 Y0.5549
G1 Y0.0121
G1 Y-1.5075
G1 X4.5224 Y-1.5254
G1 X4.5145 Y-1.5417
G1 X4.4929 Y-1.5707
G1 X4.4641 Y-1.5926
G1 X4.4318 Y-1.6088
G1 X4.3975 Y-1.6206
G1 X4.3624 Y-1.6291
G1 X4.3267 Y-1.6351
G1 X4.2908 Y-1.6395
G1 X4.2547 Y-1.6426
G1 X4.2186 Y-1.6447
G1 X4.1825 Y-1.6463
G1 X4.1463 Y-1.6474
G1 X4.1101 Y-1.6482
G1 X4.0739 Y-1.6487
G1 X4.0378 Y-1.6491
G1 X4.0016 Y-1.6494
G1 X3.9654 Y-1.6495
G1 X3.893 Y-1.6498
G1 X3.7845 Y-1.6499
G1 X3.5674 Y-1.65
G1 X2.1201
G1 X0.1301
G1 X-1.8599
G1 X-3.8499
G1 X-4.2841
G1 X-4.3014 Y-1.6448
G1 X-4.3329 Y-1.6269
G1 X-4.3573 Y-1.6002
G1 X-4.3757 Y-1.569
G1 X-4.3893 Y-1.5355
G1 X-4.3992 Y-1.5007
G1 X-4.4065 Y-1.4653
G1 X-4.4117 Y-1.4295
G1 X-4.4155 Y-1.3935
G1 X-4.4182 Y-1.3574
G1 X-4.4202 Y-1.3213
G1 X-4.4215 Y-1.2851
G1 X-4.4225 Y-1.249
G1 X-4.4232 Y-1.2128
G1 X-4.4237 Y-1.1766
G1 X-4.4241 Y-1.1404
G1 X-4.4244 Y-1.1043
G1 X-4.4245 Y-1.0681
G1 X-4.4248 Y-0.9957
G1 X-4.4249 Y-0.8872
G1 X-4.425 Y-0.6701
G1 Y-0.1635
G1 Y1.3923
G1 X-4.4136 Y1.4266
G1 X-4.392 Y1.4556
G1 X-4.3642 Y1.4788
G1 X-4.3328 Y1.4968
G1 X-4.2993 Y1.5105
G1 X-4.2646 Y1.5208
G1 X-4.2293 Y1.5285
G1 X-4.1935 Y1.5343
G1 X-4.1576 Y1.5385
G1 X-4.1216 Y1.5416
G1 X-4.0854 Y1.5439
G1 X-4.0493 Y1.5456
G1 X-4.0131 Y1.5468
G1 X-3.977 Y1.5477
G1 X-3.9408 Y1.5483
G1 X-3.9046 Y1.5488
G1 X-3.8684 Y1.5491
G1 X-3.8322 Y1.5494
G1 X-3.7961 Y1.5495
G1 X-3.7237 Y1.5498
G1 X-3.6152 Y1.5499
G1 X-3.3981 Y1.55
G1 X-2.0593
G1 X-0.0693
G1 X1.9207
G1 X3.9107
G1 X4.2544
G1 X4.2722 Y1.5467
G1 X4.306 Y1.5338
G1 X4.3342 Y1.5112
G1 X4.3566 Y1.4828
G1 X4.374 Y1.451
G1 X4.3872 Y1.4173
G1 X4.3971 Y1.3825
G1 X4.4045 Y1.3471
G1 X4.41 Y1.3113
G1 X4.414 Y1.2754
G1 X4.417 Y1.2393
G1 X4.4192 Y1.2032
G1 X4.4208 Y1.167
G1 X4.4219 Y1.1309
G1 X4.4228 Y1.0947
G1 X4.4234 Y1.0585
G1 X4.4238 Y1.0224
G1 X4.4242 Y0.9862
G1 X4.4244 Y0.95
G1 X4.4246 Y0.9138
G1 X4.4248 Y0.8415
G1 X4.4249 Y0.7329
G1 X4.425 Y0.5158
G1 Y-0.0269
G1 Y-1.3656
G1 X4.4243 Y-1.3837
G1 X4.416 Y-1.4189
G1 X4.3963 Y-1.4493
G1 X4.3697 Y-1.4738
G1 X4.339 Y-1.4929
G1 X4.3059 Y-1.5075
G1 X4.2715 Y-1.5186
G1 X4.2362 Y-1.5269
G1 X4.2006 Y-1.5331
G1 X4.1647 Y-1.5376
G1 X4.1287 Y-1.541
G1 X4.0926 Y-1.5434
G1 X4.0564 Y-1.5452
G1 X4.0203 Y-1.5465
G1 X3.9841 Y-1.5475
G1 X3.9479 Y-1.5482
G1 X3.9117 Y-1.5487
G1 X3.8756 Y-1.549
G1 X3.8394 Y-1.5493
G1 X3.8032 Y-1.5495
G1 X3.7308 Y-1.5497
G1 X3.6223 Y-1.5499
G1 X3.4052 Y-1.55
G1 X1.8856
G1 X-0.1044
G1 X-2.0944
G1 X-4.0844
G1 X-4.1568
G1 X-4.192 Y-1.5415
G1 X-4.2224 Y-1.5219
G1 X-4.247 Y-1.4954
G1 X-4.2663 Y-1.4648
G1 X-4.2812 Y-1.4318
G1 X-4.2925 Y-1.3974
G1 X-4.3009 Y-1.3622
G1 X-4.3073 Y-1.3266
G1 X-4.312 Y-1.2907
G1 X-4.3154 Y-1.2547
G1 X-4.318 Y-1.2186
G1 X-4.3199 Y-1.1825
G1 X-4.3213 Y-1.1463
G1 X-4.3223 Y-1.1102
G1 X-4.323 Y-1.074
G1 X-4.3236 Y-1.0378
G1 X-4.324 Y-1.0016
G1 X-4.3242 Y-0.9655
G1 X-4.3244 Y-0.9293
G1 X-4.3246 Y-0.8931
G1 X-4.3248 Y-0.8207
G1 X-4.3249 Y-0.7122
G1 X-4.325 Y-0.4589
G1 Y0.3009
G1 Y1.2778
G1 X-4.315 Y1.3126
G1 X-4.2951 Y1.3428
G1 X-4.2687 Y1.3676
G1 X-4.2384 Y1.3873
G1 X-4.2056 Y1.4026
G1 X-4.1714 Y1.4144
G1 X-4.1363 Y1.4234
G1 X-4.1008 Y1.4301
G1 X-4.065 Y1.4352
G1 X-4.029 Y1.4391
G1 X-3.9929 Y1.4419
G1 X-3.9568 Y1.444
G1 X-3.9206 Y1.4456
G1 X-3.8845 Y1.4467
G1 X-3.8483 Y1.4476
G1 X-3.8121 Y1.4482
G1 X-3.776 Y1.4487
G1 X-3.7398 Y1.449
G1 X-3.7036 Y1.4493
G1 X-3.6674 Y1.4495
G1 X-3.595 Y1.4497
G1 X-3.4865 Y1.4499
G1 X-3.378 Y1.45
G1 X-2.8352
G1 X-1.388
G1 X0.6021
G1 X2.399
G1 X2.4043 Y1.4502
G1 X2.4097 Y1.451
G1 X2.4149 Y1.4522
G1 X2.4502 Y1.4622
G1 X2.4585 Y1.4645
G1 X2.4749 Y1.4676
G1 X2.4831 Y1.4692
G1 X2.59 Y1.4878
G1 X2.5982 Y1.4892
G1 X2.6174 Y1.4922
G1 X2.6229 Y1.4927
G1 X2.6722 Y1.4961
G1 X2.7545 Y1.5018
G1 X2.7791 Y1.5025
G1 X2.7873 Y1.5023
G1 X2.9107 Y1.498
G1 X2.9189 Y1.4975
G1 X2.9353 Y1.496
G1 X2.9436 Y1.4951
G1 X3.0751 Y1.4766
G1 X3.0797 Y1.4757
G1 X3.0834 Y1.4749
G1 X3.119 Y1.4687
G1 X3.1547 Y1.4631
G1 X3.1907 Y1.4592
G1 X3.2268 Y1.4564
G1 X3.2629 Y1.4545
G1 X3.2991 Y1.4532
G1 X3.3352 Y1.4522
G1 X3.3714 Y1.4516
G1 X3.4076 Y1.4511
G1 X3.4438 Y1.4508
G1 X3.48 Y1.4506
G1 X3.5161 Y1.4504
G1 X3.5885 Y1.4502
G1 X3.697 Y1.4501
G1 X3.9503 Y1.45
G1 X4.1312
G1 X4.1673 Y1.4469
G1 X4.2004 Y1.4324
G1 X4.2284 Y1.4094
G1 X4.251 Y1.3812
G1 X4.2689 Y1.3497
G1 X4.2827 Y1.3163
G1 X4.2932 Y1.2817
G1 X4.3013 Y1.2464
G1 X4.3073 Y1.2107
G1 X4.3119 Y1.1748
G1 X4.3153 Y1.1388
G1 X4.3178 Y1.1027
G1 X4.3197 Y1.0666
G1 X4.3211 Y1.0304
G1 X4.3221 Y0.9942
G1 X4.3229 Y0.9581
G1 X4.3234 Y0.9219
G1 X4.3238 Y0.8857
G1 X4.3242 Y0.8495
G1 X4.3244 Y0.8134
G1 X4.3245 Y0.7772
G1 X4.3248 Y0.7048
G1 X4.3249 Y0.5963
G1 X4.325 Y0.3792
G1 Y-1.249
G1 X4.3241 Y-1.2852
G1 X4.3116 Y-1.3191
G1 X4.2901 Y-1.3482
G1 X4.2627 Y-1.3719
G1 X4.2318 Y-1.3906
G1 X4.1986 Y-1.4052
G1 X4.1642 Y-1.4163
G1 X4.129 Y-1.4248
G1 X4.0934 Y-1.4312
G1 X4.0576 Y-1.436
G1 X4.0216 Y-1.4396
G1 X3.9855 Y-1.4423
G1 X3.9494 Y-1.4443
G1 X3.9132 Y-1.4458
G1 X3.877 Y-1.4469
G1 X3.8409 Y-1.4477
G1 X3.8047 Y-1.4483
G1 X3.7685 Y-1.4488
G1 X3.7323 Y-1.4491
G1 X3.6962 Y-1.4493
G1 X3.66 Y-1.4495
G1 X3.5876 Y-1.4497
G1 X3.4791 Y-1.4499
G1 X3.262 Y-1.45
G1 X3.1925
G1 X3.1878 Y-1.4502
G1 X3.1831 Y-1.4508
G1 X3.1784 Y-1.4517
G1 X3.108 Y-1.4692
G1 X3.0998 Y-1.4712
G1 X3.0797 Y-1.4757
G1 X3.0751 Y-1.4766
G1 X2.9436 Y-1.4951
G1 X2.9353 Y-1.496
G1 X2.9189 Y-1.4975
G1 X2.9107 Y-1.498
G1 X2.7873 Y-1.5023
G1 X2.7791 Y-1.5025
G1 X2.7545 Y-1.5018
G1 X2.6393 Y-1.4938
G1 X2.6229 Y-1.4927
G1 X2.6174 Y-1.4922
G1 X2.5982 Y-1.4892
G1 X2.59 Y-1.4878
G1 X2.4913 Y-1.4706
G1 X2.4554 Y-1.4662
G1 X2.4196 Y-1.4613
G1 X2.3836 Y-1.4579
G1 X2.3475 Y-1.4556
G1 X2.3113 Y-1.4539
G1 X2.2751 Y-1.4528
G1 X2.239 Y-1.4519
G1 X2.2028 Y-1.4514
G1 X2.1666 Y-1.451
G1 X2.1304 Y-1.4507
G1 X2.0943 Y-1.4505
G1 X2.0581 Y-1.4503
G1 X1.9857 Y-1.4502
G1 X1.8772 Y-1.4501
G1 X1.5515 Y-1.45
G1 X0.5023
G1 X-1.4878
G1 X-3.4778
G1 X-4.0205
G1 X-4.0567 Y-1.4497
G1 X-4.0909 Y-1.438
G1 X-4.1204 Y-1.417
G1 X-4.1445 Y-1.39
G1 X-4.1636 Y-1.3593
G1 X-4.1786 Y-1.3264
G1 X-4.19 Y-1.2921
G1 X-4.1988 Y-1.2569
G1 X-4.2054 Y-1.2214
G1 X-4.2104 Y-1.1855
G1 X-4.2141 Y-1.1495
G1 X-4.2169 Y-1.1135
G1 X-4.219 Y-1.0774
G1 X-4.2206 Y-1.0412
G1 X-4.2217 Y-1.005
G1 X-4.2226 Y-0.9689
G1 X-4.2232 Y-0.9327
G1 X-4.2237 Y-0.8965
G1 X-4.224 Y-0.8603
G1 X-4.2243 Y-0.8242
G1 X-4.2245 Y-0.788
G1 X-4.2247 Y-0.7156
G1 X-4.2249 Y-0.6071
G1 X-4.225 Y-0.4262
G1 Y-0.1005
G1 Y1.1659
G1 X-4.2169 Y1.2011
G1 X-4.1989 Y1.2325
G1 X-4.1739 Y1.2587
G1 X-4.1445 Y1.2797
G1 X-4.1124 Y1.2964
G1 X-4.0786 Y1.3093
G1 X-4.0438 Y1.3193
G1 X-4.0084 Y1.3269
G1 X-3.9727 Y1.3326
G1 X-3.9368 Y1.337
G1 X-3.9008 Y1.3403
G1 X-3.8647 Y1.3427
G1 X-3.8285 Y1.3446
G1 X-3.7924 Y1.346
G1 X-3.7562 Y1.347
G1 X-3.72 Y1.3478
G1 X-3.6839 Y1.3483
G1 X-3.6477 Y1.3488
G1 X-3.6115 Y1.3491
G1 X-3.5753 Y1.3493
G1 X-3.5391 Y1.3495
G1 X-3.4668 Y1.3497
G1 X-3.3582 Y1.3499
G1 X-3.1411 Y1.35
G1 X-1.5853
G1 X0.4047
G1 X2.1235
G1 X2.1329 Y1.3508
G1 X2.1421 Y1.353
G1 X2.1507 Y1.3567
G1 X2.1582 Y1.3606
G1 X2.1625 Y1.3627
G1 X2.1871 Y1.3731
G1 X2.294 Y1.416
G1 X2.3001 Y1.4182
G1 X2.3187 Y1.4246
G1 X2.3241 Y1.4264
G1 X2.4149 Y1.4522
G1 X2.4338 Y1.4576 F10.
G1 X2.4447 Y1.4607
G1 X2.4502 Y1.4622 F13.5
G1 X2.4585 Y1.4645
G1 X2.4749 Y1.4676
G1 X2.4831 Y1.4692
G1 X2.59 Y1.4878
G1 X2.5982 Y1.4892
G1 X2.6174 Y1.4922
G1 X2.6229 Y1.4927
G1 X2.6476 Y1.4944
G1 X2.7545 Y1.5018
G1 X2.7791 Y1.5025
G1 X2.7873 Y1.5023
G1 X2.9107 Y1.498
G1 X2.9189 Y1.4975
G1 X2.9353 Y1.496
G1 X2.9436 Y1.4951
G1 X3.0528 Y1.4797
G1 X3.0751 Y1.4766 F10.
G1 X3.0797 Y1.4757
G1 X3.0834 Y1.4749
G1 X3.0998 Y1.4712 F13.5
G1 X3.108 Y1.4692
G1 X3.2149 Y1.4427
G1 X3.2231 Y1.4405
G1 X3.2314 Y1.4382
G1 X3.2396 Y1.4358
G1 X3.3711 Y1.3882
G1 X3.3886 Y1.3819
G1 X3.4225 Y1.3726
G1 X3.458 Y1.3659
G1 X3.4939 Y1.3612
G1 X3.5299 Y1.3579
G1 X3.566 Y1.3556
G1 X3.6022 Y1.354
G1 X3.6384 Y1.3528
G1 X3.6745 Y1.352
G1 X3.7107 Y1.3514
G1 X3.7469 Y1.351
G1 X3.7831 Y1.3507
G1 X3.8192 Y1.3505
G1 X3.8554 Y1.3504
G1 X3.9278 Y1.3502
G1 X4.0363 Y1.3501
G1 X4.0719 Y1.3433
G1 X4.1038 Y1.3262
G1 X4.1306 Y1.3019
G1 X4.1523 Y1.273
G1 X4.1695 Y1.2411
G1 X4.1828 Y1.2075
G1 X4.1931 Y1.1728
G1 X4.201 Y1.1375
G1 X4.2069 Y1.1018
G1 X4.2115 Y1.0659
G1 X4.2149 Y1.0299
G1 X4.2174 Y0.9938
G1 X4.2194 Y0.9577
G1 X4.2208 Y0.9215
G1 X4.2219 Y0.8853
G1 X4.2227 Y0.8492
G1 X4.2233 Y0.813
G1 X4.2237 Y0.7768
G1 X4.224 Y0.7406
G1 X4.2243 Y0.7045
G1 X4.2245 Y0.6683
G1 X4.2247 Y0.5959
G1 X4.2249 Y0.4874
G1 X4.225 Y0.3065
G1 Y0.1255
G1 Y-1.1408
G1 X4.2243 Y-1.177
G1 X4.2127 Y-1.2113
G1 X4.1922 Y-1.241
G1 X4.1656 Y-1.2656
G1 X4.1352 Y-1.2852
G1 X4.1024 Y-1.3006
G1 X4.0683 Y-1.3126
G1 X4.0333 Y-1.3218
G1 X3.9978 Y-1.3288
G1 X3.962 Y-1.3341
G1 X3.926 Y-1.3381
G1 X3.89 Y-1.3411
G1 X3.8539 Y-1.3433
G1 X3.8177 Y-1.345
G1 X3.7816 Y-1.3463
G1 X3.7454 Y-1.3473
G1 X3.7092 Y-1.348
G1 X3.6731 Y-1.3485
G1 X3.6369 Y-1.3489
G1 X3.6007 Y-1.3492
G1 X3.5645 Y-1.3494
G1 X3.5283 Y-1.3495
G1 X3.4662 Y-1.3497
G1 X3.4575 Y-1.3504
G1 X3.449 Y-1.3524
G1 X3.4409 Y-1.3556
G1 X3.404 Y-1.3734
G1 X3.3958 Y-1.3773
G1 X3.3781 Y-1.3853
G1 X3.3711 Y-1.3882
G1 X3.2396 Y-1.4358
G1 X3.2314 Y-1.4382
G1 X3.2231 Y-1.4405
G1 X3.2141 Y-1.4428
G1 X3.1784 Y-1.4517
G1 X3.1484 Y-1.4592 F10.
G1 X3.108 Y-1.4692 F13.5
G1 X3.0998 Y-1.4712
G1 X3.0797 Y-1.4757
G1 X3.0751 Y-1.4766
G1 X2.9436 Y-1.4951
G1 X2.9353 Y-1.496
G1 X2.9189 Y-1.4975
G1 X2.9107 Y-1.498
G1 X2.7873 Y-1.5023
G1 X2.7791 Y-1.5025
G1 X2.7545 Y-1.5018
G1 X2.6393 Y-1.4938
G1 X2.6229 Y-1.4927
G1 X2.6174 Y-1.4922
G1 X2.5982 Y-1.4892
G1 X2.59 Y-1.4878
G1 X2.5218 Y-1.4759
G1 X2.4913 Y-1.4706 F10.
G1 X2.4831 Y-1.4692 F13.5
G1 X2.4742 Y-1.4675
G1 X2.4585 Y-1.4645
G1 X2.4502 Y-1.4622
G1 X2.4091 Y-1.4506
G1 X2.3241 Y-1.4264
G1 X2.3187 Y-1.4246
G1 X2.3001 Y-1.4182
G1 X2.294 Y-1.416
G1 X2.238 Y-1.3935
G1 X2.2038 Y-1.3818
G1 X2.1697 Y-1.3725
G1 X2.1341 Y-1.3658
G1 X2.0983 Y-1.3611
G1 X2.0622 Y-1.3579
G1 X2.0261 Y-1.3556
G1 X1.99 Y-1.3539
G1 X1.9538 Y-1.3528
G1 X1.9176 Y-1.352
G1 X1.8815 Y-1.3514
G1 X1.8453 Y-1.351
G1 X1.8091 Y-1.3507
G1 X1.7729 Y-1.3505
G1 X1.7367 Y-1.3504
G1 X1.6644 Y-1.3502
G1 X1.5558 Y-1.3501
G1 X1.2664 Y-1.35
G1 X0.2533
G1 X-1.7367
G1 X-3.7267
G1 X-3.9076
G1 X-3.9438
G1 X-3.9788 Y-1.3407
G1 X-4.0097 Y-1.3218
G1 X-4.0353 Y-1.2963
G1 X-4.056 Y-1.2666
G1 X-4.0723 Y-1.2343
G1 X-4.085 Y-1.2004
G1 X-4.0947 Y-1.1656
G1 X-4.1022 Y-1.1302
G1 X-4.1078 Y-1.0945
G1 X-4.1121 Y-1.0585
G1 X-4.1154 Y-1.0225
G1 X-4.1178 Y-0.9864
G1 X-4.1196 Y-0.9503
G1 X-4.121 Y-0.9141
G1 X-4.122 Y-0.8779
G1 X-4.1228 Y-0.8418
G1 X-4.1233 Y-0.8056
G1 X-4.1238 Y-0.7694
G1 X-4.1241 Y-0.7332
G1 X-4.1243 Y-0.697
G1 X-4.1245 Y-0.6609
G1 X-4.1247 Y-0.5885
G1 X-4.1249 Y-0.4799
G1 X-4.125 Y-0.2629
G1 Y-0.2478
G1 X-4.1254 Y-0.2406
G1 X-4.1268 Y-0.2335
G1 X-4.129 Y-0.2266
G1 X-4.1292 Y-0.2261
G1 X-4.1315 Y-0.2179
G1 X-4.136 Y-0.2014
G1 X-4.1381 Y-0.1932
G1 X-4.1539 Y-0.1274
G1 X-4.1558 Y-0.1192
G1 X-4.1579 Y-0.1028
G1 X-4.1589 Y-0.0945
G1 X-4.1596 Y-0.0863
G1 X-4.1648 Y-0.0206
G1 X-4.1654 Y-0.0123
G1 Y0.0123
G1 X-4.1635 Y0.037
G1 X-4.1596 Y0.0863
G1 X-4.1589 Y0.0945
G1 X-4.1569 Y0.111
G1 X-4.1558 Y0.1192
G1 X-4.1522 Y0.1342
G1 X-4.1456 Y0.1698
G1 X-4.1394 Y0.2054
G1 X-4.1351 Y0.2414
G1 X-4.1321 Y0.2774
G1 X-4.13 Y0.3135
G1 X-4.1285 Y0.3497
G1 X-4.1275 Y0.3859
G1 X-4.1267 Y0.422
G1 X-4.1262 Y0.4582
G1 X-4.1259 Y0.4944
G1 X-4.1256 Y0.5306
G1 X-4.1254 Y0.5667
G1 X-4.1252 Y0.6391
G1 X-4.1251 Y0.7477
G1 X-4.125 Y1.0009
G1 Y1.0371
G1 X-4.1239 Y1.0733
G1 X-4.1126 Y1.1076
G1 X-4.0924 Y1.1376
G1 X-4.0661 Y1.1625
G1 X-4.036 Y1.1825
G1 X-4.0034 Y1.1983
G1 X-3.9694 Y1.2106
G1 X-3.9345 Y1.2201
G1 X-3.899 Y1.2274
G1 X-3.8633 Y1.2329
G1 X-3.8273 Y1.2371
G1 X-3.7913 Y1.2403
G1 X-3.7552 Y1.2427
G1 X-3.7191 Y1.2445
G1 X-3.6829 Y1.2459
G1 X-3.6467 Y1.2469
G1 X-3.6106 Y1.2477
G1 X-3.5744 Y1.2483
G1 X-3.5382 Y1.2487
G1 X-3.502 Y1.249
G1 X-3.4658 Y1.2493
G1 X-3.4297 Y1.2495
G1 X-3.3573 Y1.2497
G1 X-3.2487 Y1.2499
G1 X-3.1402 Y1.25
G1 X-2.6698
G1 X-1.1502
G1 X0.8398
G1 X1.9472
G1 X1.9586 Y1.2511
G1 X1.9695 Y1.2544
G1 X1.9796 Y1.2598
G1 X2.0074 Y1.2784
G1 X2.0227 Y1.2885
G1 X2.0309 Y1.2933
G1 X2.049 Y1.3031
G1 X2.0646 Y1.3113
G1 X2.1507 Y1.3567
G1 X2.1625 Y1.3719 F10.
G1 X2.1654 Y1.3833
G1 X2.1895 Y1.4757 F13.5
G2 X2.2611 Y1.5488 I0.0959 J-0.0224
G1 X2.4502 Y1.5958
G1 X2.6147 Y1.6214
G1 X2.7956 Y1.6318
G1 X2.96 Y1.6247
G1 X3.1245 Y1.5991
G1 X3.2396 Y1.5704
G2 X3.3079 Y1.5086 I-0.0242 J-0.0954
G1 X3.3377 Y1.4264
G3 X3.3474 Y1.4075 I0.0595 J0.0184
G3 X3.3711 Y1.3882 I0.0499 J0.0373 F10.
G1 X3.3781 Y1.3853 F13.5
G1 X3.3963 Y1.3771
G1 X3.404 Y1.3734
G1 X3.5027 Y1.3256
G1 X3.5109 Y1.3214
G1 X3.5292 Y1.3113
G1 X3.5356 Y1.3077
G1 X3.548 Y1.3008
G1 X3.5677 Y1.2919
G1 X3.5935 Y1.2826
G1 X3.6284 Y1.2732
G1 X3.664 Y1.2665
G1 X3.6999 Y1.2618
G1 X3.7359 Y1.2584
G1 X3.772 Y1.256
G1 X3.8081 Y1.2543
G1 X3.8443 Y1.2531
G1 X3.8805 Y1.2522
G1 X3.9167 Y1.2516
G1 X3.9527 Y1.249
G1 X3.9866 Y1.2362
G1 X4.0159 Y1.215
G1 X4.0401 Y1.1881
G1 X4.0595 Y1.1576
G1 X4.0749 Y1.1248
G1 X4.0868 Y1.0906
G1 X4.096 Y1.0556
G1 X4.103 Y1.0202
G1 X4.1084 Y0.9844
G1 X4.1125 Y0.9484
G1 X4.1156 Y0.9124
G1 X4.1179 Y0.8763
G1 X4.1197 Y0.8401
G1 X4.121 Y0.804
G1 X4.122 Y0.7678
G1 X4.1228 Y0.7316
G1 X4.123 Y0.7156
G1 X4.1239 Y0.7064
G1 X4.1263 Y0.6973
G1 X4.13 Y0.6888
G1 X4.1446 Y0.6618
G1 X4.1522 Y0.6472
G1 X4.1532 Y0.6454
G1 X4.1569 Y0.6372
G1 X4.1598 Y0.6289
G1 X4.1605 Y0.6269
G1 X4.1622 Y0.6207
G1 X4.164 Y0.6125
G1 X4.1651 Y0.6043
G1 X4.1658 Y0.596
G1 X4.1659 Y0.5878
G1 X4.1654 Y0.5796
G1 X4.1644 Y0.5714
G1 X4.1628 Y0.5632
G1 X4.1608 Y0.5549
G1 X4.1605 Y0.554
G1 X4.1502 Y0.5193
G1 X4.1426 Y0.4839
G1 X4.1373 Y0.4481
G1 X4.1336 Y0.4121
G1 X4.1311 Y0.376
G1 X4.1292 Y0.3399
G1 X4.128 Y0.3037
G1 X4.1271 Y0.2675
G1 X4.1265 Y0.2314
G1 X4.126 Y0.1952
G1 X4.1257 Y0.159
G1 X4.1255 Y0.1228
G1 X4.1254 Y0.0866
G1 X4.1252 Y0.0143
G1 X4.1251 Y-0.0943
G1 X4.125 Y-0.3837
G1 Y-0.4758
G1 X4.1258 Y-0.4856
G1 X4.1283 Y-0.4951
G1 X4.1323 Y-0.5041
G1 X4.1378 Y-0.5123
G1 X4.144 Y-0.52
G1 X4.1454 Y-0.5221
G1 X4.1546 Y-0.5385
G1 X4.1564 Y-0.5426
G1 X4.1579 Y-0.5467
G1 X4.1608 Y-0.5549
G1 X4.1628 Y-0.5632
G1 X4.1644 Y-0.5714
G1 X4.1654 Y-0.5796
G1 X4.1659 Y-0.5878
G1 X4.1658 Y-0.596
G1 X4.1651 Y-0.6043
G1 X4.164 Y-0.6125
G1 X4.1622 Y-0.6207
G1 X4.1605 Y-0.6269
G1 X4.1598 Y-0.6289
G1 X4.1496 Y-0.6636
G1 X4.1422 Y-0.6991
G1 X4.137 Y-0.7349
G1 X4.1334 Y-0.7709
G1 X4.1309 Y-0.807
G1 X4.1292 Y-0.8431
G1 X4.1279 Y-0.8793
G1 X4.1271 Y-0.9154
G1 X4.1265 Y-0.9516
G1 X4.126 Y-0.9878
G1 X4.1257 Y-1.024
G1 X4.1255 Y-1.0602
G1 X4.118 Y-1.0956
G1 X4.1006 Y-1.1273
G1 X4.0763 Y-1.154
G1 X4.0473 Y-1.1757
G1 X4.0155 Y-1.193
G1 X3.9819 Y-1.2065
G1 X3.9473 Y-1.2169
G1 X3.912 Y-1.2249
G1 X3.8763 Y-1.2311
G1 X3.8405 Y-1.2357
G1 X3.8044 Y-1.2393
G1 X3.7684 Y-1.2419
G1 X3.7322 Y-1.2439
G1 X3.6961 Y-1.2455
G1 X3.6599 Y-1.2466
G1 X3.6489 Y-1.2469
G1 X3.6386 Y-1.248
G1 X3.6287 Y-1.251
G1 X3.6195 Y-1.2556
G1 X3.5356 Y-1.3077
G1 X3.5274 Y-1.3123
G1 X3.5109 Y-1.3214
G1 X3.5027 Y-1.3256
G1 X3.4409 Y-1.3556
G3 X3.4278 Y-1.3815 I0.0117 J-0.0221 F10.
G3 X3.4534 Y-1.4027 I0.0247 J0.0038 F13.5
G1 X3.9467 Y-1.3505
G1 X4.0371 Y-1.325
G1 X4.1111 Y-1.2887
G1 X4.1605 Y-1.2525
G1 X4.2053 Y-1.2044
G1 X4.2345 Y-1.1501
G1 X4.2518 Y-1.0976
G1 X4.2801 Y-0.6536
G3 X4.1776 Y-0.604 I-0.0623 J0.0021
G3 X4.1598 Y-0.6289 I0.0403 J-0.0475 F10.
G1 X4.1569 Y-0.6372 F13.5
G1 X4.1532 Y-0.6454
G1 X4.1489 Y-0.6536
G1 X4.144 Y-0.6629
G1 X4.0869 Y-0.7687
G1 X4.0865 Y-0.7694
G1 X4.0739 Y-0.7932
G1 X4.0648 Y-0.8141
G1 X4.0555 Y-0.8419
G1 X4.0467 Y-0.877
G1 X4.0404 Y-0.9127
G1 X4.036 Y-0.9486
G1 X4.0291 Y-0.9841
G1 X4.0133 Y-1.0166
G1 X3.9904 Y-1.0447
G1 X3.9625 Y-1.0677
G1 X3.9315 Y-1.0863
G1 X3.8984 Y-1.101
G1 X3.8641 Y-1.1125
G1 X3.829 Y-1.1214
G1 X3.8037 Y-1.1262
G1 X3.7942 Y-1.1289
G1 X3.7851 Y-1.1331
G1 X3.7769 Y-1.1387
G1 X3.7666 Y-1.1469
G1 X3.6671 Y-1.224
G1 X3.6602 Y-1.2291
G1 X3.6483 Y-1.2373
G1 X3.6425 Y-1.2413
G1 X3.6195 Y-1.2556
G3 X3.6092 Y-1.2827 I0.0139 J-0.0208 F10.
G3 X3.6425 Y-1.2997 I0.0242 J0.0063 F13.5
G1 X3.9796 Y-1.2075
G1 X4.0454 Y-1.1684
G1 X4.0957 Y-1.1211
G1 X4.1276 Y-1.0774
G1 X4.1466 Y-1.04
G1 X4.1994 Y-0.818
G3 X4.1088 Y-0.7485 I-0.0605 J0.0149
G3 X4.0869 Y-0.7687 I0.03 J-0.0546 F10.
G1 X4.0865 Y-0.7694
G1 X4.0771 Y-0.7851 F13.5
G1 X4.0719 Y-0.7934
G1 X3.996 Y-0.9045
G1 X3.9933 Y-0.9085
G1 X3.9796 Y-0.9251
G1 X3.9714 Y-0.9349
G1 X3.9101 Y-1.0071
G1 X3.9056 Y-1.0124
G1 X3.8884 Y-1.0318
G1 X3.8809 Y-1.0395
G1 X3.7987 Y-1.1182
G1 X3.7806 Y-1.1352
G1 X3.7769 Y-1.1387
G1 X3.7696 Y-1.1563 F10.
G1 X3.77 Y-1.1681
G1 X3.7732 Y-1.262 F13.5
G2 X3.7247 Y-1.3502 I-0.0984 J-0.0034
G1 X3.5438 Y-1.4498
G1 X3.404 Y-1.5152
G1 X3.2642 Y-1.5639
G1 X3.0916 Y-1.6056
G1 X2.9271 Y-1.6278
G1 X2.738 Y-1.6306
G1 X2.6065 Y-1.6198
G1 X2.442 Y-1.5945
G2 X2.3772 Y-1.5579 I0.0123 J0.0977
G1 X2.261 Y-1.4135
G1 X2.2516 Y-1.4017 F10.
G1 X2.238 Y-1.3935
G1 X2.1871 Y-1.3731 F13.5
G1 X2.1625 Y-1.3627
G1 X2.1582 Y-1.3606
G1 X2.0556 Y-1.3066
G1 X2.0278 Y-1.2935
G1 X2.0033 Y-1.2843
G1 X1.9699 Y-1.2747
G1 X1.9344 Y-1.2676
G1 X1.8986 Y-1.2626
G1 X1.8626 Y-1.259
G1 X1.8265 Y-1.2564
G1 X1.7904 Y-1.2546
G1 X1.7542 Y-1.2533
G1 X1.718 Y-1.2523
G1 X1.6819 Y-1.2517
G1 X1.6457 Y-1.2512
G1 X1.6095 Y-1.2509
G1 X1.5733 Y-1.2506
G1 X1.5371 Y-1.2504
G1 X1.4648 Y-1.2502
G1 X1.3562 Y-1.2501
G1 X1.1391 Y-1.25
G1 X0.0899
G1 X-1.9001
G1 X-3.8178
G1 X-3.8539 Y-1.2475
G1 X-3.8876 Y-1.2345
G1 X-3.9168 Y-1.2131
G1 X-3.9409 Y-1.1861
G1 X-3.9601 Y-1.1554
G1 X-3.9753 Y-1.1226
G1 X-3.9871 Y-1.0884
G1 X-3.9962 Y-1.0534
G1 X-4.0032 Y-1.0179
G1 X-4.0086 Y-0.9821
G1 X-4.0126 Y-0.9461
G1 X-4.0157 Y-0.9101
G1 X-4.018 Y-0.874
G1 X-4.0197 Y-0.8378
G1 X-4.021 Y-0.8017
G1 X-4.022 Y-0.7655
G1 X-4.0228 Y-0.7293
G1 X-4.0233 Y-0.6932
G1 X-4.0238 Y-0.657
G1 X-4.0241 Y-0.6208
G1 X-4.0243 Y-0.5846
G1 X-4.0245 Y-0.5484
G1 X-4.0247 Y-0.4761
G1 X-4.0248 Y-0.4446
G1 X-4.026 Y-0.4328
G1 X-4.0295 Y-0.4216
G1 X-4.0353 Y-0.4113
G1 X-4.0371 Y-0.4086
G1 X-4.0734 Y-0.3494
G1 X-4.0834 Y-0.333
G1 X-4.0865 Y-0.3271
G1 X-4.0951 Y-0.3083
G1 X-4.0987 Y-0.3001
G1 X-4.1264 Y-0.2331
G1 X-4.129 Y-0.2266
G1 X-4.1292 Y-0.2261 F10.
G1 X-4.1315 Y-0.2179
G1 X-4.136 Y-0.2014
G1 X-4.1372 Y-0.1968
G1 X-4.1381 Y-0.1932 F13.5
G1 X-4.1522 Y-0.1342
G1 X-4.1539 Y-0.1274
G1 X-4.1558 Y-0.1192
G1 X-4.1569 Y-0.111
G1 X-4.1589 Y-0.0945
G1 X-4.1596 Y-0.0863
G1 X-4.1648 Y-0.0206
G1 X-4.1654 Y-0.0123
G1 Y0.0123
G1 X-4.1648 Y0.0206
G1 X-4.1596 Y0.0863
G1 X-4.1589 Y0.0945
G1 X-4.1577 Y0.1038
G1 X-4.1569 Y0.111 F10.
G1 X-4.1558 Y0.1192
G1 X-4.1539 Y0.1274
G1 X-4.1522 Y0.1342
G1 X-4.1381 Y0.1932 F13.5
G1 X-4.1358 Y0.2023
G1 X-4.1315 Y0.2179
G1 X-4.1292 Y0.2261
G1 X-4.1276 Y0.2302
G1 X-4.1259 Y0.2343
G1 X-4.0987 Y0.3001
G1 X-4.0951 Y0.3083
G1 X-4.0865 Y0.3271
G1 X-4.0834 Y0.333
G1 X-4.0807 Y0.3375
G1 X-4.0737 Y0.3504
G1 X-4.065 Y0.3701
G1 X-4.0559 Y0.3961
G1 X-4.0468 Y0.4311
G1 X-4.0404 Y0.4667
G1 X-4.0359 Y0.5026
G1 X-4.0327 Y0.5386
G1 X-4.0305 Y0.5748
G1 X-4.0289 Y0.6109
G1 X-4.0278 Y0.6471
G1 X-4.027 Y0.6832
G1 X-4.0264 Y0.7194
G1 X-4.026 Y0.7556
G1 X-4.0257 Y0.7918
G1 X-4.0255 Y0.828
G1 X-4.0254 Y0.8641
G1 X-4.0252 Y0.9365
G1 X-4.0236 Y0.9727
G1 X-4.0119 Y1.0069
G1 X-3.9914 Y1.0368
G1 X-3.9651 Y1.0616
G1 X-3.935 Y1.0816
G1 X-3.9025 Y1.0975
G1 X-3.8685 Y1.1099
G1 X-3.8336 Y1.1194
G1 X-3.7982 Y1.1268
G1 X-3.7624 Y1.1324
G1 X-3.7265 Y1.1367
G1 X-3.6905 Y1.14
G1 X-3.6544 Y1.1424
G1 X-3.6182 Y1.1443
G1 X-3.5821 Y1.1457
G1 X-3.5459 Y1.1468
G1 X-3.5097 Y1.1476
G1 X-3.4736 Y1.1482
G1 X-3.4374 Y1.1486
G1 X-3.4012 Y1.149
G1 X-3.365 Y1.1492
G1 X-3.3288 Y1.1494
G1 X-3.2565 Y1.1497
G1 X-3.1479 Y1.1499
G1 X-2.967 Y1.15
G1 X-2.7499
G1 X-0.7599
G1 X1.2301
G1 X1.8102
G1 X1.8202 Y1.1509
G1 X1.83 Y1.1535
G1 X1.8391 Y1.1577
G1 X1.8474 Y1.1635
G1 X1.8911 Y1.1998
G1 X1.8993 Y1.2056
G1 X1.9158 Y1.2171
G1 X1.924 Y1.2227
G1 X1.9796 Y1.2598
G1 X1.9898 Y1.277 F10.
G1 X1.9918 Y1.2878
G1 X2.0102 Y1.3853 F13.5
G2 X2.0638 Y1.4577 I0.0971 J-0.0159
G1 X2.1625 Y1.503
G1 X2.294 Y1.5539
G1 X2.4502 Y1.5958
G1 X2.5982 Y1.6183
G1 X2.776 Y1.6323
G1 X2.96 Y1.6247
G1 X3.1245 Y1.5991
G1 X3.2971 Y1.5537
G1 X3.4122 Y1.5123
G2 X3.476 Y1.4511 I-0.029 J-0.094
G1 X3.5097 Y1.3447
G3 X3.5151 Y1.3305 I0.0605 J0.0148
G3 X3.5356 Y1.3077 I0.0551 J0.029 F10.
G1 X3.6425 Y1.2413 F13.5
G1 X3.6507 Y1.2357
G1 X3.6602 Y1.2291
G1 X3.6671 Y1.224
G1 X3.6812 Y1.2142
G1 X3.6962 Y1.2054
G1 X3.7152 Y1.1963
G1 X3.74 Y1.1867
G1 X3.7734 Y1.1768
G1 X3.8088 Y1.1693
G1 X3.8445 Y1.1637
G1 X3.8783 Y1.1508
G1 X3.9081 Y1.1302
G1 X3.9331 Y1.1041
G1 X3.9535 Y1.0742
G1 X3.9697 Y1.0418
G1 X3.9825 Y1.008
G1 X3.9925 Y0.9732
G1 X4.0002 Y0.9379
G1 X4.0061 Y0.9022
G1 X4.0063 Y0.9009
G1 X4.0081 Y0.8919
G1 X4.0114 Y0.8833
G1 X4.016 Y0.8753
G1 X4.0719 Y0.7934
G1 X4.0771 Y0.7851
G1 X4.0869 Y0.7687
G1 X4.13 Y0.6888
G3 X4.1366 Y0.681 I0.022 J0.0119 F10.
G1 X4.1387 Y0.6792
G1 X4.1405 Y0.6772
G1 X4.1422 Y0.675
G1 X4.1489 Y0.6646
G1 X4.1834 Y0.6119 F13.5
G2 X4.1785 Y0.5791 I-0.0209 J-0.0137
G1 X4.1782 Y0.5789
G3 X4.1605 Y0.554 I0.0403 J-0.0475 F10.
G1 X4.1579 Y0.5467 F13.5
G1 X4.1564 Y0.5426
G1 X4.1546 Y0.5385
G1 X4.1454 Y0.5221
G1 X4.144 Y0.52
G1 X4.1325 Y0.5056
G1 X4.1276 Y0.5005
G1 X4.1241 Y0.4974
G1 X4.1194 Y0.4937
G1 X4.1131 Y0.4884
G1 X4.1061 Y0.4814
G1 X4.0984 Y0.4724
G1 X4.0903 Y0.4611
G1 X4.0816 Y0.4468
G1 X4.0726 Y0.4287
G1 X4.0631 Y0.4052
G1 X4.0534 Y0.3739
G1 X4.0454 Y0.3386
G1 X4.0397 Y0.3029
G1 X4.0356 Y0.2669
G1 X4.0326 Y0.2309
G1 X4.0305 Y0.1948
G1 X4.029 Y0.1586
G1 X4.0278 Y0.1224
G1 X4.0271 Y0.0863
G1 X4.0265 Y0.0501
G1 X4.0261 Y0.0139
G1 X4.0258 Y-0.0223
G1 X4.0256 Y-0.0585
G1 X4.0254 Y-0.0946
G1 X4.0252 Y-0.167
G1 X4.0251 Y-0.2755
G1 X4.025 Y-0.3841
G1 X4.0256 Y-0.4122
G1 X4.0273 Y-0.425
G1 X4.0316 Y-0.4371
G1 X4.0384 Y-0.448
G1 X4.0473 Y-0.4573
G1 X4.058 Y-0.4644
G1 X4.07 Y-0.4691
G3 X4.0969 Y-0.4582 I0.0058 J0.0243 F10.
G3 X4.1007 Y-0.4464 I-0.0211 J0.0134 F13.5
G1 X4.1588 Y0.4718
G3 X4.1483 Y0.4938 I-0.025 J0.0016
G3 X4.1194 Y0.4937 I-0.0144 J-0.0204 F10.
G1 X4.1111 Y0.4874 F13.5
G1 X4.1029 Y0.4821
G1 X4.1009 Y0.4809
G1 X4.0947 Y0.4778
G1 X4.0865 Y0.4741
G1 X4.0782 Y0.4714
G1 X4.0737 Y0.4701
G1 X4.0667 Y0.4678
G1 X4.0605 Y0.4652
G1 X4.0532 Y0.4614
G1 X4.0451 Y0.4564
G1 X4.0371 Y0.4504
G1 X4.0281 Y0.4425
G1 X4.0186 Y0.4328
G1 X4.0089 Y0.421
G1 X3.9985 Y0.4062
G1 X3.988 Y0.3882
G1 X3.9771 Y0.3658
G1 X3.966 Y0.337
G1 X3.9557 Y0.3023
G1 X3.948 Y0.267
G1 X3.9422 Y0.2313
G1 X3.9378 Y0.1953
G1 X3.9345 Y0.1593
G1 X3.9321 Y0.1232
G1 X3.9303 Y0.0871
G1 X3.9289 Y0.0509
G1 X3.9279 Y0.0148
G1 X3.9272 Y-0.0214
G1 X3.9266 Y-0.0576
G1 X3.9262 Y-0.0938
G1 X3.9259 Y-0.13
G1 X3.9256 Y-0.1661
G1 X3.9255 Y-0.2023
G1 X3.9253 Y-0.2747
G1 Y-0.3109
G1 X3.9259 Y-0.347
G1 X3.9282 Y-0.3747
G1 X3.9317 Y-0.3961
G1 X3.936 Y-0.4137
G1 X3.9401 Y-0.4258
G1 X3.9451 Y-0.4368
G1 X3.9523 Y-0.4465
G1 X3.9613 Y-0.4546
G1 X3.9718 Y-0.4606
G1 X3.9834 Y-0.4643
G1 X3.9954 Y-0.4656
G1 X4.0371
G1 X4.0454 Y-0.4658
G1 X4.0536 Y-0.4663
G1 X4.0618 Y-0.4674
G1 X4.07 Y-0.4691
G3 X4.0962 Y-0.4567 I0.0043 J0.0246 F10.
G3 X4.0994 Y-0.4447 I-0.0218 J0.0122 F13.5
G1 X4.1045 Y0.4457
G3 X4.1006 Y0.4592 I-0.025 J0.0001
G3 X4.0737 Y0.4701 I-0.0211 J-0.0134 F10.
G1 X4.07 Y0.4691 F13.5
G1 X4.0618 Y0.4674
G1 X4.0536 Y0.4663
G1 X4.0454 Y0.4658
G1 X4.0371 Y0.4656
G1 X4.0244
G1 X4.0183 Y0.4652
G1 X4.0121 Y0.4644
G1 X4.0048 Y0.4629
G1 X3.9971 Y0.4606
G1 X3.9887 Y0.4573
G1 X3.9793 Y0.4527
G1 X3.9699 Y0.4472
G1 X3.9591 Y0.4396
G1 X3.9485 Y0.4308
G1 X3.937 Y0.4196
G1 X3.9251 Y0.4059
G1 X3.9129 Y0.3895
G1 X3.9006 Y0.3697
G1 X3.8878 Y0.3449
G1 X3.875 Y0.3143
G1 X3.8638 Y0.28
G1 X3.855 Y0.2449
G1 X3.8481 Y0.2093
G1 X3.8428 Y0.1735
G1 X3.8387 Y0.1376
G1 X3.8355 Y0.1016
G1 X3.833 Y0.0655
G1 X3.8311 Y0.0293
G1 X3.8296 Y-0.0068
G1 X3.8285 Y-0.043
G1 X3.8277 Y-0.0792
G1 X3.827 Y-0.1153
G1 X3.8265 Y-0.1515
G1 X3.8262 Y-0.1877
G1 X3.8259 Y-0.2239
G1 Y-0.2601
G1 X3.8266 Y-0.2962
G1 X3.8288 Y-0.3324
G1 X3.833 Y-0.3669
G1 X3.8379 Y-0.3909
G1 X3.8438 Y-0.4113
G1 X3.8501 Y-0.428
G1 X3.8521 Y-0.4322
G1 X3.859 Y-0.4433
G1 X3.8682 Y-0.4527
G1 X3.8793 Y-0.4597
G1 X3.8917 Y-0.4641
G1 X3.9048 Y-0.4656
G1 X3.9954
G3 X4.0184 Y-0.4479 I-0.0009 J0.025 F10.
G1 X4.0192 Y-0.4447 F13.5
G1 X4.0195 Y-0.4414
G1 X4.0485 Y0.4397
G1 X4.0484 Y0.4425
G1 X4.0481 Y0.4452
G1 X4.0474 Y0.4479
G3 X4.0244 Y0.4656 I-0.0239 J-0.0074 F10.
G1 X3.9549 F13.5
G1 X3.9445 Y0.465
G1 X3.9367 Y0.464
G1 X3.9285 Y0.4622
G1 X3.9193 Y0.4595
G1 X3.9094 Y0.4556
G1 X3.8989 Y0.4506
G1 X3.8873 Y0.4437
G1 X3.8758 Y0.4356
G1 X3.8627 Y0.4247
G1 X3.8502 Y0.4125
G1 X3.8361 Y0.3965
G1 X3.8228 Y0.3784
G1 X3.8087 Y0.3557
G1 X3.7943 Y0.328
G1 X3.7804 Y0.2946
G1 X3.7691 Y0.2602
G1 X3.76 Y0.2252
G1 X3.7527 Y0.1898
G1 X3.7468 Y0.1541
G1 X3.7422 Y0.1182
G1 X3.7385 Y0.0822
G1 X3.7355 Y0.0461
G1 X3.7332 Y0.01
G1 X3.7314 Y-0.0261
G1 X3.73 Y-0.0623
G1 X3.7288 Y-0.0984
G1 X3.728 Y-0.1346
G1 X3.7274 Y-0.1708
G1 X3.7271 Y-0.207
G1 X3.7275 Y-0.2432
G1 X3.7288 Y-0.2793
G1 X3.7315 Y-0.3154
G1 X3.736 Y-0.3513
G1 X3.7418 Y-0.3811
G1 X3.7483 Y-0.4046
G1 X3.7552 Y-0.4232
G1 X3.7591 Y-0.4317
G1 X3.766 Y-0.443
G1 X3.7752 Y-0.4525
G1 X3.7864 Y-0.4596
G1 X3.7989 Y-0.464
G1 X3.812 Y-0.4656
G1 X3.9048
G3 X3.9278 Y-0.4479 I-0.0009 J0.025 F10.
G1 X3.9285 Y-0.445 F13.5
G1 X3.9289 Y-0.442
G1 X3.979 Y0.4391
G1 Y0.4421
G1 X3.9786 Y0.4451
G1 X3.9779 Y0.4479
G3 X3.9549 Y0.4656 I-0.0239 J-0.0074 F10.
G1 X3.8727 F13.5
G1 X3.8627 Y0.4651
G1 X3.8548 Y0.464
G1 X3.8454 Y0.462
G1 X3.8358 Y0.4591
G1 X3.825 Y0.4549
G1 X3.8136 Y0.4494
G1 X3.8015 Y0.4422
G1 X3.7883 Y0.433
G1 X3.775 Y0.422
G1 X3.7604 Y0.4077
G1 X3.7461 Y0.3913
G1 X3.7311 Y0.371
G1 X3.7156 Y0.3462
G1 X3.7002 Y0.3162
G1 X3.6862 Y0.2828
G1 X3.6747 Y0.2485
G1 X3.6652 Y0.2136
G1 X3.6575 Y0.1782
G1 X3.6512 Y0.1426
G1 X3.646 Y0.1068
G1 X3.6418 Y0.0709
G1 X3.6384 Y0.0348
G1 X3.6357 Y-0.0012
G1 X3.6335 Y-0.0373
G1 X3.6317 Y-0.0735
G1 X3.6304 Y-0.1096
G1 X3.6295 Y-0.1458
G1 X3.6291 Y-0.182
G1 X3.6295 Y-0.2182
G1 X3.6307 Y-0.2543
G1 X3.6331 Y-0.2904
G1 X3.637 Y-0.3264
G1 X3.6429 Y-0.3621
G1 X3.6498 Y-0.391
G1 X3.6566 Y-0.4118
G1 X3.6644 Y-0.4306
G1 X3.6661 Y-0.4339
G1 X3.6732 Y-0.4445
G1 X3.6823 Y-0.4534
G1 X3.6932 Y-0.46
G1 X3.7053 Y-0.4642
G1 X3.718 Y-0.4656
G1 X3.812
G3 X3.8351 Y-0.4479 I-0.0009 J0.025 F10.
G1 X3.8357 Y-0.4451 F13.5
G1 X3.8361 Y-0.4423
G1 X3.8968 Y0.4388
G1 Y0.4419
G1 X3.8964 Y0.445
G1 X3.8957 Y0.4479
G3 X3.8727 Y0.4656 I-0.0239 J-0.0074 F10.
G1 X3.7822 F13.5
G1 X3.7763 Y0.4653
G1 X3.7677 Y0.4641
G1 X3.7581 Y0.4619
G1 X3.7475 Y0.4586
G1 X3.7365 Y0.4542
G1 X3.7239 Y0.448
G1 X3.7115 Y0.4405
G1 X3.6971 Y0.4302
G1 X3.6833 Y0.4186
G1 X3.6677 Y0.403
G1 X3.6527 Y0.3856
G1 X3.6367 Y0.3635
G1 X3.6202 Y0.3365
G1 X3.6039 Y0.3042
G1 X3.5902 Y0.2707
G1 X3.5788 Y0.2364
G1 X3.5692 Y0.2015
G1 X3.5613 Y0.1662
G1 X3.5547 Y0.1307
G1 X3.5492 Y0.0949
G1 X3.5447 Y0.059
G1 X3.5409 Y0.023
G1 X3.5379 Y-0.0131
G1 X3.5355 Y-0.0492
G1 X3.5336 Y-0.0853
G1 X3.5324 Y-0.1214
G1 X3.5318 Y-0.1576
G1 X3.5319 Y-0.1938
G1 X3.5329 Y-0.23
G1 X3.5349 Y-0.2661
G1 X3.5382 Y-0.3021
G1 X3.5431 Y-0.338
G1 X3.5502 Y-0.3735
G1 X3.5575 Y-0.3999
G1 X3.5647 Y-0.4194
G1 X3.5703 Y-0.4316
G1 X3.5772 Y-0.443
G1 X3.5865 Y-0.4525
G1 X3.5976 Y-0.4596
G1 X3.6101 Y-0.464
G1 X3.6233 Y-0.4656
G1 X3.718
G3 X3.741 Y-0.4479 I-0.0009 J0.025 F10.
G1 X3.7417 Y-0.4452 F13.5
G1 X3.742 Y-0.4424
G1 X3.8063 Y0.4387
G1 Y0.4418
G1 X3.806 Y0.4449
G1 X3.8053 Y0.4479
G3 X3.7822 Y0.4656 I-0.0239 J-0.0074 F10.
G1 X3.7 F13.5
G1 X3.6884 Y0.465
G1 X3.6793 Y0.4638
G1 X3.6699 Y0.4618
G1 X3.659 Y0.4585
G1 X3.6477 Y0.4541
G1 X3.6353 Y0.4481
G1 X3.6219 Y0.4402
G1 X3.6081 Y0.4305
G1 X3.5928 Y0.4178
G1 X3.5776 Y0.403
G1 X3.5615 Y0.3845
G1 X3.5445 Y0.3616
G1 X3.5278 Y0.3347
G1 X3.5112 Y0.3025
G1 X3.4971 Y0.2692
G1 X3.4853 Y0.235
G1 X3.4752 Y0.2003
G1 X3.4667 Y0.1651
G1 X3.4596 Y0.1296
G1 X3.4536 Y0.0939
G1 X3.4486 Y0.0581
G1 X3.4444 Y0.0221
G1 X3.4411 Y-0.0139
G1 X3.4384 Y-0.05
G1 X3.4364 Y-0.0861
G1 X3.4352 Y-0.1222
G1 X3.4347 Y-0.1584
G1 X3.435 Y-0.1946
G1 X3.4362 Y-0.2308
G1 X3.4386 Y-0.2669
G1 X3.4423 Y-0.3029
G1 X3.4476 Y-0.3387
G1 X3.4549 Y-0.3741
G1 X3.4627 Y-0.4013
G1 X3.4703 Y-0.4213
G1 X3.4754 Y-0.4321
G1 X3.4823 Y-0.4433
G1 X3.4916 Y-0.4527
G1 X3.5027 Y-0.4597
G1 X3.5151 Y-0.4641
G1 X3.5281 Y-0.4656
G1 X3.6233
G3 X3.6463 Y-0.4479 I-0.0009 J0.025 F10.
G1 X3.647 Y-0.4454 F13.5
G1 X3.6473 Y-0.4427
G1 X3.7241 Y0.4384
G1 Y0.4416
G1 X3.7238 Y0.4448
G1 X3.723 Y0.4479
G3 X3.7 Y0.4656 I-0.0239 J-0.0074 F10.
G1 X3.6096 F13.5
G1 X3.5982 Y0.465
G1 X3.5889 Y0.4638
G1 X3.5793 Y0.4617
G1 X3.5682 Y0.4584
G1 X3.5565 Y0.4538
G1 X3.5438 Y0.4477
G1 X3.5301 Y0.4396
G1 X3.5159 Y0.4296
G1 X3.5003 Y0.4166
G1 X3.4846 Y0.4013
G1 X3.468 Y0.3824
G1 X3.4506 Y0.3589
G1 X3.433 Y0.3305
G1 X3.4164 Y0.2983
G1 X3.4022 Y0.265
G1 X3.3901 Y0.2309
G1 X3.3799 Y0.1962
G1 X3.3711 Y0.1611
G1 X3.3636 Y0.1257
G1 X3.3573 Y0.0901
G1 X3.3521 Y0.0543
G1 X3.3477 Y0.0184
G1 X3.3442 Y-0.0176
G1 X3.3414 Y-0.0537
G1 X3.3395 Y-0.0898
G1 X3.3383 Y-0.126
G1 X3.3379 Y-0.1622
G1 X3.3385 Y-0.1984
G1 X3.34 Y-0.2345
G1 X3.3427 Y-0.2706
G1 X3.3468 Y-0.3065
G1 X3.3524 Y-0.3423
G1 X3.3601 Y-0.3776
G1 X3.3681 Y-0.4041
G1 X3.3759 Y-0.424
G1 X3.3803 Y-0.4328
G1 X3.3873 Y-0.4438
G1 X3.3965 Y-0.453
G1 X3.4075 Y-0.4598
G1 X3.4198 Y-0.4641
G1 X3.4327 Y-0.4656
G1 X3.5281
G3 X3.5512 Y-0.4479 I-0.0009 J0.025 F10.
G1 X3.5518 Y-0.4454 F13.5
G1 X3.5522 Y-0.4429
G1 X3.6336 Y0.4383
G1 X3.6337 Y0.4415
G1 X3.6333 Y0.4448
G1 X3.6326 Y0.4479
G3 X3.6096 Y0.4656 I-0.0239 J-0.0074 F10.
G1 X3.5191 F13.5
G1 X3.5066 Y0.4649
G1 X3.4971 Y0.4637
G1 X3.4874 Y0.4616
G1 X3.4762 Y0.4583
G1 X3.4642 Y0.4536
G1 X3.4515 Y0.4474
G1 X3.4371 Y0.4389
G1 X3.4229 Y0.429
G1 X3.4068 Y0.4156
G1 X3.3909 Y0.4001
G1 X3.3739 Y0.3806
G1 X3.356 Y0.3564
G1 X3.3378 Y0.3272
G1 X3.3212 Y0.295
G1 X3.307 Y0.2618
G1 X3.2948 Y0.2277
G1 X3.2843 Y0.1931
G1 X3.2753 Y0.1581
G1 X3.2676 Y0.1227
G1 X3.2611 Y0.0871
G1 X3.2556 Y0.0513
G1 X3.2511 Y0.0154
G1 X3.2475 Y-0.0206
G1 X3.2447 Y-0.0566
G1 X3.2427 Y-0.0928
G1 X3.2417 Y-0.1289
G1 X3.2414 Y-0.1651
G1 X3.2422 Y-0.2013
G1 X3.2439 Y-0.2374
G1 X3.2468 Y-0.2735
G1 X3.2512 Y-0.3094
G1 X3.2571 Y-0.3451
G1 X3.2651 Y-0.3801
G1 X3.2731 Y-0.406
G1 X3.2811 Y-0.4257
G1 X3.2849 Y-0.4333
G1 X3.2919 Y-0.4441
G1 X3.3011 Y-0.4531
G1 X3.3121 Y-0.4599
G1 X3.3242 Y-0.4641
G1 X3.3371 Y-0.4656
G1 X3.4327
G3 X3.4557 Y-0.4479 I-0.0009 J0.025 F10.
G1 X3.4563 Y-0.4455 F13.5
G1 X3.4567 Y-0.443
G1 X3.5431 Y0.4381
G3 X3.5421 Y0.4479 I-0.0249 J0.0024
G3 X3.5191 Y0.4656 I-0.0239 J-0.0074 F10.
G1 X3.4205 F13.5
G1 X3.4143 Y0.4652
G1 X3.4047 Y0.464
G1 X3.3947 Y0.4619
G1 X3.3836 Y0.4585
G1 X3.3711 Y0.4537
G1 X3.3584 Y0.4475
G1 X3.3437 Y0.4388
G1 X3.3293 Y0.4287
G1 X3.3129 Y0.4151
G1 X3.2968 Y0.3994
G1 X3.2793 Y0.3794
G1 X3.261 Y0.3546
G1 X3.2424 Y0.3247
G1 X3.2258 Y0.2926
G1 X3.2115 Y0.2593
G1 X3.1992 Y0.2253
G1 X3.1885 Y0.1907
G1 X3.1793 Y0.1557
G1 X3.1715 Y0.1204
G1 X3.1648 Y0.0849
G1 X3.1592 Y0.0491
G1 X3.1546 Y0.0132
G1 X3.1509 Y-0.0228
G1 X3.1482 Y-0.0588
G1 X3.1462 Y-0.095
G1 X3.1452 Y-0.1311
G1 X3.1451 Y-0.1673
G1 X3.1459 Y-0.2035
G1 X3.1478 Y-0.2396
G1 X3.151 Y-0.2757
G1 X3.1555 Y-0.3116
G1 X3.1617 Y-0.3472
G1 X3.1697 Y-0.3818
G1 X3.1778 Y-0.4073
G1 X3.1858 Y-0.4268
G1 X3.1893 Y-0.4336
G1 X3.1963 Y-0.4443
G1 X3.2055 Y-0.4533
G1 X3.2164 Y-0.46
G1 X3.2285 Y-0.4641
G1 X3.2413 Y-0.4656
G1 X3.3371
G3 X3.3601 Y-0.4479 I-0.0009 J0.025 F10.
G1 X3.3607 Y-0.4455 F13.5
G1 X3.3611 Y-0.4429
G1 X3.4445 Y0.4382
G1 X3.4446 Y0.4415
G1 X3.4442 Y0.4447
G1 X3.4435 Y0.4479
G3 X3.4205 Y0.4656 I-0.0239 J-0.0074 F10.
G1 X3.33 F13.5
G1 X3.3206 Y0.4651
G1 X3.3111 Y0.4638
G1 X3.3009 Y0.4617
G1 X3.2898 Y0.4583
G1 X3.2771 Y0.4534
G1 X3.2644 Y0.4472
G1 X3.2495 Y0.4384
G1 X3.2349 Y0.4282
G1 X3.2183 Y0.4144
G1 X3.202 Y0.3985
G1 X3.1843 Y0.3782
G1 X3.1657 Y0.353
G1 X3.1467 Y0.3226
G1 X3.1301 Y0.2904
G1 X3.1158 Y0.2572
G1 X3.1033 Y0.2232
G1 X3.0926 Y0.1887
G1 X3.0833 Y0.1537
G1 X3.0754 Y0.1184
G1 X3.0686 Y0.0829
G1 X3.0629 Y0.0472
G1 X3.0583 Y0.0113
G1 X3.0545 Y-0.0247
G1 X3.0517 Y-0.0608
G1 X3.0499 Y-0.0969
G1 X3.0489 Y-0.1331
G1 X3.0488 Y-0.1693
G1 X3.0498 Y-0.2054
G1 X3.0518 Y-0.2416
G1 X3.0551 Y-0.2776
G1 X3.0598 Y-0.3135
G1 X3.0661 Y-0.3491
G1 X3.0742 Y-0.3833
G1 X3.0824 Y-0.4084
G1 X3.0904 Y-0.4278
G1 X3.0935 Y-0.4339
G1 X3.1006 Y-0.4445
G1 X3.1098 Y-0.4534
G1 X3.1207 Y-0.46
G1 X3.1327 Y-0.4642
G1 X3.1454 Y-0.4656
G1 X3.2413
G3 X3.2643 Y-0.4479 I-0.0009 J0.025 F10.
G1 X3.2649 Y-0.4455 F13.5
G1 X3.2653 Y-0.4431
G1 X3.354 Y0.4381
G3 X3.353 Y0.4479 I-0.0249 J0.0025
G3 X3.33 Y0.4656 I-0.0239 J-0.0074 F10.
G1 X3.2396 F13.5
G1 X3.2265 Y0.4649
G1 X3.2169 Y0.4636
G1 X3.2066 Y0.4614
G1 X3.1955 Y0.4581
G1 X3.1826 Y0.4531
G1 X3.1698 Y0.4469
G1 X3.1549 Y0.4381
G1 X3.1401 Y0.4277
G1 X3.1234 Y0.4138
G1 X3.1069 Y0.3978
G1 X3.0889 Y0.3771
G1 X3.0701 Y0.3517
G1 X3.051 Y0.321
G1 X3.0344 Y0.2888
