%
(carbideFacingTest)
(T1  D=0.25 CR=0 - ZMIN=-0.09 - flat end mill)
G90
G17
G20
G28 G91 Z0
G90

(Face2)
M9
T1 M6
(.03" DOC)
S4500 M3
G54
G0 X2.015 Y-1.5505
Z0.5
Z0.1
G1 Z-0.005 F72
G18 G3 X1.99 Z-0.03 I-0.025 K0
G1 X1.8973
X-1.8973
X-1.9745
G3 X-1.9995 Z-0.005 I0 K0.025
G0 Z0.1
X2.0571 Y-1.452
G1 Z-0.005 F72
G3 X2.0321 Z-0.03 I-0.025 K0
G1 X1.9
X-1.9
X-2.0194
G3 X-2.0444 Z-0.005 I0 K0.025
G0 Z0.1
X2.0625 Y-1.3534
G1 Z-0.005 F72
G3 X2.0375 Z-0.03 I-0.025 K0
G1 X1.9
X-1.9
X-2.025
G3 X-2.05 Z-0.005 I0 K0.025
G0 Z0.1
X2.0625 Y-1.2549
G1 Z-0.005 F72
G3 X2.0375 Z-0.03 I-0.025 K0
G1 X1.9
X-1.9
X-2.025
G3 X-2.05 Z-0.005 I0 K0.025
G0 Z0.1
X2.0625 Y-1.1564
G1 Z-0.005 F72
G3 X2.0375 Z-0.03 I-0.025 K0
G1 X1.9
X-1.9
X-2.025
G3 X-2.05 Z-0.005 I0 K0.025
G0 Z0.1
X2.0625 Y-1.0579
G1 Z-0.005 F72
G3 X2.0375 Z-0.03 I-0.025 K0
G1 X1.9
X-1.9
X-2.025
G3 X-2.05 Z-0.005 I0 K0.025
G0 Z0.1
X2.0625 Y-0.9593
G1 Z-0.005 F72
G3 X2.0375 Z-0.03 I-0.025 K0
G1 X1.9
X-1.9
X-2.025
G3 X-2.05 Z-0.005 I0 K0.025
G0 Z0.1
X2.0625 Y-0.8608
G1 Z-0.005 F72
G3 X2.0375 Z-0.03 I-0.025 K0
G1 X1.9
X-1.9
X-2.025
G3 X-2.05 Z-0.005 I0 K0.025
G0 Z0.1
X2.0625 Y-0.7623
G1 Z-0.005 F72
G3 X2.0375 Z-0.03 I-0.025 K0
G1 X1.9
X-1.9
X-2.025
G3 X-2.05 Z-0.005 I0 K0.025
G0 Z0.1
X2.0625 Y-0.6638
G1 Z-0.005 F72
G3 X2.0375 Z-0.03 I-0.025 K0
G1 X1.9
X-1.9
X-2.025
G3 X-2.05 Z-0.005 I0 K0.025
G0 Z0.1
X2.0625 Y-0.5652
G1 Z-0.005 F72
G3 X2.0375 Z-0.03 I-0.025 K0
G1 X1.9
X-1.9
X-2.025
G3 X-2.05 Z-0.005 I0 K0.025
G0 Z0.1
X2.0625 Y-0.4667
G1 Z-0.005 F72
G3 X2.0375 Z-0.03 I-0.025 K0
G1 X1.9
X-1.9
X-2.025
G3 X-2.05 Z-0.005 I0 K0.025
G0 Z0.1
X2.0625 Y-0.3682
G1 Z-0.005 F72
G3 X2.0375 Z-0.03 I-0.025 K0
G1 X1.9
X-1.9
X-2.025
G3 X-2.05 Z-0.005 I0 K0.025
G0 Z0.1
X2.0625 Y-0.2697
G1 Z-0.005 F72
G3 X2.0375 Z-0.03 I-0.025 K0
G1 X1.9
X-1.9
X-2.025
G3 X-2.05 Z-0.005 I0 K0.025
G0 Z0.1
X2.0625 Y-0.1711
G1 Z-0.005 F72
G3 X2.0375 Z-0.03 I-0.025 K0
G1 X1.9
X-1.9
X-2.025
G3 X-2.05 Z-0.005 I0 K0.025
G0 Z0.1
X2.0625 Y-0.0726
G1 Z-0.005 F72
G3 X2.0375 Z-0.03 I-0.025 K0
G1 X1.9
X-1.9
X-2.025
G3 X-2.05 Z-0.005 I0 K0.025
G0 Z0.1
X2.0625 Y0.0259
G1 Z-0.005 F72
G3 X2.0375 Z-0.03 I-0.025 K0
G1 X1.9
X-1.9
X-2.025
G3 X-2.05 Z-0.005 I0 K0.025
G0 Z0.1
X2.0625 Y0.1244
G1 Z-0.005 F72
G3 X2.0375 Z-0.03 I-0.025 K0
G1 X1.9
X-1.9
X-2.025
G3 X-2.05 Z-0.005 I0 K0.025
G0 Z0.1
X2.0625 Y0.223
G1 Z-0.005 F72
G3 X2.0375 Z-0.03 I-0.025 K0
G1 X1.9
X-1.9
X-2.025
G3 X-2.05 Z-0.005 I0 K0.025
G0 Z0.1
X2.0625 Y0.3215
G1 Z-0.005 F72
G3 X2.0375 Z-0.03 I-0.025 K0
G1 X1.9
X-1.9
X-2.025
G3 X-2.05 Z-0.005 I0 K0.025
G0 Z0.1
X2.0625 Y0.42
G1 Z-0.005 F72
G3 X2.0375 Z-0.03 I-0.025 K0
G1 X1.9
X-1.9
X-2.025
G3 X-2.05 Z-0.005 I0 K0.025
G0 Z0.1
X2.0625 Y0.5185
G1 Z-0.005 F72
G3 X2.0375 Z-0.03 I-0.025 K0
G1 X1.9
X-1.9
X-2.025
G3 X-2.05 Z-0.005 I0 K0.025
G0 Z0.1
X2.0625 Y0.6171
G1 Z-0.005 F72
G3 X2.0375 Z-0.03 I-0.025 K0
G1 X1.9
X-1.9
X-2.025
G3 X-2.05 Z-0.005 I0 K0.025
G0 Z0.1
X2.0625 Y0.7156
G1 Z-0.005 F72
G3 X2.0375 Z-0.03 I-0.025 K0
G1 X1.9
X-1.9
X-2.025
G3 X-2.05 Z-0.005 I0 K0.025
G0 Z0.1
X2.0625 Y0.8141
G1 Z-0.005 F72
G3 X2.0375 Z-0.03 I-0.025 K0
G1 X1.9
X-1.9
X-2.025
G3 X-2.05 Z-0.005 I0 K0.025
G0 Z0.1
X2.0625 Y0.9126
G1 Z-0.005 F72
G3 X2.0375 Z-0.03 I-0.025 K0
G1 X1.9
X-1.9
X-2.025
G3 X-2.05 Z-0.005 I0 K0.025
G0 Z0.1
X2.0625 Y1.0112
G1 Z-0.005 F72
G3 X2.0375 Z-0.03 I-0.025 K0
G1 X1.9
X-1.9
X-2.025
G3 X-2.05 Z-0.005 I0 K0.025
G0 Z0.1
X2.0625 Y1.1097
G1 Z-0.005 F72
G3 X2.0375 Z-0.03 I-0.025 K0
G1 X1.9
X-1.9
X-2.025
G3 X-2.05 Z-0.005 I0 K0.025
G0 Z0.1
X2.0625 Y1.2082
G1 Z-0.005 F72
G3 X2.0375 Z-0.03 I-0.025 K0
G1 X1.9
X-1.9
X-2.025
G3 X-2.05 Z-0.005 I0 K0.025
G0 Z0.1
X2.0625 Y1.3067
G1 Z-0.005 F72
G3 X2.0375 Z-0.03 I-0.025 K0
G1 X1.9
X-1.9
X-2.025
G3 X-2.05 Z-0.005 I0 K0.025
G0 Z0.1
X2.0623 Y1.4053
G1 Z-0.005 F72
G3 X2.0373 Z-0.03 I-0.025 K0
G1 X1.9
X-1.9
X-2.0248
G3 X-2.0498 Z-0.005 I0 K0.025
G0 Z0.1
X2.015 Y-1.5505
G1 Z-0.035 F72
G3 X1.99 Z-0.06 I-0.025 K0
G1 X1.8973
X-1.8973
X-1.9745
G3 X-1.9995 Z-0.035 I0 K0.025
G0 Z0.1
X2.0571 Y-1.452
G1 Z-0.035 F72
G3 X2.0321 Z-0.06 I-0.025 K0
G1 X1.9
X-1.9
X-2.0194
G3 X-2.0444 Z-0.035 I0 K0.025
G0 Z0.1
X2.0625 Y-1.3534
G1 Z-0.035 F72
G3 X2.0375 Z-0.06 I-0.025 K0
G1 X1.9
X-1.9
X-2.025
G3 X-2.05 Z-0.035 I0 K0.025
G0 Z0.1
X2.0625 Y-1.2549
G1 Z-0.035 F72
G3 X2.0375 Z-0.06 I-0.025 K0
G1 X1.9
X-1.9
X-2.025
G3 X-2.05 Z-0.035 I0 K0.025
G0 Z0.1
X2.0625 Y-1.1564
G1 Z-0.035 F72
G3 X2.0375 Z-0.06 I-0.025 K0
G1 X1.9
X-1.9
X-2.025
G3 X-2.05 Z-0.035 I0 K0.025
G0 Z0.1
X2.0625 Y-1.0579
G1 Z-0.035 F72
G3 X2.0375 Z-0.06 I-0.025 K0
G1 X1.9
X-1.9
X-2.025
G3 X-2.05 Z-0.035 I0 K0.025
G0 Z0.1
X2.0625 Y-0.9593
G1 Z-0.035 F72
G3 X2.0375 Z-0.06 I-0.025 K0
G1 X1.9
X-1.9
X-2.025
G3 X-2.05 Z-0.035 I0 K0.025
G0 Z0.1
X2.0625 Y-0.8608
G1 Z-0.035 F72
G3 X2.0375 Z-0.06 I-0.025 K0
G1 X1.9
X-1.9
X-2.025
G3 X-2.05 Z-0.035 I0 K0.025
G0 Z0.1
X2.0625 Y-0.7623
G1 Z-0.035 F72
G3 X2.0375 Z-0.06 I-0.025 K0
G1 X1.9
X-1.9
X-2.025
G3 X-2.05 Z-0.035 I0 K0.025
G0 Z0.1
X2.0625 Y-0.6638
G1 Z-0.035 F72
G3 X2.0375 Z-0.06 I-0.025 K0
G1 X1.9
X-1.9
X-2.025
G3 X-2.05 Z-0.035 I0 K0.025
G0 Z0.1
X2.0625 Y-0.5652
G1 Z-0.035 F72
G3 X2.0375 Z-0.06 I-0.025 K0
G1 X1.9
X-1.9
X-2.025
G3 X-2.05 Z-0.035 I0 K0.025
G0 Z0.1
X2.0625 Y-0.4667
G1 Z-0.035 F72
G3 X2.0375 Z-0.06 I-0.025 K0
G1 X1.9
X-1.9
X-2.025
G3 X-2.05 Z-0.035 I0 K0.025
G0 Z0.1
X2.0625 Y-0.3682
G1 Z-0.035 F72
G3 X2.0375 Z-0.06 I-0.025 K0
G1 X1.9
X-1.9
X-2.025
G3 X-2.05 Z-0.035 I0 K0.025
G0 Z0.1
X2.0625 Y-0.2697
G1 Z-0.035 F72
G3 X2.0375 Z-0.06 I-0.025 K0
G1 X1.9
X-1.9
X-2.025
G3 X-2.05 Z-0.035 I0 K0.025
G0 Z0.1
X2.0625 Y-0.1711
G1 Z-0.035 F72
G3 X2.0375 Z-0.06 I-0.025 K0
G1 X1.9
X-1.9
X-2.025
G3 X-2.05 Z-0.035 I0 K0.025
G0 Z0.1
X2.0625 Y-0.0726
G1 Z-0.035 F72
G3 X2.0375 Z-0.06 I-0.025 K0
G1 X1.9
X-1.9
X-2.025
G3 X-2.05 Z-0.035 I0 K0.025
G0 Z0.1
X2.0625 Y0.0259
G1 Z-0.035 F72
G3 X2.0375 Z-0.06 I-0.025 K0
G1 X1.9
X-1.9
X-2.025
G3 X-2.05 Z-0.035 I0 K0.025
G0 Z0.1
X2.0625 Y0.1244
G1 Z-0.035 F72
G3 X2.0375 Z-0.06 I-0.025 K0
G1 X1.9
X-1.9
X-2.025
G3 X-2.05 Z-0.035 I0 K0.025
G0 Z0.1
X2.0625 Y0.223
G1 Z-0.035 F72
G3 X2.0375 Z-0.06 I-0.025 K0
G1 X1.9
X-1.9
X-2.025
G3 X-2.05 Z-0.035 I0 K0.025
G0 Z0.1
X2.0625 Y0.3215
G1 Z-0.035 F72
G3 X2.0375 Z-0.06 I-0.025 K0
G1 X1.9
X-1.9
X-2.025
G3 X-2.05 Z-0.035 I0 K0.025
G0 Z0.1
X2.0625 Y0.42
G1 Z-0.035 F72
G3 X2.0375 Z-0.06 I-0.025 K0
G1 X1.9
X-1.9
X-2.025
G3 X-2.05 Z-0.035 I0 K0.025
G0 Z0.1
X2.0625 Y0.5185
G1 Z-0.035 F72
G3 X2.0375 Z-0.06 I-0.025 K0
G1 X1.9
X-1.9
X-2.025
G3 X-2.05 Z-0.035 I0 K0.025
G0 Z0.1
X2.0625 Y0.6171
G1 Z-0.035 F72
G3 X2.0375 Z-0.06 I-0.025 K0
G1 X1.9
X-1.9
X-2.025
G3 X-2.05 Z-0.035 I0 K0.025
G0 Z0.1
X2.0625 Y0.7156
G1 Z-0.035 F72
G3 X2.0375 Z-0.06 I-0.025 K0
G1 X1.9
X-1.9
X-2.025
G3 X-2.05 Z-0.035 I0 K0.025
G0 Z0.1
X2.0625 Y0.8141
G1 Z-0.035 F72
G3 X2.0375 Z-0.06 I-0.025 K0
G1 X1.9
X-1.9
X-2.025
G3 X-2.05 Z-0.035 I0 K0.025
G0 Z0.1
X2.0625 Y0.9126
G1 Z-0.035 F72
G3 X2.0375 Z-0.06 I-0.025 K0
G1 X1.9
X-1.9
X-2.025
G3 X-2.05 Z-0.035 I0 K0.025
G0 Z0.1
X2.0625 Y1.0112
G1 Z-0.035 F72
G3 X2.0375 Z-0.06 I-0.025 K0
G1 X1.9
X-1.9
X-2.025
G3 X-2.05 Z-0.035 I0 K0.025
G0 Z0.1
X2.0625 Y1.1097
G1 Z-0.035 F72
G3 X2.0375 Z-0.06 I-0.025 K0
G1 X1.9
X-1.9
X-2.025
G3 X-2.05 Z-0.035 I0 K0.025
G0 Z0.1
X2.0625 Y1.2082
G1 Z-0.035 F72
G3 X2.0375 Z-0.06 I-0.025 K0
G1 X1.9
X-1.9
X-2.025
G3 X-2.05 Z-0.035 I0 K0.025
G0 Z0.1
X2.0625 Y1.3067
G1 Z-0.035 F72
G3 X2.0375 Z-0.06 I-0.025 K0
G1 X1.9
X-1.9
X-2.025
G3 X-2.05 Z-0.035 I0 K0.025
G0 Z0.1
X2.0623 Y1.4053
G1 Z-0.035 F72
G3 X2.0373 Z-0.06 I-0.025 K0
G1 X1.9
X-1.9
X-2.0248
G3 X-2.0498 Z-0.035 I0 K0.025
G0 Z0.1
X2.015 Y-1.5505
G1 Z-0.065 F72
G3 X1.99 Z-0.09 I-0.025 K0
G1 X1.8973
X-1.8973
X-1.9745
G3 X-1.9995 Z-0.065 I0 K0.025
G0 Z0.1
X2.0571 Y-1.452
G1 Z-0.065 F72
G3 X2.0321 Z-0.09 I-0.025 K0
G1 X1.9
X-1.9
X-2.0194
G3 X-2.0444 Z-0.065 I0 K0.025
G0 Z0.1
X2.0625 Y-1.3534
G1 Z-0.065 F72
G3 X2.0375 Z-0.09 I-0.025 K0
G1 X1.9
X-1.9
X-2.025
G3 X-2.05 Z-0.065 I0 K0.025
G0 Z0.1
X2.0625 Y-1.2549
G1 Z-0.065 F72
G3 X2.0375 Z-0.09 I-0.025 K0
G1 X1.9
X-1.9
X-2.025
G3 X-2.05 Z-0.065 I0 K0.025
G0 Z0.1
X2.0625 Y-1.1564
G1 Z-0.065 F72
G3 X2.0375 Z-0.09 I-0.025 K0
G1 X1.9
X-1.9
X-2.025
G3 X-2.05 Z-0.065 I0 K0.025
G0 Z0.1
X2.0625 Y-1.0579
G1 Z-0.065 F72
G3 X2.0375 Z-0.09 I-0.025 K0
G1 X1.9
X-1.9
X-2.025
G3 X-2.05 Z-0.065 I0 K0.025
G0 Z0.1
X2.0625 Y-0.9593
G1 Z-0.065 F72
G3 X2.0375 Z-0.09 I-0.025 K0
G1 X1.9
X-1.9
X-2.025
G3 X-2.05 Z-0.065 I0 K0.025
G0 Z0.1
X2.0625 Y-0.8608
G1 Z-0.065 F72
G3 X2.0375 Z-0.09 I-0.025 K0
G1 X1.9
X-1.9
X-2.025
G3 X-2.05 Z-0.065 I0 K0.025
G0 Z0.1
X2.0625 Y-0.7623
G1 Z-0.065 F72
G3 X2.0375 Z-0.09 I-0.025 K0
G1 X1.9
X-1.9
X-2.025
G3 X-2.05 Z-0.065 I0 K0.025
G0 Z0.1
X2.0625 Y-0.6638
G1 Z-0.065 F72
G3 X2.0375 Z-0.09 I-0.025 K0
G1 X1.9
X-1.9
X-2.025
G3 X-2.05 Z-0.065 I0 K0.025
G0 Z0.1
X2.0625 Y-0.5652
G1 Z-0.065 F72
G3 X2.0375 Z-0.09 I-0.025 K0
G1 X1.9
X-1.9
X-2.025
G3 X-2.05 Z-0.065 I0 K0.025
G0 Z0.1
X2.0625 Y-0.4667
G1 Z-0.065 F72
G3 X2.0375 Z-0.09 I-0.025 K0
G1 X1.9
X-1.9
X-2.025
G3 X-2.05 Z-0.065 I0 K0.025
G0 Z0.1
X2.0625 Y-0.3682
G1 Z-0.065 F72
G3 X2.0375 Z-0.09 I-0.025 K0
G1 X1.9
X-1.9
X-2.025
G3 X-2.05 Z-0.065 I0 K0.025
G0 Z0.1
X2.0625 Y-0.2697
G1 Z-0.065 F72
G3 X2.0375 Z-0.09 I-0.025 K0
G1 X1.9
X-1.9
X-2.025
G3 X-2.05 Z-0.065 I0 K0.025
G0 Z0.1
X2.0625 Y-0.1711
G1 Z-0.065 F72
G3 X2.0375 Z-0.09 I-0.025 K0
G1 X1.9
X-1.9
X-2.025
G3 X-2.05 Z-0.065 I0 K0.025
G0 Z0.1
X2.0625 Y-0.0726
G1 Z-0.065 F72
G3 X2.0375 Z-0.09 I-0.025 K0
G1 X1.9
X-1.9
X-2.025
G3 X-2.05 Z-0.065 I0 K0.025
G0 Z0.1
X2.0625 Y0.0259
G1 Z-0.065 F72
G3 X2.0375 Z-0.09 I-0.025 K0
G1 X1.9
X-1.9
X-2.025
G3 X-2.05 Z-0.065 I0 K0.025
G0 Z0.1
X2.0625 Y0.1244
G1 Z-0.065 F72
G3 X2.0375 Z-0.09 I-0.025 K0
G1 X1.9
X-1.9
X-2.025
G3 X-2.05 Z-0.065 I0 K0.025
G0 Z0.1
X2.0625 Y0.223
G1 Z-0.065 F72
G3 X2.0375 Z-0.09 I-0.025 K0
G1 X1.9
X-1.9
X-2.025
G3 X-2.05 Z-0.065 I0 K0.025
G0 Z0.1
X2.0625 Y0.3215
G1 Z-0.065 F72
G3 X2.0375 Z-0.09 I-0.025 K0
G1 X1.9
X-1.9
X-2.025
G3 X-2.05 Z-0.065 I0 K0.025
G0 Z0.1
X2.0625 Y0.42
G1 Z-0.065 F72
G3 X2.0375 Z-0.09 I-0.025 K0
G1 X1.9
X-1.9
X-2.025
G3 X-2.05 Z-0.065 I0 K0.025
G0 Z0.1
X2.0625 Y0.5185
G1 Z-0.065 F72
G3 X2.0375 Z-0.09 I-0.025 K0
G1 X1.9
X-1.9
X-2.025
G3 X-2.05 Z-0.065 I0 K0.025
G0 Z0.1
X2.0625 Y0.6171
G1 Z-0.065 F72
G3 X2.0375 Z-0.09 I-0.025 K0
G1 X1.9
X-1.9
X-2.025
G3 X-2.05 Z-0.065 I0 K0.025
G0 Z0.1
X2.0625 Y0.7156
G1 Z-0.065 F72
G3 X2.0375 Z-0.09 I-0.025 K0
G1 X1.9
X-1.9
X-2.025
G3 X-2.05 Z-0.065 I0 K0.025
G0 Z0.1
X2.0625 Y0.8141
G1 Z-0.065 F72
G3 X2.0375 Z-0.09 I-0.025 K0
G1 X1.9
X-1.9
X-2.025
G3 X-2.05 Z-0.065 I0 K0.025
G0 Z0.1
X2.0625 Y0.9126
G1 Z-0.065 F72
G3 X2.0375 Z-0.09 I-0.025 K0
G1 X1.9
X-1.9
X-2.025
G3 X-2.05 Z-0.065 I0 K0.025
G0 Z0.1
X2.0625 Y1.0112
G1 Z-0.065 F72
G3 X2.0375 Z-0.09 I-0.025 K0
G1 X1.9
X-1.9
X-2.025
G3 X-2.05 Z-0.065 I0 K0.025
G0 Z0.1
X2.0625 Y1.1097
G1 Z-0.065 F72
G3 X2.0375 Z-0.09 I-0.025 K0
G1 X1.9
X-1.9
X-2.025
G3 X-2.05 Z-0.065 I0 K0.025
G0 Z0.1
X2.0625 Y1.2082
G1 Z-0.065 F72
G3 X2.0375 Z-0.09 I-0.025 K0
G1 X1.9
X-1.9
X-2.025
G3 X-2.05 Z-0.065 I0 K0.025
G0 Z0.1
X2.0625 Y1.3067
G1 Z-0.065 F72
G3 X2.0375 Z-0.09 I-0.025 K0
G1 X1.9
X-1.9
X-2.025
G3 X-2.05 Z-0.065 I0 K0.025
G0 Z0.1
X2.0623 Y1.4053
G1 Z-0.065 F72
G3 X2.0373 Z-0.09 I-0.025 K0
G1 X1.9
X-1.9
X-2.0248
G3 X-2.0498 Z-0.065 I0 K0.025
G0 Z0.5
G17
G28 G91 Z0
G90
G28 G91 X0 Y0
G90
M30
%
