%
(classGCODEexample)
(T1  D=0.125 CR=0 - ZMIN=-0.25 - flat end mill)
G90
G17
G20
G28 G91 Z0
G90

(2D Contour1)
M9
T1 M6
S8000 M3
G54
G0 X-0.0125 Y3.1
Z0.6
Z0.2
G1 Z0.0394 F40
Z-0.2375
G19 G2 Y3.0875 Z-0.25 J-0.0125 K0
G1 Y3.075 F95
G17 G3 X0 Y3.0625 I0.0125 J0
G1 X5
G2 X5.0625 Y3 I0 J-0.0625
G1 Y0
G2 X5 Y-0.0625 I-0.0625 J0
G1 X0
G2 X-0.0625 Y0 I0 J0.0625
G1 Y3
G2 X0 Y3.0625 I0.0625 J0
G3 X0.0125 Y3.075 I0 J0.0125
G1 Y3.0875
G19 G3 Y3.1 Z-0.2375 J0 K0.0125
G0 Z0.6
G17
G28 G91 Z0
G90
G28 G91 X0 Y0
G90
M30
%
