%
(wheelFullCAM)
(T1  D=0.25 CR=0 - ZMIN=-0.89 - flat end mill)
(T2  D=0.125 CR=0 - ZMIN=-0.89 - flat end mill)
G90
G17
G20
G28 G91 Z0
G90

(Face3)
M9
T1 M6
(.03" DOC)
S4500 M3
G54
G0 X2.015 Y-1.5505
Z0.6
Z0.2
G1 Z0.005 F72
G18 G3 X1.99 Z-0.02 I-0.025 K0
G1 X1.8973
X-1.8973
G3 X-1.9223 Z0.005 I0 K0.025
G0 Z0.2
X2.0571 Y-1.452
G1 Z0.005 F72
G3 X2.0321 Z-0.02 I-0.025 K0
G1 X1.9
X-1.9
G3 X-1.925 Z0.005 I0 K0.025
G0 Z0.2
X2.0625 Y-1.3534
G1 Z0.005 F72
G3 X2.0375 Z-0.02 I-0.025 K0
G1 X1.9
X-1.9
G3 X-1.925 Z0.005 I0 K0.025
G0 Z0.2
X2.0625 Y-1.2549
G1 Z0.005 F72
G3 X2.0375 Z-0.02 I-0.025 K0
G1 X1.9
X-1.9
G3 X-1.925 Z0.005 I0 K0.025
G0 Z0.2
X2.0625 Y-1.1564
G1 Z0.005 F72
G3 X2.0375 Z-0.02 I-0.025 K0
G1 X1.9
X-1.9
G3 X-1.925 Z0.005 I0 K0.025
G0 Z0.2
X2.0625 Y-1.0579
G1 Z0.005 F72
G3 X2.0375 Z-0.02 I-0.025 K0
G1 X1.9
X-1.9
G3 X-1.925 Z0.005 I0 K0.025
G0 Z0.2
X2.0625 Y-0.9593
G1 Z0.005 F72
G3 X2.0375 Z-0.02 I-0.025 K0
G1 X1.9
X-1.9
G3 X-1.925 Z0.005 I0 K0.025
G0 Z0.2
X2.0625 Y-0.8608
G1 Z0.005 F72
G3 X2.0375 Z-0.02 I-0.025 K0
G1 X1.9
X-1.9
G3 X-1.925 Z0.005 I0 K0.025
G0 Z0.2
X2.0625 Y-0.7623
G1 Z0.005 F72
G3 X2.0375 Z-0.02 I-0.025 K0
G1 X1.9
X-1.9
G3 X-1.925 Z0.005 I0 K0.025
G0 Z0.2
X2.0625 Y-0.6638
G1 Z0.005 F72
G3 X2.0375 Z-0.02 I-0.025 K0
G1 X1.9
X-1.9
G3 X-1.925 Z0.005 I0 K0.025
G0 Z0.2
X2.0625 Y-0.5652
G1 Z0.005 F72
G3 X2.0375 Z-0.02 I-0.025 K0
G1 X1.9
X-1.9
G3 X-1.925 Z0.005 I0 K0.025
G0 Z0.2
X2.0625 Y-0.4667
G1 Z0.005 F72
G3 X2.0375 Z-0.02 I-0.025 K0
G1 X1.9
X-1.9
G3 X-1.925 Z0.005 I0 K0.025
G0 Z0.2
X2.0625 Y-0.3682
G1 Z0.005 F72
G3 X2.0375 Z-0.02 I-0.025 K0
G1 X1.9
X-1.9
G3 X-1.925 Z0.005 I0 K0.025
G0 Z0.2
X2.0625 Y-0.2697
G1 Z0.005 F72
G3 X2.0375 Z-0.02 I-0.025 K0
G1 X1.9
X-1.9
G3 X-1.925 Z0.005 I0 K0.025
G0 Z0.2
X2.0625 Y-0.1711
G1 Z0.005 F72
G3 X2.0375 Z-0.02 I-0.025 K0
G1 X1.9
X-1.9
G3 X-1.925 Z0.005 I0 K0.025
G0 Z0.2
X2.0625 Y-0.0726
G1 Z0.005 F72
G3 X2.0375 Z-0.02 I-0.025 K0
G1 X1.9
X-1.9
G3 X-1.925 Z0.005 I0 K0.025
G0 Z0.2
X2.0625 Y0.0259
G1 Z0.005 F72
G3 X2.0375 Z-0.02 I-0.025 K0
G1 X1.9
X-1.9
G3 X-1.925 Z0.005 I0 K0.025
G0 Z0.2
X2.0625 Y0.1244
G1 Z0.005 F72
G3 X2.0375 Z-0.02 I-0.025 K0
G1 X1.9
X-1.9
G3 X-1.925 Z0.005 I0 K0.025
G0 Z0.2
X2.0625 Y0.223
G1 Z0.005 F72
G3 X2.0375 Z-0.02 I-0.025 K0
G1 X1.9
X-1.9
G3 X-1.925 Z0.005 I0 K0.025
G0 Z0.2
X2.0625 Y0.3215
G1 Z0.005 F72
G3 X2.0375 Z-0.02 I-0.025 K0
G1 X1.9
X-1.9
G3 X-1.925 Z0.005 I0 K0.025
G0 Z0.2
X2.0625 Y0.42
G1 Z0.005 F72
G3 X2.0375 Z-0.02 I-0.025 K0
G1 X1.9
X-1.9
G3 X-1.925 Z0.005 I0 K0.025
G0 Z0.2
X2.0625 Y0.5185
G1 Z0.005 F72
G3 X2.0375 Z-0.02 I-0.025 K0
G1 X1.9
X-1.9
G3 X-1.925 Z0.005 I0 K0.025
G0 Z0.2
X2.0625 Y0.6171
G1 Z0.005 F72
G3 X2.0375 Z-0.02 I-0.025 K0
G1 X1.9
X-1.9
G3 X-1.925 Z0.005 I0 K0.025
G0 Z0.2
X2.0625 Y0.7156
G1 Z0.005 F72
G3 X2.0375 Z-0.02 I-0.025 K0
G1 X1.9
X-1.9
G3 X-1.925 Z0.005 I0 K0.025
G0 Z0.2
X2.0625 Y0.8141
G1 Z0.005 F72
G3 X2.0375 Z-0.02 I-0.025 K0
G1 X1.9
X-1.9
G3 X-1.925 Z0.005 I0 K0.025
G0 Z0.2
X2.0625 Y0.9126
G1 Z0.005 F72
G3 X2.0375 Z-0.02 I-0.025 K0
G1 X1.9
X-1.9
G3 X-1.925 Z0.005 I0 K0.025
G0 Z0.2
X2.0625 Y1.0112
G1 Z0.005 F72
G3 X2.0375 Z-0.02 I-0.025 K0
G1 X1.9
X-1.9
G3 X-1.925 Z0.005 I0 K0.025
G0 Z0.2
X2.0625 Y1.1097
G1 Z0.005 F72
G3 X2.0375 Z-0.02 I-0.025 K0
G1 X1.9
X-1.9
G3 X-1.925 Z0.005 I0 K0.025
G0 Z0.2
X2.0625 Y1.2082
G1 Z0.005 F72
G3 X2.0375 Z-0.02 I-0.025 K0
G1 X1.9
X-1.9
G3 X-1.925 Z0.005 I0 K0.025
G0 Z0.2
X2.0625 Y1.3067
G1 Z0.005 F72
G3 X2.0375 Z-0.02 I-0.025 K0
G1 X1.9
X-1.9
G3 X-1.925 Z0.005 I0 K0.025
G0 Z0.2
X2.0623 Y1.4053
G1 Z0.005 F72
G3 X2.0373 Z-0.02 I-0.025 K0
G1 X1.9
X-1.9
G3 X-1.925 Z0.005 I0 K0.025
G0 Z0.2
X2.015 Y-1.5505
G1 Z-0.025 F72
G3 X1.99 Z-0.05 I-0.025 K0
G1 X1.8973
X-1.8973
G3 X-1.9223 Z-0.025 I0 K0.025
G0 Z0.2
X2.0571 Y-1.452
G1 Z-0.025 F72
G3 X2.0321 Z-0.05 I-0.025 K0
G1 X1.9
X-1.9
G3 X-1.925 Z-0.025 I0 K0.025
G0 Z0.2
X2.0625 Y-1.3534
G1 Z-0.025 F72
G3 X2.0375 Z-0.05 I-0.025 K0
G1 X1.9
X-1.9
G3 X-1.925 Z-0.025 I0 K0.025
G0 Z0.2
X2.0625 Y-1.2549
G1 Z-0.025 F72
G3 X2.0375 Z-0.05 I-0.025 K0
G1 X1.9
X-1.9
G3 X-1.925 Z-0.025 I0 K0.025
G0 Z0.2
X2.0625 Y-1.1564
G1 Z-0.025 F72
G3 X2.0375 Z-0.05 I-0.025 K0
G1 X1.9
X-1.9
G3 X-1.925 Z-0.025 I0 K0.025
G0 Z0.2
X2.0625 Y-1.0579
G1 Z-0.025 F72
G3 X2.0375 Z-0.05 I-0.025 K0
G1 X1.9
X-1.9
G3 X-1.925 Z-0.025 I0 K0.025
G0 Z0.2
X2.0625 Y-0.9593
G1 Z-0.025 F72
G3 X2.0375 Z-0.05 I-0.025 K0
G1 X1.9
X-1.9
G3 X-1.925 Z-0.025 I0 K0.025
G0 Z0.2
X2.0625 Y-0.8608
G1 Z-0.025 F72
G3 X2.0375 Z-0.05 I-0.025 K0
G1 X1.9
X-1.9
G3 X-1.925 Z-0.025 I0 K0.025
G0 Z0.2
X2.0625 Y-0.7623
G1 Z-0.025 F72
G3 X2.0375 Z-0.05 I-0.025 K0
G1 X1.9
X-1.9
G3 X-1.925 Z-0.025 I0 K0.025
G0 Z0.2
X2.0625 Y-0.6638
G1 Z-0.025 F72
G3 X2.0375 Z-0.05 I-0.025 K0
G1 X1.9
X-1.9
G3 X-1.925 Z-0.025 I0 K0.025
G0 Z0.2
X2.0625 Y-0.5652
G1 Z-0.025 F72
G3 X2.0375 Z-0.05 I-0.025 K0
G1 X1.9
X-1.9
G3 X-1.925 Z-0.025 I0 K0.025
G0 Z0.2
X2.0625 Y-0.4667
G1 Z-0.025 F72
G3 X2.0375 Z-0.05 I-0.025 K0
G1 X1.9
X-1.9
G3 X-1.925 Z-0.025 I0 K0.025
G0 Z0.2
X2.0625 Y-0.3682
G1 Z-0.025 F72
G3 X2.0375 Z-0.05 I-0.025 K0
G1 X1.9
X-1.9
G3 X-1.925 Z-0.025 I0 K0.025
G0 Z0.2
X2.0625 Y-0.2697
G1 Z-0.025 F72
G3 X2.0375 Z-0.05 I-0.025 K0
G1 X1.9
X-1.9
G3 X-1.925 Z-0.025 I0 K0.025
G0 Z0.2
X2.0625 Y-0.1711
G1 Z-0.025 F72
G3 X2.0375 Z-0.05 I-0.025 K0
G1 X1.9
X-1.9
G3 X-1.925 Z-0.025 I0 K0.025
G0 Z0.2
X2.0625 Y-0.0726
G1 Z-0.025 F72
G3 X2.0375 Z-0.05 I-0.025 K0
G1 X1.9
X-1.9
G3 X-1.925 Z-0.025 I0 K0.025
G0 Z0.2
X2.0625 Y0.0259
G1 Z-0.025 F72
G3 X2.0375 Z-0.05 I-0.025 K0
G1 X1.9
X-1.9
G3 X-1.925 Z-0.025 I0 K0.025
G0 Z0.2
X2.0625 Y0.1244
G1 Z-0.025 F72
G3 X2.0375 Z-0.05 I-0.025 K0
G1 X1.9
X-1.9
G3 X-1.925 Z-0.025 I0 K0.025
G0 Z0.2
X2.0625 Y0.223
G1 Z-0.025 F72
G3 X2.0375 Z-0.05 I-0.025 K0
G1 X1.9
X-1.9
G3 X-1.925 Z-0.025 I0 K0.025
G0 Z0.2
X2.0625 Y0.3215
G1 Z-0.025 F72
G3 X2.0375 Z-0.05 I-0.025 K0
G1 X1.9
X-1.9
G3 X-1.925 Z-0.025 I0 K0.025
G0 Z0.2
X2.0625 Y0.42
G1 Z-0.025 F72
G3 X2.0375 Z-0.05 I-0.025 K0
G1 X1.9
X-1.9
G3 X-1.925 Z-0.025 I0 K0.025
G0 Z0.2
X2.0625 Y0.5185
G1 Z-0.025 F72
G3 X2.0375 Z-0.05 I-0.025 K0
G1 X1.9
X-1.9
G3 X-1.925 Z-0.025 I0 K0.025
G0 Z0.2
X2.0625 Y0.6171
G1 Z-0.025 F72
G3 X2.0375 Z-0.05 I-0.025 K0
G1 X1.9
X-1.9
G3 X-1.925 Z-0.025 I0 K0.025
G0 Z0.2
X2.0625 Y0.7156
G1 Z-0.025 F72
G3 X2.0375 Z-0.05 I-0.025 K0
G1 X1.9
X-1.9
G3 X-1.925 Z-0.025 I0 K0.025
G0 Z0.2
X2.0625 Y0.8141
G1 Z-0.025 F72
G3 X2.0375 Z-0.05 I-0.025 K0
G1 X1.9
X-1.9
G3 X-1.925 Z-0.025 I0 K0.025
G0 Z0.2
X2.0625 Y0.9126
G1 Z-0.025 F72
G3 X2.0375 Z-0.05 I-0.025 K0
G1 X1.9
X-1.9
G3 X-1.925 Z-0.025 I0 K0.025
G0 Z0.2
X2.0625 Y1.0112
G1 Z-0.025 F72
G3 X2.0375 Z-0.05 I-0.025 K0
G1 X1.9
X-1.9
G3 X-1.925 Z-0.025 I0 K0.025
G0 Z0.2
X2.0625 Y1.1097
G1 Z-0.025 F72
G3 X2.0375 Z-0.05 I-0.025 K0
G1 X1.9
X-1.9
G3 X-1.925 Z-0.025 I0 K0.025
G0 Z0.2
X2.0625 Y1.2082
G1 Z-0.025 F72
G3 X2.0375 Z-0.05 I-0.025 K0
G1 X1.9
X-1.9
G3 X-1.925 Z-0.025 I0 K0.025
G0 Z0.2
X2.0625 Y1.3067
G1 Z-0.025 F72
G3 X2.0375 Z-0.05 I-0.025 K0
G1 X1.9
X-1.9
G3 X-1.925 Z-0.025 I0 K0.025
G0 Z0.2
X2.0623 Y1.4053
G1 Z-0.025 F72
G3 X2.0373 Z-0.05 I-0.025 K0
G1 X1.9
X-1.9
G3 X-1.925 Z-0.025 I0 K0.025
G0 Z0.2
X2.015 Y-1.5505
G1 Z-0.055 F72
G3 X1.99 Z-0.08 I-0.025 K0
G1 X1.8973
X-1.8973
G3 X-1.9223 Z-0.055 I0 K0.025
G0 Z0.2
X2.0571 Y-1.452
G1 Z-0.055 F72
G3 X2.0321 Z-0.08 I-0.025 K0
G1 X1.9
X-1.9
G3 X-1.925 Z-0.055 I0 K0.025
G0 Z0.2
X2.0625 Y-1.3534
G1 Z-0.055 F72
G3 X2.0375 Z-0.08 I-0.025 K0
G1 X1.9
X-1.9
G3 X-1.925 Z-0.055 I0 K0.025
G0 Z0.2
X2.0625 Y-1.2549
G1 Z-0.055 F72
G3 X2.0375 Z-0.08 I-0.025 K0
G1 X1.9
X-1.9
G3 X-1.925 Z-0.055 I0 K0.025
G0 Z0.2
X2.0625 Y-1.1564
G1 Z-0.055 F72
G3 X2.0375 Z-0.08 I-0.025 K0
G1 X1.9
X-1.9
G3 X-1.925 Z-0.055 I0 K0.025
G0 Z0.2
X2.0625 Y-1.0579
G1 Z-0.055 F72
G3 X2.0375 Z-0.08 I-0.025 K0
G1 X1.9
X-1.9
G3 X-1.925 Z-0.055 I0 K0.025
G0 Z0.2
X2.0625 Y-0.9593
G1 Z-0.055 F72
G3 X2.0375 Z-0.08 I-0.025 K0
G1 X1.9
X-1.9
G3 X-1.925 Z-0.055 I0 K0.025
G0 Z0.2
X2.0625 Y-0.8608
G1 Z-0.055 F72
G3 X2.0375 Z-0.08 I-0.025 K0
G1 X1.9
X-1.9
G3 X-1.925 Z-0.055 I0 K0.025
G0 Z0.2
X2.0625 Y-0.7623
G1 Z-0.055 F72
G3 X2.0375 Z-0.08 I-0.025 K0
G1 X1.9
X-1.9
G3 X-1.925 Z-0.055 I0 K0.025
G0 Z0.2
X2.0625 Y-0.6638
G1 Z-0.055 F72
G3 X2.0375 Z-0.08 I-0.025 K0
G1 X1.9
X-1.9
G3 X-1.925 Z-0.055 I0 K0.025
G0 Z0.2
X2.0625 Y-0.5652
G1 Z-0.055 F72
G3 X2.0375 Z-0.08 I-0.025 K0
G1 X1.9
X-1.9
G3 X-1.925 Z-0.055 I0 K0.025
G0 Z0.2
X2.0625 Y-0.4667
G1 Z-0.055 F72
G3 X2.0375 Z-0.08 I-0.025 K0
G1 X1.9
X-1.9
G3 X-1.925 Z-0.055 I0 K0.025
G0 Z0.2
X2.0625 Y-0.3682
G1 Z-0.055 F72
G3 X2.0375 Z-0.08 I-0.025 K0
G1 X1.9
X-1.9
G3 X-1.925 Z-0.055 I0 K0.025
G0 Z0.2
X2.0625 Y-0.2697
G1 Z-0.055 F72
G3 X2.0375 Z-0.08 I-0.025 K0
G1 X1.9
X-1.9
G3 X-1.925 Z-0.055 I0 K0.025
G0 Z0.2
X2.0625 Y-0.1711
G1 Z-0.055 F72
G3 X2.0375 Z-0.08 I-0.025 K0
G1 X1.9
X-1.9
G3 X-1.925 Z-0.055 I0 K0.025
G0 Z0.2
X2.0625 Y-0.0726
G1 Z-0.055 F72
G3 X2.0375 Z-0.08 I-0.025 K0
G1 X1.9
X-1.9
G3 X-1.925 Z-0.055 I0 K0.025
G0 Z0.2
X2.0625 Y0.0259
G1 Z-0.055 F72
G3 X2.0375 Z-0.08 I-0.025 K0
G1 X1.9
X-1.9
G3 X-1.925 Z-0.055 I0 K0.025
G0 Z0.2
X2.0625 Y0.1244
G1 Z-0.055 F72
G3 X2.0375 Z-0.08 I-0.025 K0
G1 X1.9
X-1.9
G3 X-1.925 Z-0.055 I0 K0.025
G0 Z0.2
X2.0625 Y0.223
G1 Z-0.055 F72
G3 X2.0375 Z-0.08 I-0.025 K0
G1 X1.9
X-1.9
G3 X-1.925 Z-0.055 I0 K0.025
G0 Z0.2
X2.0625 Y0.3215
G1 Z-0.055 F72
G3 X2.0375 Z-0.08 I-0.025 K0
G1 X1.9
X-1.9
G3 X-1.925 Z-0.055 I0 K0.025
G0 Z0.2
X2.0625 Y0.42
G1 Z-0.055 F72
G3 X2.0375 Z-0.08 I-0.025 K0
G1 X1.9
X-1.9
G3 X-1.925 Z-0.055 I0 K0.025
G0 Z0.2
X2.0625 Y0.5185
G1 Z-0.055 F72
G3 X2.0375 Z-0.08 I-0.025 K0
G1 X1.9
X-1.9
G3 X-1.925 Z-0.055 I0 K0.025
G0 Z0.2
X2.0625 Y0.6171
G1 Z-0.055 F72
G3 X2.0375 Z-0.08 I-0.025 K0
G1 X1.9
X-1.9
G3 X-1.925 Z-0.055 I0 K0.025
G0 Z0.2
X2.0625 Y0.7156
G1 Z-0.055 F72
G3 X2.0375 Z-0.08 I-0.025 K0
G1 X1.9
X-1.9
G3 X-1.925 Z-0.055 I0 K0.025
G0 Z0.2
X2.0625 Y0.8141
G1 Z-0.055 F72
G3 X2.0375 Z-0.08 I-0.025 K0
G1 X1.9
X-1.9
G3 X-1.925 Z-0.055 I0 K0.025
G0 Z0.2
X2.0625 Y0.9126
G1 Z-0.055 F72
G3 X2.0375 Z-0.08 I-0.025 K0
G1 X1.9
X-1.9
G3 X-1.925 Z-0.055 I0 K0.025
G0 Z0.2
X2.0625 Y1.0112
G1 Z-0.055 F72
G3 X2.0375 Z-0.08 I-0.025 K0
G1 X1.9
X-1.9
G3 X-1.925 Z-0.055 I0 K0.025
G0 Z0.2
X2.0625 Y1.1097
G1 Z-0.055 F72
G3 X2.0375 Z-0.08 I-0.025 K0
G1 X1.9
X-1.9
G3 X-1.925 Z-0.055 I0 K0.025
G0 Z0.2
X2.0625 Y1.2082
G1 Z-0.055 F72
G3 X2.0375 Z-0.08 I-0.025 K0
G1 X1.9
X-1.9
G3 X-1.925 Z-0.055 I0 K0.025
G0 Z0.2
X2.0625 Y1.3067
G1 Z-0.055 F72
G3 X2.0375 Z-0.08 I-0.025 K0
G1 X1.9
X-1.9
G3 X-1.925 Z-0.055 I0 K0.025
G0 Z0.2
X2.0623 Y1.4053
G1 Z-0.055 F72
G3 X2.0373 Z-0.08 I-0.025 K0
G1 X1.9
X-1.9
G3 X-1.925 Z-0.055 I0 K0.025
G0 Z0.2
X2.015 Y-1.5505
G1 Z-0.085 F72
G3 X1.99 Z-0.11 I-0.025 K0
G1 X1.8973
X-1.8973
G3 X-1.9223 Z-0.085 I0 K0.025
G0 Z0.2
X2.0571 Y-1.452
G1 Z-0.085 F72
G3 X2.0321 Z-0.11 I-0.025 K0
G1 X1.9
X-1.9
G3 X-1.925 Z-0.085 I0 K0.025
G0 Z0.2
X2.0625 Y-1.3534
G1 Z-0.085 F72
G3 X2.0375 Z-0.11 I-0.025 K0
G1 X1.9
X-1.9
G3 X-1.925 Z-0.085 I0 K0.025
G0 Z0.2
X2.0625 Y-1.2549
G1 Z-0.085 F72
G3 X2.0375 Z-0.11 I-0.025 K0
G1 X1.9
X-1.9
G3 X-1.925 Z-0.085 I0 K0.025
G0 Z0.2
X2.0625 Y-1.1564
G1 Z-0.085 F72
G3 X2.0375 Z-0.11 I-0.025 K0
G1 X1.9
X-1.9
G3 X-1.925 Z-0.085 I0 K0.025
G0 Z0.2
X2.0625 Y-1.0579
G1 Z-0.085 F72
G3 X2.0375 Z-0.11 I-0.025 K0
G1 X1.9
X-1.9
G3 X-1.925 Z-0.085 I0 K0.025
G0 Z0.2
X2.0625 Y-0.9593
G1 Z-0.085 F72
G3 X2.0375 Z-0.11 I-0.025 K0
G1 X1.9
X-1.9
G3 X-1.925 Z-0.085 I0 K0.025
G0 Z0.2
X2.0625 Y-0.8608
G1 Z-0.085 F72
G3 X2.0375 Z-0.11 I-0.025 K0
G1 X1.9
X-1.9
G3 X-1.925 Z-0.085 I0 K0.025
G0 Z0.2
X2.0625 Y-0.7623
G1 Z-0.085 F72
G3 X2.0375 Z-0.11 I-0.025 K0
G1 X1.9
X-1.9
G3 X-1.925 Z-0.085 I0 K0.025
G0 Z0.2
X2.0625 Y-0.6638
G1 Z-0.085 F72
G3 X2.0375 Z-0.11 I-0.025 K0
G1 X1.9
X-1.9
G3 X-1.925 Z-0.085 I0 K0.025
G0 Z0.2
X2.0625 Y-0.5652
G1 Z-0.085 F72
G3 X2.0375 Z-0.11 I-0.025 K0
G1 X1.9
X-1.9
G3 X-1.925 Z-0.085 I0 K0.025
G0 Z0.2
X2.0625 Y-0.4667
G1 Z-0.085 F72
G3 X2.0375 Z-0.11 I-0.025 K0
G1 X1.9
X-1.9
G3 X-1.925 Z-0.085 I0 K0.025
G0 Z0.2
X2.0625 Y-0.3682
G1 Z-0.085 F72
G3 X2.0375 Z-0.11 I-0.025 K0
G1 X1.9
X-1.9
G3 X-1.925 Z-0.085 I0 K0.025
G0 Z0.2
X2.0625 Y-0.2697
G1 Z-0.085 F72
G3 X2.0375 Z-0.11 I-0.025 K0
G1 X1.9
X-1.9
G3 X-1.925 Z-0.085 I0 K0.025
G0 Z0.2
X2.0625 Y-0.1711
G1 Z-0.085 F72
G3 X2.0375 Z-0.11 I-0.025 K0
G1 X1.9
X-1.9
G3 X-1.925 Z-0.085 I0 K0.025
G0 Z0.2
X2.0625 Y-0.0726
G1 Z-0.085 F72
G3 X2.0375 Z-0.11 I-0.025 K0
G1 X1.9
X-1.9
G3 X-1.925 Z-0.085 I0 K0.025
G0 Z0.2
X2.0625 Y0.0259
G1 Z-0.085 F72
G3 X2.0375 Z-0.11 I-0.025 K0
G1 X1.9
X-1.9
G3 X-1.925 Z-0.085 I0 K0.025
G0 Z0.2
X2.0625 Y0.1244
G1 Z-0.085 F72
G3 X2.0375 Z-0.11 I-0.025 K0
G1 X1.9
X-1.9
G3 X-1.925 Z-0.085 I0 K0.025
G0 Z0.2
X2.0625 Y0.223
G1 Z-0.085 F72
G3 X2.0375 Z-0.11 I-0.025 K0
G1 X1.9
X-1.9
G3 X-1.925 Z-0.085 I0 K0.025
G0 Z0.2
X2.0625 Y0.3215
G1 Z-0.085 F72
G3 X2.0375 Z-0.11 I-0.025 K0
G1 X1.9
X-1.9
G3 X-1.925 Z-0.085 I0 K0.025
G0 Z0.2
X2.0625 Y0.42
G1 Z-0.085 F72
G3 X2.0375 Z-0.11 I-0.025 K0
G1 X1.9
X-1.9
G3 X-1.925 Z-0.085 I0 K0.025
G0 Z0.2
X2.0625 Y0.5185
G1 Z-0.085 F72
G3 X2.0375 Z-0.11 I-0.025 K0
G1 X1.9
X-1.9
G3 X-1.925 Z-0.085 I0 K0.025
G0 Z0.2
X2.0625 Y0.6171
G1 Z-0.085 F72
G3 X2.0375 Z-0.11 I-0.025 K0
G1 X1.9
X-1.9
G3 X-1.925 Z-0.085 I0 K0.025
G0 Z0.2
X2.0625 Y0.7156
G1 Z-0.085 F72
G3 X2.0375 Z-0.11 I-0.025 K0
G1 X1.9
X-1.9
G3 X-1.925 Z-0.085 I0 K0.025
G0 Z0.2
X2.0625 Y0.8141
G1 Z-0.085 F72
G3 X2.0375 Z-0.11 I-0.025 K0
G1 X1.9
X-1.9
G3 X-1.925 Z-0.085 I0 K0.025
G0 Z0.2
X2.0625 Y0.9126
G1 Z-0.085 F72
G3 X2.0375 Z-0.11 I-0.025 K0
G1 X1.9
X-1.9
G3 X-1.925 Z-0.085 I0 K0.025
G0 Z0.2
X2.0625 Y1.0112
G1 Z-0.085 F72
G3 X2.0375 Z-0.11 I-0.025 K0
G1 X1.9
X-1.9
G3 X-1.925 Z-0.085 I0 K0.025
G0 Z0.2
X2.0625 Y1.1097
G1 Z-0.085 F72
G3 X2.0375 Z-0.11 I-0.025 K0
G1 X1.9
X-1.9
G3 X-1.925 Z-0.085 I0 K0.025
G0 Z0.2
X2.0625 Y1.2082
G1 Z-0.085 F72
G3 X2.0375 Z-0.11 I-0.025 K0
G1 X1.9
X-1.9
G3 X-1.925 Z-0.085 I0 K0.025
G0 Z0.2
X2.0625 Y1.3067
G1 Z-0.085 F72
G3 X2.0375 Z-0.11 I-0.025 K0
G1 X1.9
X-1.9
G3 X-1.925 Z-0.085 I0 K0.025
G0 Z0.2
X2.0623 Y1.4053
G1 Z-0.085 F72
G3 X2.0373 Z-0.11 I-0.025 K0
G1 X1.9
X-1.9
G3 X-1.925 Z-0.085 I0 K0.025
G0 Z0.2
X2.015 Y-1.5505
G1 Z-0.115 F72
G3 X1.99 Z-0.14 I-0.025 K0
G1 X1.8973
X-1.8973
G3 X-1.9223 Z-0.115 I0 K0.025
G0 Z0.2
X2.0571 Y-1.452
G1 Z-0.115 F72
G3 X2.0321 Z-0.14 I-0.025 K0
G1 X1.9
X-1.9
G3 X-1.925 Z-0.115 I0 K0.025
G0 Z0.2
X2.0625 Y-1.3534
G1 Z-0.115 F72
G3 X2.0375 Z-0.14 I-0.025 K0
G1 X1.9
X-1.9
G3 X-1.925 Z-0.115 I0 K0.025
G0 Z0.2
X2.0625 Y-1.2549
G1 Z-0.115 F72
G3 X2.0375 Z-0.14 I-0.025 K0
G1 X1.9
X-1.9
G3 X-1.925 Z-0.115 I0 K0.025
G0 Z0.2
X2.0625 Y-1.1564
G1 Z-0.115 F72
G3 X2.0375 Z-0.14 I-0.025 K0
G1 X1.9
X-1.9
G3 X-1.925 Z-0.115 I0 K0.025
G0 Z0.2
X2.0625 Y-1.0579
G1 Z-0.115 F72
G3 X2.0375 Z-0.14 I-0.025 K0
G1 X1.9
X-1.9
G3 X-1.925 Z-0.115 I0 K0.025
G0 Z0.2
X2.0625 Y-0.9593
G1 Z-0.115 F72
G3 X2.0375 Z-0.14 I-0.025 K0
G1 X1.9
X-1.9
G3 X-1.925 Z-0.115 I0 K0.025
G0 Z0.2
X2.0625 Y-0.8608
G1 Z-0.115 F72
G3 X2.0375 Z-0.14 I-0.025 K0
G1 X1.9
X-1.9
G3 X-1.925 Z-0.115 I0 K0.025
G0 Z0.2
X2.0625 Y-0.7623
G1 Z-0.115 F72
G3 X2.0375 Z-0.14 I-0.025 K0
G1 X1.9
X-1.9
G3 X-1.925 Z-0.115 I0 K0.025
G0 Z0.2
X2.0625 Y-0.6638
G1 Z-0.115 F72
G3 X2.0375 Z-0.14 I-0.025 K0
G1 X1.9
X-1.9
G3 X-1.925 Z-0.115 I0 K0.025
G0 Z0.2
X2.0625 Y-0.5652
G1 Z-0.115 F72
G3 X2.0375 Z-0.14 I-0.025 K0
G1 X1.9
X-1.9
G3 X-1.925 Z-0.115 I0 K0.025
G0 Z0.2
X2.0625 Y-0.4667
G1 Z-0.115 F72
G3 X2.0375 Z-0.14 I-0.025 K0
G1 X1.9
X-1.9
G3 X-1.925 Z-0.115 I0 K0.025
G0 Z0.2
X2.0625 Y-0.3682
G1 Z-0.115 F72
G3 X2.0375 Z-0.14 I-0.025 K0
G1 X1.9
X-1.9
G3 X-1.925 Z-0.115 I0 K0.025
G0 Z0.2
X2.0625 Y-0.2697
G1 Z-0.115 F72
G3 X2.0375 Z-0.14 I-0.025 K0
G1 X1.9
X-1.9
G3 X-1.925 Z-0.115 I0 K0.025
G0 Z0.2
X2.0625 Y-0.1711
G1 Z-0.115 F72
G3 X2.0375 Z-0.14 I-0.025 K0
G1 X1.9
X-1.9
G3 X-1.925 Z-0.115 I0 K0.025
G0 Z0.2
X2.0625 Y-0.0726
G1 Z-0.115 F72
G3 X2.0375 Z-0.14 I-0.025 K0
G1 X1.9
X-1.9
G3 X-1.925 Z-0.115 I0 K0.025
G0 Z0.2
X2.0625 Y0.0259
G1 Z-0.115 F72
G3 X2.0375 Z-0.14 I-0.025 K0
G1 X1.9
X-1.9
G3 X-1.925 Z-0.115 I0 K0.025
G0 Z0.2
X2.0625 Y0.1244
G1 Z-0.115 F72
G3 X2.0375 Z-0.14 I-0.025 K0
G1 X1.9
X-1.9
G3 X-1.925 Z-0.115 I0 K0.025
G0 Z0.2
X2.0625 Y0.223
G1 Z-0.115 F72
G3 X2.0375 Z-0.14 I-0.025 K0
G1 X1.9
X-1.9
G3 X-1.925 Z-0.115 I0 K0.025
G0 Z0.2
X2.0625 Y0.3215
G1 Z-0.115 F72
G3 X2.0375 Z-0.14 I-0.025 K0
G1 X1.9
X-1.9
G3 X-1.925 Z-0.115 I0 K0.025
G0 Z0.2
X2.0625 Y0.42
G1 Z-0.115 F72
G3 X2.0375 Z-0.14 I-0.025 K0
G1 X1.9
X-1.9
G3 X-1.925 Z-0.115 I0 K0.025
G0 Z0.2
X2.0625 Y0.5185
G1 Z-0.115 F72
G3 X2.0375 Z-0.14 I-0.025 K0
G1 X1.9
X-1.9
G3 X-1.925 Z-0.115 I0 K0.025
G0 Z0.2
X2.0625 Y0.6171
G1 Z-0.115 F72
G3 X2.0375 Z-0.14 I-0.025 K0
G1 X1.9
X-1.9
G3 X-1.925 Z-0.115 I0 K0.025
G0 Z0.2
X2.0625 Y0.7156
G1 Z-0.115 F72
G3 X2.0375 Z-0.14 I-0.025 K0
G1 X1.9
X-1.9
G3 X-1.925 Z-0.115 I0 K0.025
G0 Z0.2
X2.0625 Y0.8141
G1 Z-0.115 F72
G3 X2.0375 Z-0.14 I-0.025 K0
G1 X1.9
X-1.9
G3 X-1.925 Z-0.115 I0 K0.025
G0 Z0.2
X2.0625 Y0.9126
G1 Z-0.115 F72
G3 X2.0375 Z-0.14 I-0.025 K0
G1 X1.9
X-1.9
G3 X-1.925 Z-0.115 I0 K0.025
G0 Z0.2
X2.0625 Y1.0112
G1 Z-0.115 F72
G3 X2.0375 Z-0.14 I-0.025 K0
G1 X1.9
X-1.9
G3 X-1.925 Z-0.115 I0 K0.025
G0 Z0.2
X2.0625 Y1.1097
G1 Z-0.115 F72
G3 X2.0375 Z-0.14 I-0.025 K0
G1 X1.9
X-1.9
G3 X-1.925 Z-0.115 I0 K0.025
G0 Z0.2
X2.0625 Y1.2082
G1 Z-0.115 F72
G3 X2.0375 Z-0.14 I-0.025 K0
G1 X1.9
X-1.9
G3 X-1.925 Z-0.115 I0 K0.025
G0 Z0.2
X2.0625 Y1.3067
G1 Z-0.115 F72
G3 X2.0375 Z-0.14 I-0.025 K0
G1 X1.9
X-1.9
G3 X-1.925 Z-0.115 I0 K0.025
G0 Z0.2
X2.0623 Y1.4053
G1 Z-0.115 F72
G3 X2.0373 Z-0.14 I-0.025 K0
G1 X1.9
X-1.9
G3 X-1.925 Z-0.115 I0 K0.025
G0 Z0.2
X2.015 Y-1.5505
G1 Z-0.145 F72
G3 X1.99 Z-0.17 I-0.025 K0
G1 X1.8973
X-1.8973
G3 X-1.9223 Z-0.145 I0 K0.025
G0 Z0.2
X2.0571 Y-1.452
G1 Z-0.145 F72
G3 X2.0321 Z-0.17 I-0.025 K0
G1 X1.9
X-1.9
G3 X-1.925 Z-0.145 I0 K0.025
G0 Z0.2
X2.0625 Y-1.3534
G1 Z-0.145 F72
G3 X2.0375 Z-0.17 I-0.025 K0
G1 X1.9
X-1.9
G3 X-1.925 Z-0.145 I0 K0.025
G0 Z0.2
X2.0625 Y-1.2549
G1 Z-0.145 F72
G3 X2.0375 Z-0.17 I-0.025 K0
G1 X1.9
X-1.9
G3 X-1.925 Z-0.145 I0 K0.025
G0 Z0.2
X2.0625 Y-1.1564
G1 Z-0.145 F72
G3 X2.0375 Z-0.17 I-0.025 K0
G1 X1.9
X-1.9
G3 X-1.925 Z-0.145 I0 K0.025
G0 Z0.2
X2.0625 Y-1.0579
G1 Z-0.145 F72
G3 X2.0375 Z-0.17 I-0.025 K0
G1 X1.9
X-1.9
G3 X-1.925 Z-0.145 I0 K0.025
G0 Z0.2
X2.0625 Y-0.9593
G1 Z-0.145 F72
G3 X2.0375 Z-0.17 I-0.025 K0
G1 X1.9
X-1.9
G3 X-1.925 Z-0.145 I0 K0.025
G0 Z0.2
X2.0625 Y-0.8608
G1 Z-0.145 F72
G3 X2.0375 Z-0.17 I-0.025 K0
G1 X1.9
X-1.9
G3 X-1.925 Z-0.145 I0 K0.025
G0 Z0.2
X2.0625 Y-0.7623
G1 Z-0.145 F72
G3 X2.0375 Z-0.17 I-0.025 K0
G1 X1.9
X-1.9
G3 X-1.925 Z-0.145 I0 K0.025
G0 Z0.2
X2.0625 Y-0.6638
G1 Z-0.145 F72
G3 X2.0375 Z-0.17 I-0.025 K0
G1 X1.9
X-1.9
G3 X-1.925 Z-0.145 I0 K0.025
G0 Z0.2
X2.0625 Y-0.5652
G1 Z-0.145 F72
G3 X2.0375 Z-0.17 I-0.025 K0
G1 X1.9
X-1.9
G3 X-1.925 Z-0.145 I0 K0.025
G0 Z0.2
X2.0625 Y-0.4667
G1 Z-0.145 F72
G3 X2.0375 Z-0.17 I-0.025 K0
G1 X1.9
X-1.9
G3 X-1.925 Z-0.145 I0 K0.025
G0 Z0.2
X2.0625 Y-0.3682
G1 Z-0.145 F72
G3 X2.0375 Z-0.17 I-0.025 K0
G1 X1.9
X-1.9
G3 X-1.925 Z-0.145 I0 K0.025
G0 Z0.2
X2.0625 Y-0.2697
G1 Z-0.145 F72
G3 X2.0375 Z-0.17 I-0.025 K0
G1 X1.9
X-1.9
G3 X-1.925 Z-0.145 I0 K0.025
G0 Z0.2
X2.0625 Y-0.1711
G1 Z-0.145 F72
G3 X2.0375 Z-0.17 I-0.025 K0
G1 X1.9
X-1.9
G3 X-1.925 Z-0.145 I0 K0.025
G0 Z0.2
X2.0625 Y-0.0726
G1 Z-0.145 F72
G3 X2.0375 Z-0.17 I-0.025 K0
G1 X1.9
X-1.9
G3 X-1.925 Z-0.145 I0 K0.025
G0 Z0.2
X2.0625 Y0.0259
G1 Z-0.145 F72
G3 X2.0375 Z-0.17 I-0.025 K0
G1 X1.9
X-1.9
G3 X-1.925 Z-0.145 I0 K0.025
G0 Z0.2
X2.0625 Y0.1244
G1 Z-0.145 F72
G3 X2.0375 Z-0.17 I-0.025 K0
G1 X1.9
X-1.9
G3 X-1.925 Z-0.145 I0 K0.025
G0 Z0.2
X2.0625 Y0.223
G1 Z-0.145 F72
G3 X2.0375 Z-0.17 I-0.025 K0
G1 X1.9
X-1.9
G3 X-1.925 Z-0.145 I0 K0.025
G0 Z0.2
X2.0625 Y0.3215
G1 Z-0.145 F72
G3 X2.0375 Z-0.17 I-0.025 K0
G1 X1.9
X-1.9
G3 X-1.925 Z-0.145 I0 K0.025
G0 Z0.2
X2.0625 Y0.42
G1 Z-0.145 F72
G3 X2.0375 Z-0.17 I-0.025 K0
G1 X1.9
X-1.9
G3 X-1.925 Z-0.145 I0 K0.025
G0 Z0.2
X2.0625 Y0.5185
G1 Z-0.145 F72
G3 X2.0375 Z-0.17 I-0.025 K0
G1 X1.9
X-1.9
G3 X-1.925 Z-0.145 I0 K0.025
G0 Z0.2
X2.0625 Y0.6171
G1 Z-0.145 F72
G3 X2.0375 Z-0.17 I-0.025 K0
G1 X1.9
X-1.9
G3 X-1.925 Z-0.145 I0 K0.025
G0 Z0.2
X2.0625 Y0.7156
G1 Z-0.145 F72
G3 X2.0375 Z-0.17 I-0.025 K0
G1 X1.9
X-1.9
G3 X-1.925 Z-0.145 I0 K0.025
G0 Z0.2
X2.0625 Y0.8141
G1 Z-0.145 F72
G3 X2.0375 Z-0.17 I-0.025 K0
G1 X1.9
X-1.9
G3 X-1.925 Z-0.145 I0 K0.025
G0 Z0.2
X2.0625 Y0.9126
G1 Z-0.145 F72
G3 X2.0375 Z-0.17 I-0.025 K0
G1 X1.9
X-1.9
G3 X-1.925 Z-0.145 I0 K0.025
G0 Z0.2
X2.0625 Y1.0112
G1 Z-0.145 F72
G3 X2.0375 Z-0.17 I-0.025 K0
G1 X1.9
X-1.9
G3 X-1.925 Z-0.145 I0 K0.025
G0 Z0.2
X2.0625 Y1.1097
G1 Z-0.145 F72
G3 X2.0375 Z-0.17 I-0.025 K0
G1 X1.9
X-1.9
G3 X-1.925 Z-0.145 I0 K0.025
G0 Z0.2
X2.0625 Y1.2082
G1 Z-0.145 F72
G3 X2.0375 Z-0.17 I-0.025 K0
G1 X1.9
X-1.9
G3 X-1.925 Z-0.145 I0 K0.025
G0 Z0.2
X2.0625 Y1.3067
G1 Z-0.145 F72
G3 X2.0375 Z-0.17 I-0.025 K0
G1 X1.9
X-1.9
G3 X-1.925 Z-0.145 I0 K0.025
G0 Z0.2
X2.0623 Y1.4053
G1 Z-0.145 F72
G3 X2.0373 Z-0.17 I-0.025 K0
G1 X1.9
X-1.9
G3 X-1.925 Z-0.145 I0 K0.025
G0 Z0.2
X2.015 Y-1.5505
G1 Z-0.175 F72
G3 X1.99 Z-0.2 I-0.025 K0
G1 X1.8973
X-1.8973
G3 X-1.9223 Z-0.175 I0 K0.025
G0 Z0.2
X2.0571 Y-1.452
G1 Z-0.175 F72
G3 X2.0321 Z-0.2 I-0.025 K0
G1 X1.9
X-1.9
G3 X-1.925 Z-0.175 I0 K0.025
G0 Z0.2
X2.0625 Y-1.3534
G1 Z-0.175 F72
G3 X2.0375 Z-0.2 I-0.025 K0
G1 X1.9
X-1.9
G3 X-1.925 Z-0.175 I0 K0.025
G0 Z0.2
X2.0625 Y-1.2549
G1 Z-0.175 F72
G3 X2.0375 Z-0.2 I-0.025 K0
G1 X1.9
X-1.9
G3 X-1.925 Z-0.175 I0 K0.025
G0 Z0.2
X2.0625 Y-1.1564
G1 Z-0.175 F72
G3 X2.0375 Z-0.2 I-0.025 K0
G1 X1.9
X-1.9
G3 X-1.925 Z-0.175 I0 K0.025
G0 Z0.2
X2.0625 Y-1.0579
G1 Z-0.175 F72
G3 X2.0375 Z-0.2 I-0.025 K0
G1 X1.9
X-1.9
G3 X-1.925 Z-0.175 I0 K0.025
G0 Z0.2
X2.0625 Y-0.9593
G1 Z-0.175 F72
G3 X2.0375 Z-0.2 I-0.025 K0
G1 X1.9
X-1.9
G3 X-1.925 Z-0.175 I0 K0.025
G0 Z0.2
X2.0625 Y-0.8608
G1 Z-0.175 F72
G3 X2.0375 Z-0.2 I-0.025 K0
G1 X1.9
X-1.9
G3 X-1.925 Z-0.175 I0 K0.025
G0 Z0.2
X2.0625 Y-0.7623
G1 Z-0.175 F72
G3 X2.0375 Z-0.2 I-0.025 K0
G1 X1.9
X-1.9
G3 X-1.925 Z-0.175 I0 K0.025
G0 Z0.2
X2.0625 Y-0.6638
G1 Z-0.175 F72
G3 X2.0375 Z-0.2 I-0.025 K0
G1 X1.9
X-1.9
G3 X-1.925 Z-0.175 I0 K0.025
G0 Z0.2
X2.0625 Y-0.5652
G1 Z-0.175 F72
G3 X2.0375 Z-0.2 I-0.025 K0
G1 X1.9
X-1.9
G3 X-1.925 Z-0.175 I0 K0.025
G0 Z0.2
X2.0625 Y-0.4667
G1 Z-0.175 F72
G3 X2.0375 Z-0.2 I-0.025 K0
G1 X1.9
X-1.9
G3 X-1.925 Z-0.175 I0 K0.025
G0 Z0.2
X2.0625 Y-0.3682
G1 Z-0.175 F72
G3 X2.0375 Z-0.2 I-0.025 K0
G1 X1.9
X-1.9
G3 X-1.925 Z-0.175 I0 K0.025
G0 Z0.2
X2.0625 Y-0.2697
G1 Z-0.175 F72
G3 X2.0375 Z-0.2 I-0.025 K0
G1 X1.9
X-1.9
G3 X-1.925 Z-0.175 I0 K0.025
G0 Z0.2
X2.0625 Y-0.1711
G1 Z-0.175 F72
G3 X2.0375 Z-0.2 I-0.025 K0
G1 X1.9
X-1.9
G3 X-1.925 Z-0.175 I0 K0.025
G0 Z0.2
X2.0625 Y-0.0726
G1 Z-0.175 F72
G3 X2.0375 Z-0.2 I-0.025 K0
G1 X1.9
X-1.9
G3 X-1.925 Z-0.175 I0 K0.025
G0 Z0.2
X2.0625 Y0.0259
G1 Z-0.175 F72
G3 X2.0375 Z-0.2 I-0.025 K0
G1 X1.9
X-1.9
G3 X-1.925 Z-0.175 I0 K0.025
G0 Z0.2
X2.0625 Y0.1244
G1 Z-0.175 F72
G3 X2.0375 Z-0.2 I-0.025 K0
G1 X1.9
X-1.9
G3 X-1.925 Z-0.175 I0 K0.025
G0 Z0.2
X2.0625 Y0.223
G1 Z-0.175 F72
G3 X2.0375 Z-0.2 I-0.025 K0
G1 X1.9
X-1.9
G3 X-1.925 Z-0.175 I0 K0.025
G0 Z0.2
X2.0625 Y0.3215
G1 Z-0.175 F72
G3 X2.0375 Z-0.2 I-0.025 K0
G1 X1.9
X-1.9
G3 X-1.925 Z-0.175 I0 K0.025
G0 Z0.2
X2.0625 Y0.42
G1 Z-0.175 F72
G3 X2.0375 Z-0.2 I-0.025 K0
G1 X1.9
X-1.9
G3 X-1.925 Z-0.175 I0 K0.025
G0 Z0.2
X2.0625 Y0.5185
G1 Z-0.175 F72
G3 X2.0375 Z-0.2 I-0.025 K0
G1 X1.9
X-1.9
G3 X-1.925 Z-0.175 I0 K0.025
G0 Z0.2
X2.0625 Y0.6171
G1 Z-0.175 F72
G3 X2.0375 Z-0.2 I-0.025 K0
G1 X1.9
X-1.9
G3 X-1.925 Z-0.175 I0 K0.025
G0 Z0.2
X2.0625 Y0.7156
G1 Z-0.175 F72
G3 X2.0375 Z-0.2 I-0.025 K0
G1 X1.9
X-1.9
G3 X-1.925 Z-0.175 I0 K0.025
G0 Z0.2
X2.0625 Y0.8141
G1 Z-0.175 F72
G3 X2.0375 Z-0.2 I-0.025 K0
G1 X1.9
X-1.9
G3 X-1.925 Z-0.175 I0 K0.025
G0 Z0.2
X2.0625 Y0.9126
G1 Z-0.175 F72
G3 X2.0375 Z-0.2 I-0.025 K0
G1 X1.9
X-1.9
G3 X-1.925 Z-0.175 I0 K0.025
G0 Z0.2
X2.0625 Y1.0112
G1 Z-0.175 F72
G3 X2.0375 Z-0.2 I-0.025 K0
G1 X1.9
X-1.9
G3 X-1.925 Z-0.175 I0 K0.025
G0 Z0.2
X2.0625 Y1.1097
G1 Z-0.175 F72
G3 X2.0375 Z-0.2 I-0.025 K0
G1 X1.9
X-1.9
G3 X-1.925 Z-0.175 I0 K0.025
G0 Z0.2
X2.0625 Y1.2082
G1 Z-0.175 F72
G3 X2.0375 Z-0.2 I-0.025 K0
G1 X1.9
X-1.9
G3 X-1.925 Z-0.175 I0 K0.025
G0 Z0.2
X2.0625 Y1.3067
G1 Z-0.175 F72
G3 X2.0375 Z-0.2 I-0.025 K0
G1 X1.9
X-1.9
G3 X-1.925 Z-0.175 I0 K0.025
G0 Z0.2
X2.0623 Y1.4053
G1 Z-0.175 F72
G3 X2.0373 Z-0.2 I-0.025 K0
G1 X1.9
X-1.9
G3 X-1.925 Z-0.175 I0 K0.025
G0 Z0.2
X2.015 Y-1.5505
G1 Z-0.205 F72
G3 X1.99 Z-0.23 I-0.025 K0
G1 X1.8973
X-1.8973
G3 X-1.9223 Z-0.205 I0 K0.025
G0 Z0.2
X2.0571 Y-1.452
G1 Z-0.205 F72
G3 X2.0321 Z-0.23 I-0.025 K0
G1 X1.9
X-1.9
G3 X-1.925 Z-0.205 I0 K0.025
G0 Z0.2
X2.0625 Y-1.3534
G1 Z-0.205 F72
G3 X2.0375 Z-0.23 I-0.025 K0
G1 X1.9
X-1.9
G3 X-1.925 Z-0.205 I0 K0.025
G0 Z0.2
X2.0625 Y-1.2549
G1 Z-0.205 F72
G3 X2.0375 Z-0.23 I-0.025 K0
G1 X1.9
X-1.9
G3 X-1.925 Z-0.205 I0 K0.025
G0 Z0.2
X2.0625 Y-1.1564
G1 Z-0.205 F72
G3 X2.0375 Z-0.23 I-0.025 K0
G1 X1.9
X-1.9
G3 X-1.925 Z-0.205 I0 K0.025
G0 Z0.2
X2.0625 Y-1.0579
G1 Z-0.205 F72
G3 X2.0375 Z-0.23 I-0.025 K0
G1 X1.9
X-1.9
G3 X-1.925 Z-0.205 I0 K0.025
G0 Z0.2
X2.0625 Y-0.9593
G1 Z-0.205 F72
G3 X2.0375 Z-0.23 I-0.025 K0
G1 X1.9
X-1.9
G3 X-1.925 Z-0.205 I0 K0.025
G0 Z0.2
X2.0625 Y-0.8608
G1 Z-0.205 F72
G3 X2.0375 Z-0.23 I-0.025 K0
G1 X1.9
X-1.9
G3 X-1.925 Z-0.205 I0 K0.025
G0 Z0.2
X2.0625 Y-0.7623
G1 Z-0.205 F72
G3 X2.0375 Z-0.23 I-0.025 K0
G1 X1.9
X-1.9
G3 X-1.925 Z-0.205 I0 K0.025
G0 Z0.2
X2.0625 Y-0.6638
G1 Z-0.205 F72
G3 X2.0375 Z-0.23 I-0.025 K0
G1 X1.9
X-1.9
G3 X-1.925 Z-0.205 I0 K0.025
G0 Z0.2
X2.0625 Y-0.5652
G1 Z-0.205 F72
G3 X2.0375 Z-0.23 I-0.025 K0
G1 X1.9
X-1.9
G3 X-1.925 Z-0.205 I0 K0.025
G0 Z0.2
X2.0625 Y-0.4667
G1 Z-0.205 F72
G3 X2.0375 Z-0.23 I-0.025 K0
G1 X1.9
X-1.9
G3 X-1.925 Z-0.205 I0 K0.025
G0 Z0.2
X2.0625 Y-0.3682
G1 Z-0.205 F72
G3 X2.0375 Z-0.23 I-0.025 K0
G1 X1.9
X-1.9
G3 X-1.925 Z-0.205 I0 K0.025
G0 Z0.2
X2.0625 Y-0.2697
G1 Z-0.205 F72
G3 X2.0375 Z-0.23 I-0.025 K0
G1 X1.9
X-1.9
G3 X-1.925 Z-0.205 I0 K0.025
G0 Z0.2
X2.0625 Y-0.1711
G1 Z-0.205 F72
G3 X2.0375 Z-0.23 I-0.025 K0
G1 X1.9
X-1.9
G3 X-1.925 Z-0.205 I0 K0.025
G0 Z0.2
X2.0625 Y-0.0726
G1 Z-0.205 F72
G3 X2.0375 Z-0.23 I-0.025 K0
G1 X1.9
X-1.9
G3 X-1.925 Z-0.205 I0 K0.025
G0 Z0.2
X2.0625 Y0.0259
G1 Z-0.205 F72
G3 X2.0375 Z-0.23 I-0.025 K0
G1 X1.9
X-1.9
G3 X-1.925 Z-0.205 I0 K0.025
G0 Z0.2
X2.0625 Y0.1244
G1 Z-0.205 F72
G3 X2.0375 Z-0.23 I-0.025 K0
G1 X1.9
X-1.9
G3 X-1.925 Z-0.205 I0 K0.025
G0 Z0.2
X2.0625 Y0.223
G1 Z-0.205 F72
G3 X2.0375 Z-0.23 I-0.025 K0
G1 X1.9
X-1.9
G3 X-1.925 Z-0.205 I0 K0.025
G0 Z0.2
X2.0625 Y0.3215
G1 Z-0.205 F72
G3 X2.0375 Z-0.23 I-0.025 K0
G1 X1.9
X-1.9
G3 X-1.925 Z-0.205 I0 K0.025
G0 Z0.2
X2.0625 Y0.42
G1 Z-0.205 F72
G3 X2.0375 Z-0.23 I-0.025 K0
G1 X1.9
X-1.9
G3 X-1.925 Z-0.205 I0 K0.025
G0 Z0.2
X2.0625 Y0.5185
G1 Z-0.205 F72
G3 X2.0375 Z-0.23 I-0.025 K0
G1 X1.9
X-1.9
G3 X-1.925 Z-0.205 I0 K0.025
G0 Z0.2
X2.0625 Y0.6171
G1 Z-0.205 F72
G3 X2.0375 Z-0.23 I-0.025 K0
G1 X1.9
X-1.9
G3 X-1.925 Z-0.205 I0 K0.025
G0 Z0.2
X2.0625 Y0.7156
G1 Z-0.205 F72
G3 X2.0375 Z-0.23 I-0.025 K0
G1 X1.9
X-1.9
G3 X-1.925 Z-0.205 I0 K0.025
G0 Z0.2
X2.0625 Y0.8141
G1 Z-0.205 F72
G3 X2.0375 Z-0.23 I-0.025 K0
G1 X1.9
X-1.9
G3 X-1.925 Z-0.205 I0 K0.025
G0 Z0.2
X2.0625 Y0.9126
G1 Z-0.205 F72
G3 X2.0375 Z-0.23 I-0.025 K0
G1 X1.9
X-1.9
G3 X-1.925 Z-0.205 I0 K0.025
G0 Z0.2
X2.0625 Y1.0112
G1 Z-0.205 F72
G3 X2.0375 Z-0.23 I-0.025 K0
G1 X1.9
X-1.9
G3 X-1.925 Z-0.205 I0 K0.025
G0 Z0.2
X2.0625 Y1.1097
G1 Z-0.205 F72
G3 X2.0375 Z-0.23 I-0.025 K0
G1 X1.9
X-1.9
G3 X-1.925 Z-0.205 I0 K0.025
G0 Z0.2
X2.0625 Y1.2082
G1 Z-0.205 F72
G3 X2.0375 Z-0.23 I-0.025 K0
G1 X1.9
X-1.9
G3 X-1.925 Z-0.205 I0 K0.025
G0 Z0.2
X2.0625 Y1.3067
G1 Z-0.205 F72
G3 X2.0375 Z-0.23 I-0.025 K0
G1 X1.9
X-1.9
G3 X-1.925 Z-0.205 I0 K0.025
G0 Z0.2
X2.0623 Y1.4053
G1 Z-0.205 F72
G3 X2.0373 Z-0.23 I-0.025 K0
G1 X1.9
X-1.9
G3 X-1.925 Z-0.205 I0 K0.025
G0 Z0.2
X2.015 Y-1.5505
G1 Z-0.235 F72
G3 X1.99 Z-0.26 I-0.025 K0
G1 X1.8973
X-1.8973
G3 X-1.9223 Z-0.235 I0 K0.025
G0 Z0.2
X2.0571 Y-1.452
G1 Z-0.235 F72
G3 X2.0321 Z-0.26 I-0.025 K0
G1 X1.9
X-1.9
G3 X-1.925 Z-0.235 I0 K0.025
G0 Z0.2
X2.0625 Y-1.3534
G1 Z-0.235 F72
G3 X2.0375 Z-0.26 I-0.025 K0
G1 X1.9
X-1.9
G3 X-1.925 Z-0.235 I0 K0.025
G0 Z0.2
X2.0625 Y-1.2549
G1 Z-0.235 F72
G3 X2.0375 Z-0.26 I-0.025 K0
G1 X1.9
X-1.9
G3 X-1.925 Z-0.235 I0 K0.025
G0 Z0.2
X2.0625 Y-1.1564
G1 Z-0.235 F72
G3 X2.0375 Z-0.26 I-0.025 K0
G1 X1.9
X-1.9
G3 X-1.925 Z-0.235 I0 K0.025
G0 Z0.2
X2.0625 Y-1.0579
G1 Z-0.235 F72
G3 X2.0375 Z-0.26 I-0.025 K0
G1 X1.9
X-1.9
G3 X-1.925 Z-0.235 I0 K0.025
G0 Z0.2
X2.0625 Y-0.9593
G1 Z-0.235 F72
G3 X2.0375 Z-0.26 I-0.025 K0
G1 X1.9
X-1.9
G3 X-1.925 Z-0.235 I0 K0.025
G0 Z0.2
X2.0625 Y-0.8608
G1 Z-0.235 F72
G3 X2.0375 Z-0.26 I-0.025 K0
G1 X1.9
X-1.9
G3 X-1.925 Z-0.235 I0 K0.025
G0 Z0.2
X2.0625 Y-0.7623
G1 Z-0.235 F72
G3 X2.0375 Z-0.26 I-0.025 K0
G1 X1.9
X-1.9
G3 X-1.925 Z-0.235 I0 K0.025
G0 Z0.2
X2.0625 Y-0.6638
G1 Z-0.235 F72
G3 X2.0375 Z-0.26 I-0.025 K0
G1 X1.9
X-1.9
G3 X-1.925 Z-0.235 I0 K0.025
G0 Z0.2
X2.0625 Y-0.5652
G1 Z-0.235 F72
G3 X2.0375 Z-0.26 I-0.025 K0
G1 X1.9
X-1.9
G3 X-1.925 Z-0.235 I0 K0.025
G0 Z0.2
X2.0625 Y-0.4667
G1 Z-0.235 F72
G3 X2.0375 Z-0.26 I-0.025 K0
G1 X1.9
X-1.9
G3 X-1.925 Z-0.235 I0 K0.025
G0 Z0.2
X2.0625 Y-0.3682
G1 Z-0.235 F72
G3 X2.0375 Z-0.26 I-0.025 K0
G1 X1.9
X-1.9
G3 X-1.925 Z-0.235 I0 K0.025
G0 Z0.2
X2.0625 Y-0.2697
G1 Z-0.235 F72
G3 X2.0375 Z-0.26 I-0.025 K0
G1 X1.9
X-1.9
G3 X-1.925 Z-0.235 I0 K0.025
G0 Z0.2
X2.0625 Y-0.1711
G1 Z-0.235 F72
G3 X2.0375 Z-0.26 I-0.025 K0
G1 X1.9
X-1.9
G3 X-1.925 Z-0.235 I0 K0.025
G0 Z0.2
X2.0625 Y-0.0726
G1 Z-0.235 F72
G3 X2.0375 Z-0.26 I-0.025 K0
G1 X1.9
X-1.9
G3 X-1.925 Z-0.235 I0 K0.025
G0 Z0.2
X2.0625 Y0.0259
G1 Z-0.235 F72
G3 X2.0375 Z-0.26 I-0.025 K0
G1 X1.9
X-1.9
G3 X-1.925 Z-0.235 I0 K0.025
G0 Z0.2
X2.0625 Y0.1244
G1 Z-0.235 F72
G3 X2.0375 Z-0.26 I-0.025 K0
G1 X1.9
X-1.9
G3 X-1.925 Z-0.235 I0 K0.025
G0 Z0.2
X2.0625 Y0.223
G1 Z-0.235 F72
G3 X2.0375 Z-0.26 I-0.025 K0
G1 X1.9
X-1.9
G3 X-1.925 Z-0.235 I0 K0.025
G0 Z0.2
X2.0625 Y0.3215
G1 Z-0.235 F72
G3 X2.0375 Z-0.26 I-0.025 K0
G1 X1.9
X-1.9
G3 X-1.925 Z-0.235 I0 K0.025
G0 Z0.2
X2.0625 Y0.42
G1 Z-0.235 F72
G3 X2.0375 Z-0.26 I-0.025 K0
G1 X1.9
X-1.9
G3 X-1.925 Z-0.235 I0 K0.025
G0 Z0.2
X2.0625 Y0.5185
G1 Z-0.235 F72
G3 X2.0375 Z-0.26 I-0.025 K0
G1 X1.9
X-1.9
G3 X-1.925 Z-0.235 I0 K0.025
G0 Z0.2
X2.0625 Y0.6171
G1 Z-0.235 F72
G3 X2.0375 Z-0.26 I-0.025 K0
G1 X1.9
X-1.9
G3 X-1.925 Z-0.235 I0 K0.025
G0 Z0.2
X2.0625 Y0.7156
G1 Z-0.235 F72
G3 X2.0375 Z-0.26 I-0.025 K0
G1 X1.9
X-1.9
G3 X-1.925 Z-0.235 I0 K0.025
G0 Z0.2
X2.0625 Y0.8141
G1 Z-0.235 F72
G3 X2.0375 Z-0.26 I-0.025 K0
G1 X1.9
X-1.9
G3 X-1.925 Z-0.235 I0 K0.025
G0 Z0.2
X2.0625 Y0.9126
G1 Z-0.235 F72
G3 X2.0375 Z-0.26 I-0.025 K0
G1 X1.9
X-1.9
G3 X-1.925 Z-0.235 I0 K0.025
G0 Z0.2
X2.0625 Y1.0112
G1 Z-0.235 F72
G3 X2.0375 Z-0.26 I-0.025 K0
G1 X1.9
X-1.9
G3 X-1.925 Z-0.235 I0 K0.025
G0 Z0.2
X2.0625 Y1.1097
G1 Z-0.235 F72
G3 X2.0375 Z-0.26 I-0.025 K0
G1 X1.9
X-1.9
G3 X-1.925 Z-0.235 I0 K0.025
G0 Z0.2
X2.0625 Y1.2082
G1 Z-0.235 F72
G3 X2.0375 Z-0.26 I-0.025 K0
G1 X1.9
X-1.9
G3 X-1.925 Z-0.235 I0 K0.025
G0 Z0.2
X2.0625 Y1.3067
G1 Z-0.235 F72
G3 X2.0375 Z-0.26 I-0.025 K0
G1 X1.9
X-1.9
G3 X-1.925 Z-0.235 I0 K0.025
G0 Z0.2
X2.0623 Y1.4053
G1 Z-0.235 F72
G3 X2.0373 Z-0.26 I-0.025 K0
G1 X1.9
X-1.9
G3 X-1.925 Z-0.235 I0 K0.025
G0 Z0.2
X2.015 Y-1.5505
G1 Z-0.265 F72
G3 X1.99 Z-0.29 I-0.025 K0
G1 X1.8973
X-1.8973
G3 X-1.9223 Z-0.265 I0 K0.025
G0 Z0.2
X2.0571 Y-1.452
G1 Z-0.265 F72
G3 X2.0321 Z-0.29 I-0.025 K0
G1 X1.9
X-1.9
G3 X-1.925 Z-0.265 I0 K0.025
G0 Z0.2
X2.0625 Y-1.3534
G1 Z-0.265 F72
G3 X2.0375 Z-0.29 I-0.025 K0
G1 X1.9
X-1.9
G3 X-1.925 Z-0.265 I0 K0.025
G0 Z0.2
X2.0625 Y-1.2549
G1 Z-0.265 F72
G3 X2.0375 Z-0.29 I-0.025 K0
G1 X1.9
X-1.9
G3 X-1.925 Z-0.265 I0 K0.025
G0 Z0.2
X2.0625 Y-1.1564
G1 Z-0.265 F72
G3 X2.0375 Z-0.29 I-0.025 K0
G1 X1.9
X-1.9
G3 X-1.925 Z-0.265 I0 K0.025
G0 Z0.2
X2.0625 Y-1.0579
G1 Z-0.265 F72
G3 X2.0375 Z-0.29 I-0.025 K0
G1 X1.9
X-1.9
G3 X-1.925 Z-0.265 I0 K0.025
G0 Z0.2
X2.0625 Y-0.9593
G1 Z-0.265 F72
G3 X2.0375 Z-0.29 I-0.025 K0
G1 X1.9
X-1.9
G3 X-1.925 Z-0.265 I0 K0.025
G0 Z0.2
X2.0625 Y-0.8608
G1 Z-0.265 F72
G3 X2.0375 Z-0.29 I-0.025 K0
G1 X1.9
X-1.9
G3 X-1.925 Z-0.265 I0 K0.025
G0 Z0.2
X2.0625 Y-0.7623
G1 Z-0.265 F72
G3 X2.0375 Z-0.29 I-0.025 K0
G1 X1.9
X-1.9
G3 X-1.925 Z-0.265 I0 K0.025
G0 Z0.2
X2.0625 Y-0.6638
G1 Z-0.265 F72
G3 X2.0375 Z-0.29 I-0.025 K0
G1 X1.9
X-1.9
G3 X-1.925 Z-0.265 I0 K0.025
G0 Z0.2
X2.0625 Y-0.5652
G1 Z-0.265 F72
G3 X2.0375 Z-0.29 I-0.025 K0
G1 X1.9
X-1.9
G3 X-1.925 Z-0.265 I0 K0.025
G0 Z0.2
X2.0625 Y-0.4667
G1 Z-0.265 F72
G3 X2.0375 Z-0.29 I-0.025 K0
G1 X1.9
X-1.9
G3 X-1.925 Z-0.265 I0 K0.025
G0 Z0.2
X2.0625 Y-0.3682
G1 Z-0.265 F72
G3 X2.0375 Z-0.29 I-0.025 K0
G1 X1.9
X-1.9
G3 X-1.925 Z-0.265 I0 K0.025
G0 Z0.2
X2.0625 Y-0.2697
G1 Z-0.265 F72
G3 X2.0375 Z-0.29 I-0.025 K0
G1 X1.9
X-1.9
G3 X-1.925 Z-0.265 I0 K0.025
G0 Z0.2
X2.0625 Y-0.1711
G1 Z-0.265 F72
G3 X2.0375 Z-0.29 I-0.025 K0
G1 X1.9
X-1.9
G3 X-1.925 Z-0.265 I0 K0.025
G0 Z0.2
X2.0625 Y-0.0726
G1 Z-0.265 F72
G3 X2.0375 Z-0.29 I-0.025 K0
G1 X1.9
X-1.9
G3 X-1.925 Z-0.265 I0 K0.025
G0 Z0.2
X2.0625 Y0.0259
G1 Z-0.265 F72
G3 X2.0375 Z-0.29 I-0.025 K0
G1 X1.9
X-1.9
G3 X-1.925 Z-0.265 I0 K0.025
G0 Z0.2
X2.0625 Y0.1244
G1 Z-0.265 F72
G3 X2.0375 Z-0.29 I-0.025 K0
G1 X1.9
X-1.9
G3 X-1.925 Z-0.265 I0 K0.025
G0 Z0.2
X2.0625 Y0.223
G1 Z-0.265 F72
G3 X2.0375 Z-0.29 I-0.025 K0
G1 X1.9
X-1.9
G3 X-1.925 Z-0.265 I0 K0.025
G0 Z0.2
X2.0625 Y0.3215
G1 Z-0.265 F72
G3 X2.0375 Z-0.29 I-0.025 K0
G1 X1.9
X-1.9
G3 X-1.925 Z-0.265 I0 K0.025
G0 Z0.2
X2.0625 Y0.42
G1 Z-0.265 F72
G3 X2.0375 Z-0.29 I-0.025 K0
G1 X1.9
X-1.9
G3 X-1.925 Z-0.265 I0 K0.025
G0 Z0.2
X2.0625 Y0.5185
G1 Z-0.265 F72
G3 X2.0375 Z-0.29 I-0.025 K0
G1 X1.9
X-1.9
G3 X-1.925 Z-0.265 I0 K0.025
G0 Z0.2
X2.0625 Y0.6171
G1 Z-0.265 F72
G3 X2.0375 Z-0.29 I-0.025 K0
G1 X1.9
X-1.9
G3 X-1.925 Z-0.265 I0 K0.025
G0 Z0.2
X2.0625 Y0.7156
G1 Z-0.265 F72
G3 X2.0375 Z-0.29 I-0.025 K0
G1 X1.9
X-1.9
G3 X-1.925 Z-0.265 I0 K0.025
G0 Z0.2
X2.0625 Y0.8141
G1 Z-0.265 F72
G3 X2.0375 Z-0.29 I-0.025 K0
G1 X1.9
X-1.9
G3 X-1.925 Z-0.265 I0 K0.025
G0 Z0.2
X2.0625 Y0.9126
G1 Z-0.265 F72
G3 X2.0375 Z-0.29 I-0.025 K0
G1 X1.9
X-1.9
G3 X-1.925 Z-0.265 I0 K0.025
G0 Z0.2
X2.0625 Y1.0112
G1 Z-0.265 F72
G3 X2.0375 Z-0.29 I-0.025 K0
G1 X1.9
X-1.9
G3 X-1.925 Z-0.265 I0 K0.025
G0 Z0.2
X2.0625 Y1.1097
G1 Z-0.265 F72
G3 X2.0375 Z-0.29 I-0.025 K0
G1 X1.9
X-1.9
G3 X-1.925 Z-0.265 I0 K0.025
G0 Z0.2
X2.0625 Y1.2082
G1 Z-0.265 F72
G3 X2.0375 Z-0.29 I-0.025 K0
G1 X1.9
X-1.9
G3 X-1.925 Z-0.265 I0 K0.025
G0 Z0.2
X2.0625 Y1.3067
G1 Z-0.265 F72
G3 X2.0375 Z-0.29 I-0.025 K0
G1 X1.9
X-1.9
G3 X-1.925 Z-0.265 I0 K0.025
G0 Z0.2
X2.0623 Y1.4053
G1 Z-0.265 F72
G3 X2.0373 Z-0.29 I-0.025 K0
G1 X1.9
X-1.9
G3 X-1.925 Z-0.265 I0 K0.025
G0 Z0.2
X2.015 Y-1.5505
G1 Z-0.295 F72
G3 X1.99 Z-0.32 I-0.025 K0
G1 X1.8973
X-1.8973
G3 X-1.9223 Z-0.295 I0 K0.025
G0 Z0.2
X2.0571 Y-1.452
G1 Z-0.295 F72
G3 X2.0321 Z-0.32 I-0.025 K0
G1 X1.9
X-1.9
G3 X-1.925 Z-0.295 I0 K0.025
G0 Z0.2
X2.0625 Y-1.3534
G1 Z-0.295 F72
G3 X2.0375 Z-0.32 I-0.025 K0
G1 X1.9
X-1.9
G3 X-1.925 Z-0.295 I0 K0.025
G0 Z0.2
X2.0625 Y-1.2549
G1 Z-0.295 F72
G3 X2.0375 Z-0.32 I-0.025 K0
G1 X1.9
X-1.9
G3 X-1.925 Z-0.295 I0 K0.025
G0 Z0.2
X2.0625 Y-1.1564
G1 Z-0.295 F72
G3 X2.0375 Z-0.32 I-0.025 K0
G1 X1.9
X-1.9
G3 X-1.925 Z-0.295 I0 K0.025
G0 Z0.2
X2.0625 Y-1.0579
G1 Z-0.295 F72
G3 X2.0375 Z-0.32 I-0.025 K0
G1 X1.9
X-1.9
G3 X-1.925 Z-0.295 I0 K0.025
G0 Z0.2
X2.0625 Y-0.9593
G1 Z-0.295 F72
G3 X2.0375 Z-0.32 I-0.025 K0
G1 X1.9
X-1.9
G3 X-1.925 Z-0.295 I0 K0.025
G0 Z0.2
X2.0625 Y-0.8608
G1 Z-0.295 F72
G3 X2.0375 Z-0.32 I-0.025 K0
G1 X1.9
X-1.9
G3 X-1.925 Z-0.295 I0 K0.025
G0 Z0.2
X2.0625 Y-0.7623
G1 Z-0.295 F72
G3 X2.0375 Z-0.32 I-0.025 K0
G1 X1.9
X-1.9
G3 X-1.925 Z-0.295 I0 K0.025
G0 Z0.2
X2.0625 Y-0.6638
G1 Z-0.295 F72
G3 X2.0375 Z-0.32 I-0.025 K0
G1 X1.9
X-1.9
G3 X-1.925 Z-0.295 I0 K0.025
G0 Z0.2
X2.0625 Y-0.5652
G1 Z-0.295 F72
G3 X2.0375 Z-0.32 I-0.025 K0
G1 X1.9
X-1.9
G3 X-1.925 Z-0.295 I0 K0.025
G0 Z0.2
X2.0625 Y-0.4667
G1 Z-0.295 F72
G3 X2.0375 Z-0.32 I-0.025 K0
G1 X1.9
X-1.9
G3 X-1.925 Z-0.295 I0 K0.025
G0 Z0.2
X2.0625 Y-0.3682
G1 Z-0.295 F72
G3 X2.0375 Z-0.32 I-0.025 K0
G1 X1.9
X-1.9
G3 X-1.925 Z-0.295 I0 K0.025
G0 Z0.2
X2.0625 Y-0.2697
G1 Z-0.295 F72
G3 X2.0375 Z-0.32 I-0.025 K0
G1 X1.9
X-1.9
G3 X-1.925 Z-0.295 I0 K0.025
G0 Z0.2
X2.0625 Y-0.1711
G1 Z-0.295 F72
G3 X2.0375 Z-0.32 I-0.025 K0
G1 X1.9
X-1.9
G3 X-1.925 Z-0.295 I0 K0.025
G0 Z0.2
X2.0625 Y-0.0726
G1 Z-0.295 F72
G3 X2.0375 Z-0.32 I-0.025 K0
G1 X1.9
X-1.9
G3 X-1.925 Z-0.295 I0 K0.025
G0 Z0.2
X2.0625 Y0.0259
G1 Z-0.295 F72
G3 X2.0375 Z-0.32 I-0.025 K0
G1 X1.9
X-1.9
G3 X-1.925 Z-0.295 I0 K0.025
G0 Z0.2
X2.0625 Y0.1244
G1 Z-0.295 F72
G3 X2.0375 Z-0.32 I-0.025 K0
G1 X1.9
X-1.9
G3 X-1.925 Z-0.295 I0 K0.025
G0 Z0.2
X2.0625 Y0.223
G1 Z-0.295 F72
G3 X2.0375 Z-0.32 I-0.025 K0
G1 X1.9
X-1.9
G3 X-1.925 Z-0.295 I0 K0.025
G0 Z0.2
X2.0625 Y0.3215
G1 Z-0.295 F72
G3 X2.0375 Z-0.32 I-0.025 K0
G1 X1.9
X-1.9
G3 X-1.925 Z-0.295 I0 K0.025
G0 Z0.2
X2.0625 Y0.42
G1 Z-0.295 F72
G3 X2.0375 Z-0.32 I-0.025 K0
G1 X1.9
X-1.9
G3 X-1.925 Z-0.295 I0 K0.025
G0 Z0.2
X2.0625 Y0.5185
G1 Z-0.295 F72
G3 X2.0375 Z-0.32 I-0.025 K0
G1 X1.9
X-1.9
G3 X-1.925 Z-0.295 I0 K0.025
G0 Z0.2
X2.0625 Y0.6171
G1 Z-0.295 F72
G3 X2.0375 Z-0.32 I-0.025 K0
G1 X1.9
X-1.9
G3 X-1.925 Z-0.295 I0 K0.025
G0 Z0.2
X2.0625 Y0.7156
G1 Z-0.295 F72
G3 X2.0375 Z-0.32 I-0.025 K0
G1 X1.9
X-1.9
G3 X-1.925 Z-0.295 I0 K0.025
G0 Z0.2
X2.0625 Y0.8141
G1 Z-0.295 F72
G3 X2.0375 Z-0.32 I-0.025 K0
G1 X1.9
X-1.9
G3 X-1.925 Z-0.295 I0 K0.025
G0 Z0.2
X2.0625 Y0.9126
G1 Z-0.295 F72
G3 X2.0375 Z-0.32 I-0.025 K0
G1 X1.9
X-1.9
G3 X-1.925 Z-0.295 I0 K0.025
G0 Z0.2
X2.0625 Y1.0112
G1 Z-0.295 F72
G3 X2.0375 Z-0.32 I-0.025 K0
G1 X1.9
X-1.9
G3 X-1.925 Z-0.295 I0 K0.025
G0 Z0.2
X2.0625 Y1.1097
G1 Z-0.295 F72
G3 X2.0375 Z-0.32 I-0.025 K0
G1 X1.9
X-1.9
G3 X-1.925 Z-0.295 I0 K0.025
G0 Z0.2
X2.0625 Y1.2082
G1 Z-0.295 F72
G3 X2.0375 Z-0.32 I-0.025 K0
G1 X1.9
X-1.9
G3 X-1.925 Z-0.295 I0 K0.025
G0 Z0.2
X2.0625 Y1.3067
G1 Z-0.295 F72
G3 X2.0375 Z-0.32 I-0.025 K0
G1 X1.9
X-1.9
G3 X-1.925 Z-0.295 I0 K0.025
G0 Z0.2
X2.0623 Y1.4053
G1 Z-0.295 F72
G3 X2.0373 Z-0.32 I-0.025 K0
G1 X1.9
X-1.9
G3 X-1.925 Z-0.295 I0 K0.025
G0 Z0.2
X2.015 Y-1.5505
G1 Z-0.325 F72
G3 X1.99 Z-0.35 I-0.025 K0
G1 X1.8973
X-1.8973
G3 X-1.9223 Z-0.325 I0 K0.025
G0 Z0.2
X2.0571 Y-1.452
G1 Z-0.325 F72
G3 X2.0321 Z-0.35 I-0.025 K0
G1 X1.9
X-1.9
G3 X-1.925 Z-0.325 I0 K0.025
G0 Z0.2
X2.0625 Y-1.3534
G1 Z-0.325 F72
G3 X2.0375 Z-0.35 I-0.025 K0
G1 X1.9
X-1.9
G3 X-1.925 Z-0.325 I0 K0.025
G0 Z0.2
X2.0625 Y-1.2549
G1 Z-0.325 F72
G3 X2.0375 Z-0.35 I-0.025 K0
G1 X1.9
X-1.9
G3 X-1.925 Z-0.325 I0 K0.025
G0 Z0.2
X2.0625 Y-1.1564
G1 Z-0.325 F72
G3 X2.0375 Z-0.35 I-0.025 K0
G1 X1.9
X-1.9
G3 X-1.925 Z-0.325 I0 K0.025
G0 Z0.2
X2.0625 Y-1.0579
G1 Z-0.325 F72
G3 X2.0375 Z-0.35 I-0.025 K0
G1 X1.9
X-1.9
G3 X-1.925 Z-0.325 I0 K0.025
G0 Z0.2
X2.0625 Y-0.9593
G1 Z-0.325 F72
G3 X2.0375 Z-0.35 I-0.025 K0
G1 X1.9
X-1.9
G3 X-1.925 Z-0.325 I0 K0.025
G0 Z0.2
X2.0625 Y-0.8608
G1 Z-0.325 F72
G3 X2.0375 Z-0.35 I-0.025 K0
G1 X1.9
X-1.9
G3 X-1.925 Z-0.325 I0 K0.025
G0 Z0.2
X2.0625 Y-0.7623
G1 Z-0.325 F72
G3 X2.0375 Z-0.35 I-0.025 K0
G1 X1.9
X-1.9
G3 X-1.925 Z-0.325 I0 K0.025
G0 Z0.2
X2.0625 Y-0.6638
G1 Z-0.325 F72
G3 X2.0375 Z-0.35 I-0.025 K0
G1 X1.9
X-1.9
G3 X-1.925 Z-0.325 I0 K0.025
G0 Z0.2
X2.0625 Y-0.5652
G1 Z-0.325 F72
G3 X2.0375 Z-0.35 I-0.025 K0
G1 X1.9
X-1.9
G3 X-1.925 Z-0.325 I0 K0.025
G0 Z0.2
X2.0625 Y-0.4667
G1 Z-0.325 F72
G3 X2.0375 Z-0.35 I-0.025 K0
G1 X1.9
X-1.9
G3 X-1.925 Z-0.325 I0 K0.025
G0 Z0.2
X2.0625 Y-0.3682
G1 Z-0.325 F72
G3 X2.0375 Z-0.35 I-0.025 K0
G1 X1.9
X-1.9
G3 X-1.925 Z-0.325 I0 K0.025
G0 Z0.2
X2.0625 Y-0.2697
G1 Z-0.325 F72
G3 X2.0375 Z-0.35 I-0.025 K0
G1 X1.9
X-1.9
G3 X-1.925 Z-0.325 I0 K0.025
G0 Z0.2
X2.0625 Y-0.1711
G1 Z-0.325 F72
G3 X2.0375 Z-0.35 I-0.025 K0
G1 X1.9
X-1.9
G3 X-1.925 Z-0.325 I0 K0.025
G0 Z0.2
X2.0625 Y-0.0726
G1 Z-0.325 F72
G3 X2.0375 Z-0.35 I-0.025 K0
G1 X1.9
X-1.9
G3 X-1.925 Z-0.325 I0 K0.025
G0 Z0.2
X2.0625 Y0.0259
G1 Z-0.325 F72
G3 X2.0375 Z-0.35 I-0.025 K0
G1 X1.9
X-1.9
G3 X-1.925 Z-0.325 I0 K0.025
G0 Z0.2
X2.0625 Y0.1244
G1 Z-0.325 F72
G3 X2.0375 Z-0.35 I-0.025 K0
G1 X1.9
X-1.9
G3 X-1.925 Z-0.325 I0 K0.025
G0 Z0.2
X2.0625 Y0.223
G1 Z-0.325 F72
G3 X2.0375 Z-0.35 I-0.025 K0
G1 X1.9
X-1.9
G3 X-1.925 Z-0.325 I0 K0.025
G0 Z0.2
X2.0625 Y0.3215
G1 Z-0.325 F72
G3 X2.0375 Z-0.35 I-0.025 K0
G1 X1.9
X-1.9
G3 X-1.925 Z-0.325 I0 K0.025
G0 Z0.2
X2.0625 Y0.42
G1 Z-0.325 F72
G3 X2.0375 Z-0.35 I-0.025 K0
G1 X1.9
X-1.9
G3 X-1.925 Z-0.325 I0 K0.025
G0 Z0.2
X2.0625 Y0.5185
G1 Z-0.325 F72
G3 X2.0375 Z-0.35 I-0.025 K0
G1 X1.9
X-1.9
G3 X-1.925 Z-0.325 I0 K0.025
G0 Z0.2
X2.0625 Y0.6171
G1 Z-0.325 F72
G3 X2.0375 Z-0.35 I-0.025 K0
G1 X1.9
X-1.9
G3 X-1.925 Z-0.325 I0 K0.025
G0 Z0.2
X2.0625 Y0.7156
G1 Z-0.325 F72
G3 X2.0375 Z-0.35 I-0.025 K0
G1 X1.9
X-1.9
G3 X-1.925 Z-0.325 I0 K0.025
G0 Z0.2
X2.0625 Y0.8141
G1 Z-0.325 F72
G3 X2.0375 Z-0.35 I-0.025 K0
G1 X1.9
X-1.9
G3 X-1.925 Z-0.325 I0 K0.025
G0 Z0.2
X2.0625 Y0.9126
G1 Z-0.325 F72
G3 X2.0375 Z-0.35 I-0.025 K0
G1 X1.9
X-1.9
G3 X-1.925 Z-0.325 I0 K0.025
G0 Z0.2
X2.0625 Y1.0112
G1 Z-0.325 F72
G3 X2.0375 Z-0.35 I-0.025 K0
G1 X1.9
X-1.9
G3 X-1.925 Z-0.325 I0 K0.025
G0 Z0.2
X2.0625 Y1.1097
G1 Z-0.325 F72
G3 X2.0375 Z-0.35 I-0.025 K0
G1 X1.9
X-1.9
G3 X-1.925 Z-0.325 I0 K0.025
G0 Z0.2
X2.0625 Y1.2082
G1 Z-0.325 F72
G3 X2.0375 Z-0.35 I-0.025 K0
G1 X1.9
X-1.9
G3 X-1.925 Z-0.325 I0 K0.025
G0 Z0.2
X2.0625 Y1.3067
G1 Z-0.325 F72
G3 X2.0375 Z-0.35 I-0.025 K0
G1 X1.9
X-1.9
G3 X-1.925 Z-0.325 I0 K0.025
G0 Z0.2
X2.0623 Y1.4053
G1 Z-0.325 F72
G3 X2.0373 Z-0.35 I-0.025 K0
G1 X1.9
X-1.9
G3 X-1.925 Z-0.325 I0 K0.025
G0 Z0.2
X2.015 Y-1.5505
G1 Z-0.355 F72
G3 X1.99 Z-0.38 I-0.025 K0
G1 X1.8973
X-1.8973
G3 X-1.9223 Z-0.355 I0 K0.025
G0 Z0.2
X2.0571 Y-1.452
G1 Z-0.355 F72
G3 X2.0321 Z-0.38 I-0.025 K0
G1 X1.9
X-1.9
G3 X-1.925 Z-0.355 I0 K0.025
G0 Z0.2
X2.0625 Y-1.3534
G1 Z-0.355 F72
G3 X2.0375 Z-0.38 I-0.025 K0
G1 X1.9
X-1.9
G3 X-1.925 Z-0.355 I0 K0.025
G0 Z0.2
X2.0625 Y-1.2549
G1 Z-0.355 F72
G3 X2.0375 Z-0.38 I-0.025 K0
G1 X1.9
X-1.9
G3 X-1.925 Z-0.355 I0 K0.025
G0 Z0.2
X2.0625 Y-1.1564
G1 Z-0.355 F72
G3 X2.0375 Z-0.38 I-0.025 K0
G1 X1.9
X-1.9
G3 X-1.925 Z-0.355 I0 K0.025
G0 Z0.2
X2.0625 Y-1.0579
G1 Z-0.355 F72
G3 X2.0375 Z-0.38 I-0.025 K0
G1 X1.9
X-1.9
G3 X-1.925 Z-0.355 I0 K0.025
G0 Z0.2
X2.0625 Y-0.9593
G1 Z-0.355 F72
G3 X2.0375 Z-0.38 I-0.025 K0
G1 X1.9
X-1.9
G3 X-1.925 Z-0.355 I0 K0.025
G0 Z0.2
X2.0625 Y-0.8608
G1 Z-0.355 F72
G3 X2.0375 Z-0.38 I-0.025 K0
G1 X1.9
X-1.9
G3 X-1.925 Z-0.355 I0 K0.025
G0 Z0.2
X2.0625 Y-0.7623
G1 Z-0.355 F72
G3 X2.0375 Z-0.38 I-0.025 K0
G1 X1.9
X-1.9
G3 X-1.925 Z-0.355 I0 K0.025
G0 Z0.2
X2.0625 Y-0.6638
G1 Z-0.355 F72
G3 X2.0375 Z-0.38 I-0.025 K0
G1 X1.9
X-1.9
G3 X-1.925 Z-0.355 I0 K0.025
G0 Z0.2
X2.0625 Y-0.5652
G1 Z-0.355 F72
G3 X2.0375 Z-0.38 I-0.025 K0
G1 X1.9
X-1.9
G3 X-1.925 Z-0.355 I0 K0.025
G0 Z0.2
X2.0625 Y-0.4667
G1 Z-0.355 F72
G3 X2.0375 Z-0.38 I-0.025 K0
G1 X1.9
X-1.9
G3 X-1.925 Z-0.355 I0 K0.025
G0 Z0.2
X2.0625 Y-0.3682
G1 Z-0.355 F72
G3 X2.0375 Z-0.38 I-0.025 K0
G1 X1.9
X-1.9
G3 X-1.925 Z-0.355 I0 K0.025
G0 Z0.2
X2.0625 Y-0.2697
G1 Z-0.355 F72
G3 X2.0375 Z-0.38 I-0.025 K0
G1 X1.9
X-1.9
G3 X-1.925 Z-0.355 I0 K0.025
G0 Z0.2
X2.0625 Y-0.1711
G1 Z-0.355 F72
G3 X2.0375 Z-0.38 I-0.025 K0
G1 X1.9
X-1.9
G3 X-1.925 Z-0.355 I0 K0.025
G0 Z0.2
X2.0625 Y-0.0726
G1 Z-0.355 F72
G3 X2.0375 Z-0.38 I-0.025 K0
G1 X1.9
X-1.9
G3 X-1.925 Z-0.355 I0 K0.025
G0 Z0.2
X2.0625 Y0.0259
G1 Z-0.355 F72
G3 X2.0375 Z-0.38 I-0.025 K0
G1 X1.9
X-1.9
G3 X-1.925 Z-0.355 I0 K0.025
G0 Z0.2
X2.0625 Y0.1244
G1 Z-0.355 F72
G3 X2.0375 Z-0.38 I-0.025 K0
G1 X1.9
X-1.9
G3 X-1.925 Z-0.355 I0 K0.025
G0 Z0.2
X2.0625 Y0.223
G1 Z-0.355 F72
G3 X2.0375 Z-0.38 I-0.025 K0
G1 X1.9
X-1.9
G3 X-1.925 Z-0.355 I0 K0.025
G0 Z0.2
X2.0625 Y0.3215
G1 Z-0.355 F72
G3 X2.0375 Z-0.38 I-0.025 K0
G1 X1.9
X-1.9
G3 X-1.925 Z-0.355 I0 K0.025
G0 Z0.2
X2.0625 Y0.42
G1 Z-0.355 F72
G3 X2.0375 Z-0.38 I-0.025 K0
G1 X1.9
X-1.9
G3 X-1.925 Z-0.355 I0 K0.025
G0 Z0.2
X2.0625 Y0.5185
G1 Z-0.355 F72
G3 X2.0375 Z-0.38 I-0.025 K0
G1 X1.9
X-1.9
G3 X-1.925 Z-0.355 I0 K0.025
G0 Z0.2
X2.0625 Y0.6171
G1 Z-0.355 F72
G3 X2.0375 Z-0.38 I-0.025 K0
G1 X1.9
X-1.9
G3 X-1.925 Z-0.355 I0 K0.025
G0 Z0.2
X2.0625 Y0.7156
G1 Z-0.355 F72
G3 X2.0375 Z-0.38 I-0.025 K0
G1 X1.9
X-1.9
G3 X-1.925 Z-0.355 I0 K0.025
G0 Z0.2
X2.0625 Y0.8141
G1 Z-0.355 F72
G3 X2.0375 Z-0.38 I-0.025 K0
G1 X1.9
X-1.9
G3 X-1.925 Z-0.355 I0 K0.025
G0 Z0.2
X2.0625 Y0.9126
G1 Z-0.355 F72
G3 X2.0375 Z-0.38 I-0.025 K0
G1 X1.9
X-1.9
G3 X-1.925 Z-0.355 I0 K0.025
G0 Z0.2
X2.0625 Y1.0112
G1 Z-0.355 F72
G3 X2.0375 Z-0.38 I-0.025 K0
G1 X1.9
X-1.9
G3 X-1.925 Z-0.355 I0 K0.025
G0 Z0.2
X2.0625 Y1.1097
G1 Z-0.355 F72
G3 X2.0375 Z-0.38 I-0.025 K0
G1 X1.9
X-1.9
G3 X-1.925 Z-0.355 I0 K0.025
G0 Z0.2
X2.0625 Y1.2082
G1 Z-0.355 F72
G3 X2.0375 Z-0.38 I-0.025 K0
G1 X1.9
X-1.9
G3 X-1.925 Z-0.355 I0 K0.025
G0 Z0.2
X2.0625 Y1.3067
G1 Z-0.355 F72
G3 X2.0375 Z-0.38 I-0.025 K0
G1 X1.9
X-1.9
G3 X-1.925 Z-0.355 I0 K0.025
G0 Z0.2
X2.0623 Y1.4053
G1 Z-0.355 F72
G3 X2.0373 Z-0.38 I-0.025 K0
G1 X1.9
X-1.9
G3 X-1.925 Z-0.355 I0 K0.025
G0 Z0.2
X2.015 Y-1.5505
G1 Z-0.365 F72
G3 X1.99 Z-0.39 I-0.025 K0
G1 X1.8973
X-1.8973 F50
G3 X-1.9223 Z-0.365 I0 K0.025 F72
G0 Z0.2
X2.0571 Y-1.452
G1 Z-0.365 F72
G3 X2.0321 Z-0.39 I-0.025 K0
G1 X1.9
X-1.9 F50
G3 X-1.925 Z-0.365 I0 K0.025 F72
G0 Z0.2
X2.0625 Y-1.3534
G1 Z-0.365 F72
G3 X2.0375 Z-0.39 I-0.025 K0
G1 X1.9
X-1.9 F50
G3 X-1.925 Z-0.365 I0 K0.025 F72
G0 Z0.2
X2.0625 Y-1.2549
G1 Z-0.365 F72
G3 X2.0375 Z-0.39 I-0.025 K0
G1 X1.9
X-1.9 F50
G3 X-1.925 Z-0.365 I0 K0.025 F72
G0 Z0.2
X2.0625 Y-1.1564
G1 Z-0.365 F72
G3 X2.0375 Z-0.39 I-0.025 K0
G1 X1.9
X-1.9 F50
G3 X-1.925 Z-0.365 I0 K0.025 F72
G0 Z0.2
X2.0625 Y-1.0579
G1 Z-0.365 F72
G3 X2.0375 Z-0.39 I-0.025 K0
G1 X1.9
X-1.9 F50
G3 X-1.925 Z-0.365 I0 K0.025 F72
G0 Z0.2
X2.0625 Y-0.9593
G1 Z-0.365 F72
G3 X2.0375 Z-0.39 I-0.025 K0
G1 X1.9
X-1.9 F50
G3 X-1.925 Z-0.365 I0 K0.025 F72
G0 Z0.2
X2.0625 Y-0.8608
G1 Z-0.365 F72
G3 X2.0375 Z-0.39 I-0.025 K0
G1 X1.9
X-1.9 F50
G3 X-1.925 Z-0.365 I0 K0.025 F72
G0 Z0.2
X2.0625 Y-0.7623
G1 Z-0.365 F72
G3 X2.0375 Z-0.39 I-0.025 K0
G1 X1.9
X-1.9 F50
G3 X-1.925 Z-0.365 I0 K0.025 F72
G0 Z0.2
X2.0625 Y-0.6638
G1 Z-0.365 F72
G3 X2.0375 Z-0.39 I-0.025 K0
G1 X1.9
X-1.9 F50
G3 X-1.925 Z-0.365 I0 K0.025 F72
G0 Z0.2
X2.0625 Y-0.5652
G1 Z-0.365 F72
G3 X2.0375 Z-0.39 I-0.025 K0
G1 X1.9
X-1.9 F50
G3 X-1.925 Z-0.365 I0 K0.025 F72
G0 Z0.2
X2.0625 Y-0.4667
G1 Z-0.365 F72
G3 X2.0375 Z-0.39 I-0.025 K0
G1 X1.9
X-1.9 F50
G3 X-1.925 Z-0.365 I0 K0.025 F72
G0 Z0.2
X2.0625 Y-0.3682
G1 Z-0.365 F72
G3 X2.0375 Z-0.39 I-0.025 K0
G1 X1.9
X-1.9 F50
G3 X-1.925 Z-0.365 I0 K0.025 F72
G0 Z0.2
X2.0625 Y-0.2697
G1 Z-0.365 F72
G3 X2.0375 Z-0.39 I-0.025 K0
G1 X1.9
X-1.9 F50
G3 X-1.925 Z-0.365 I0 K0.025 F72
G0 Z0.2
X2.0625 Y-0.1711
G1 Z-0.365 F72
G3 X2.0375 Z-0.39 I-0.025 K0
G1 X1.9
X-1.9 F50
G3 X-1.925 Z-0.365 I0 K0.025 F72
G0 Z0.2
X2.0625 Y-0.0726
G1 Z-0.365 F72
G3 X2.0375 Z-0.39 I-0.025 K0
G1 X1.9
X-1.9 F50
G3 X-1.925 Z-0.365 I0 K0.025 F72
G0 Z0.2
X2.0625 Y0.0259
G1 Z-0.365 F72
G3 X2.0375 Z-0.39 I-0.025 K0
G1 X1.9
X-1.9 F50
G3 X-1.925 Z-0.365 I0 K0.025 F72
G0 Z0.2
X2.0625 Y0.1244
G1 Z-0.365 F72
G3 X2.0375 Z-0.39 I-0.025 K0
G1 X1.9
X-1.9 F50
G3 X-1.925 Z-0.365 I0 K0.025 F72
G0 Z0.2
X2.0625 Y0.223
G1 Z-0.365 F72
G3 X2.0375 Z-0.39 I-0.025 K0
G1 X1.9
X-1.9 F50
G3 X-1.925 Z-0.365 I0 K0.025 F72
G0 Z0.2
X2.0625 Y0.3215
G1 Z-0.365 F72
G3 X2.0375 Z-0.39 I-0.025 K0
G1 X1.9
X-1.9 F50
G3 X-1.925 Z-0.365 I0 K0.025 F72
G0 Z0.2
X2.0625 Y0.42
G1 Z-0.365 F72
G3 X2.0375 Z-0.39 I-0.025 K0
G1 X1.9
X-1.9 F50
G3 X-1.925 Z-0.365 I0 K0.025 F72
G0 Z0.2
X2.0625 Y0.5185
G1 Z-0.365 F72
G3 X2.0375 Z-0.39 I-0.025 K0
G1 X1.9
X-1.9 F50
G3 X-1.925 Z-0.365 I0 K0.025 F72
G0 Z0.2
X2.0625 Y0.6171
G1 Z-0.365 F72
G3 X2.0375 Z-0.39 I-0.025 K0
G1 X1.9
X-1.9 F50
G3 X-1.925 Z-0.365 I0 K0.025 F72
G0 Z0.2
X2.0625 Y0.7156
G1 Z-0.365 F72
G3 X2.0375 Z-0.39 I-0.025 K0
G1 X1.9
X-1.9 F50
G3 X-1.925 Z-0.365 I0 K0.025 F72
G0 Z0.2
X2.0625 Y0.8141
G1 Z-0.365 F72
G3 X2.0375 Z-0.39 I-0.025 K0
G1 X1.9
X-1.9 F50
G3 X-1.925 Z-0.365 I0 K0.025 F72
G0 Z0.2
X2.0625 Y0.9126
G1 Z-0.365 F72
G3 X2.0375 Z-0.39 I-0.025 K0
G1 X1.9
X-1.9 F50
G3 X-1.925 Z-0.365 I0 K0.025 F72
G0 Z0.2
X2.0625 Y1.0112
G1 Z-0.365 F72
G3 X2.0375 Z-0.39 I-0.025 K0
G1 X1.9
X-1.9 F50
G3 X-1.925 Z-0.365 I0 K0.025 F72
G0 Z0.2
X2.0625 Y1.1097
G1 Z-0.365 F72
G3 X2.0375 Z-0.39 I-0.025 K0
G1 X1.9
X-1.9 F50
G3 X-1.925 Z-0.365 I0 K0.025 F72
G0 Z0.2
X2.0625 Y1.2082
G1 Z-0.365 F72
G3 X2.0375 Z-0.39 I-0.025 K0
G1 X1.9
X-1.9 F50
G3 X-1.925 Z-0.365 I0 K0.025 F72
G0 Z0.2
X2.0625 Y1.3067
G1 Z-0.365 F72
G3 X2.0375 Z-0.39 I-0.025 K0
G1 X1.9
X-1.9 F50
G3 X-1.925 Z-0.365 I0 K0.025 F72
G0 Z0.2
X2.0623 Y1.4053
G1 Z-0.365 F72
G3 X2.0373 Z-0.39 I-0.025 K0
G1 X1.9
X-1.9 F50
G3 X-1.925 Z-0.365 I0 K0.025 F72
G0 Z0.6
G17
M5
G28 G91 Z0
G90

(2D Adaptive1)
T2 M6
(.03" DOC)
S4500 M3
G54
G0 X0.0109 Y0.0205
Z0.21
Z-0.19
Z-0.395
G1 Z-0.4075 F72
Y0.0202 Z-0.4103
X0.0107 Y0.0193 Z-0.4129
X0.0105 Y0.0178 Z-0.4153
X0.0102 Y0.0158 Z-0.4173
X0.0099 Y0.0135 Z-0.4188
X0.0095 Y0.0109 Z-0.4197
X0.009 Y0.0081 Z-0.42
G3 X0.0059 Y-0.0606 I0.3154 J-0.0485
G1 X0.0063 Y-0.0635
X0.0104 Y-0.0679
X0.0155 Y-0.0711
X0.0212 Y-0.073
X0.0271 Y-0.0738
X0.0331
X0.0391 Y-0.0733
X0.0449 Y-0.0718
X0.0505 Y-0.0696
X0.0564 Y-0.0668
X0.0616 Y-0.0637
X0.0664 Y-0.0602
X0.0708 Y-0.0561
X0.0755 Y-0.051
X0.0807 Y-0.0444
X0.0841 Y-0.0394
X0.0868 Y-0.034
X0.0895 Y-0.0276
X0.0921 Y-0.0195
X0.0938 Y-0.0124
X0.0947 Y-0.0065
X0.0951 Y0.0001
X0.095 Y0.0082
X0.094 Y0.018
X0.093 Y0.024
X0.0913 Y0.0301
X0.0886 Y0.0375
X0.0845 Y0.0463
X0.0811 Y0.0523
X0.0778 Y0.0573
X0.0732 Y0.063
X0.0671 Y0.0696
X0.0603 Y0.0758
X0.0555 Y0.0795
X0.0497 Y0.0832
X0.0423 Y0.0872
X0.0326 Y0.0914
X0.0269 Y0.0933
X0.0205 Y0.0949
X0.0127 Y0.0962
X0.0028 Y0.0971
X-0.0046
X-0.0107 Y0.0966
X-0.0181 Y0.0954
X-0.027 Y0.0933
X-0.0358 Y0.0904
X-0.0413 Y0.088
X-0.0475 Y0.0848
X-0.0548 Y0.0802
X-0.0633 Y0.0738
X-0.0678 Y0.0698
X-0.0724 Y0.065
X-0.0776 Y0.0586
X-0.0833 Y0.0502
X-0.0867 Y0.0442
X-0.0893 Y0.0385
X-0.092 Y0.0314
X-0.0946 Y0.0223
X-0.0963 Y0.0137
X-0.097 Y0.0077
X-0.0972 Y0.0006
X-0.0968 Y-0.0082
X-0.0955 Y-0.0184
X-0.0943 Y-0.0243
X-0.0923 Y-0.0308
X-0.0892 Y-0.0385
X-0.0847 Y-0.0478
X-0.0814 Y-0.0533
X-0.0777 Y-0.0585
X-0.0728 Y-0.0645
X-0.0661 Y-0.0713
X-0.0565 Y-0.0796
X-0.0422 Y-0.0901
X-0.0319 Y-0.0964
X-0.0224 Y-0.1013
X-0.0132 Y-0.1051
X-0.0041 Y-0.108
X0.0043 Y-0.11
X0.0125 Y-0.1113
X0.0207 Y-0.1119
X0.0292 Y-0.1118
X0.0376 Y-0.111
X0.0459 Y-0.1096
X0.0538 Y-0.1076
X0.0617 Y-0.1048
X0.0695 Y-0.1014
X0.0774 Y-0.0972
X0.0848 Y-0.0925
X0.0917 Y-0.0872
X0.0982 Y-0.0813
X0.1046 Y-0.0746
X0.1105 Y-0.0673
X0.1158 Y-0.0595
X0.1204 Y-0.0514
X0.1244 Y-0.0428
X0.1278 Y-0.0338
X0.1306 Y-0.0239
X0.1325 Y-0.0142
X0.1336 Y-0.0045
X0.134 Y0.0055
X0.1335 Y0.016
X0.1322 Y0.0264
X0.1301 Y0.0364
X0.1272 Y0.0462
X0.1234 Y0.0561
X0.1187 Y0.0659
X0.1133 Y0.0751
X0.1074 Y0.0836
X0.1006 Y0.0918
X0.0929 Y0.0998
X0.0847 Y0.107
X0.0762 Y0.1134
X0.0672 Y0.119
X0.0576 Y0.1241
X0.0474 Y0.1284
X0.0371 Y0.1318
X0.0267 Y0.1343
X0.016 Y0.1361
X0.0049 Y0.1369
X-0.0062
X-0.017 Y0.1361
X-0.0276 Y0.1343
X-0.0383 Y0.1317
X-0.0492 Y0.128
X-0.0592 Y0.1238
X-0.0687 Y0.1188
X-0.0779 Y0.113
X-0.0869 Y0.1062
X-0.0952 Y0.0989
X-0.1027 Y0.0911
X-0.1095 Y0.0827
X-0.1159 Y0.0736
X-0.1215 Y0.0638
X-0.1262 Y0.054
X-0.1301 Y0.0439
X-0.1331 Y0.0333
X-0.1355 Y0.0221
X-0.1368 Y0.0112
X-0.1373 Y0.0005
X-0.1369 Y-0.0104
X-0.1355 Y-0.0217
X-0.1334 Y-0.0326
X-0.1304 Y-0.0429
X-0.1266 Y-0.0531
X-0.1218 Y-0.0632
X-0.1158 Y-0.0737
X-0.1083 Y-0.0847
X-0.0995 Y-0.0956
X-0.0896 Y-0.106
X-0.0789 Y-0.1156
X-0.0677 Y-0.1241
X-0.0562 Y-0.1315
X-0.0445 Y-0.1377
X-0.0328 Y-0.1428
X-0.0209 Y-0.1468
X-0.0089 Y-0.1499
X0.0032 Y-0.1519
X0.0152 Y-0.153
X0.0273
X0.0392 Y-0.1522
X0.0511 Y-0.1503
X0.0628 Y-0.1475
X0.0742 Y-0.1438
X0.0853 Y-0.1392
X0.0961 Y-0.1337
X0.1065 Y-0.1272
X0.1164 Y-0.1199
X0.1258 Y-0.1117
X0.1345 Y-0.1028
X0.1426 Y-0.0932
X0.1499 Y-0.0827
X0.1564 Y-0.0717
X0.1621 Y-0.0601
X0.1668 Y-0.048
X0.1706 Y-0.0354
X0.1734 Y-0.0224
X0.1751 Y-0.0092
X0.1758 Y0.0042
X0.1754 Y0.0176
X0.174 Y0.0311
X0.1714 Y0.0446
X0.1677 Y0.0579
X0.163 Y0.0708
X0.1572 Y0.0834
X0.1503 Y0.0956
X0.1425 Y0.1073
X0.1337 Y0.1183
X0.1241 Y0.1286
X0.1137 Y0.1381
X0.1024 Y0.1468
X0.0905 Y0.1546
X0.0781 Y0.1613
X0.0651 Y0.1671
X0.0516 Y0.1718
X0.0377 Y0.1755
X0.0236 Y0.178
X0.0094 Y0.1793
X-0.0049 Y0.1795
X-0.0194 Y0.1786
X-0.0336 Y0.1765
X-0.0476 Y0.1733
X-0.0613 Y0.169
X-0.0746 Y0.1635
X-0.0875 Y0.1571
X-0.0998 Y0.1496
X-0.1114 Y0.1411
X-0.1224 Y0.1318
X-0.1326 Y0.1215
X-0.1419 Y0.1105
X-0.1503 Y0.0988
X-0.1577 Y0.0865
X-0.1642 Y0.0735
X-0.1696 Y0.06
X-0.1738 Y0.0463
X-0.177 Y0.0322
X-0.179 Y0.0179
X-0.1799 Y0.0034
X-0.1796 Y-0.011
X-0.1781 Y-0.0253
X-0.1755 Y-0.0395
X-0.1717 Y-0.0537
X-0.1666 Y-0.068
X-0.1601 Y-0.0824
X-0.1523 Y-0.0966
X-0.1431 Y-0.1105
X-0.1328 Y-0.1238
X-0.1213 Y-0.1363
X-0.1089 Y-0.1478
X-0.0957 Y-0.1581
X-0.0819 Y-0.1673
X-0.0675 Y-0.1753
X-0.0527 Y-0.182
X-0.0375 Y-0.1874
X-0.0221 Y-0.1916
X-0.0065 Y-0.1945
X0.0091 Y-0.1961
X0.0248 Y-0.1965
X0.0405 Y-0.1956
X0.0559 Y-0.1935
X0.0712 Y-0.1901
X0.0861 Y-0.1855
X0.1007 Y-0.1797
X0.1148 Y-0.1728
X0.1284 Y-0.1647
X0.1413 Y-0.1555
X0.1535 Y-0.1452
X0.1649 Y-0.1339
X0.1754 Y-0.1217
X0.1849 Y-0.1086
X0.1935 Y-0.0947
X0.2009 Y-0.08
X0.2072 Y-0.0648
X0.2122 Y-0.0489
X0.216 Y-0.0327
X0.2185 Y-0.016
X0.2196 Y0.0008
X0.2194 Y0.0178
X0.2178 Y0.0349
X0.2149 Y0.0518
X0.2105 Y0.0685
X0.2049 Y0.0848
X0.1978 Y0.1008
X0.1896 Y0.1161
X0.18 Y0.1308
X0.1693 Y0.1447
X0.1575 Y0.1578
X0.1447 Y0.1699
X0.1309 Y0.1809
X0.1162 Y0.1909
X0.1007 Y0.1996
X0.0846 Y0.2071
X0.0678 Y0.2132
X0.0507 Y0.218
X0.0331 Y0.2214
X0.0154 Y0.2234
X-0.0026 Y0.224
X-0.0204 Y0.2231
X-0.0382 Y0.2208
X-0.0558 Y0.2171
X-0.073 Y0.212
X-0.0897 Y0.2055
X-0.1059 Y0.1977
X-0.1214 Y0.1886
X-0.1361 Y0.1783
X-0.15 Y0.1668
X-0.1628 Y0.1543
X-0.1747 Y0.1407
X-0.1854 Y0.1263
X-0.195 Y0.111
X-0.2032 Y0.095
X-0.2102 Y0.0784
X-0.2158 Y0.0613
X-0.2201 Y0.0438
X-0.2229 Y0.026
X-0.2242 Y0.008
Y-0.01
X-0.2226 Y-0.0281
X-0.2196 Y-0.0462
X-0.2151 Y-0.0642
X-0.209 Y-0.0822
X-0.2014 Y-0.1
X-0.1921 Y-0.1175
X-0.1814 Y-0.1343
X-0.1693 Y-0.1504
X-0.1558 Y-0.1655
X-0.1412 Y-0.1795
X-0.1255 Y-0.1922
X-0.109 Y-0.2036
X-0.0917 Y-0.2136
X-0.0737 Y-0.222
X-0.0553 Y-0.229
X-0.0364 Y-0.2345
X-0.0173 Y-0.2384
X0.002 Y-0.2407
X0.0214 Y-0.2415
X0.0407 Y-0.2407
X0.0598 Y-0.2384
X0.0787 Y-0.2345
X0.0973 Y-0.2291
X0.1154 Y-0.2223
X0.1329 Y-0.214
X0.1497 Y-0.2043
X0.1658 Y-0.1933
X0.181 Y-0.1809
X0.1952 Y-0.1673
X0.2083 Y-0.1526
X0.2202 Y-0.1368
X0.2309 Y-0.1199
X0.2403 Y-0.1022
X0.2482 Y-0.0837
X0.2547 Y-0.0646
X0.2596 Y-0.0449
X0.2629 Y-0.0247
X0.2647 Y-0.0043
X0.2648 Y0.0163
X0.2632 Y0.037
X0.2599 Y0.0575
X0.255 Y0.0778
X0.2485 Y0.0976
X0.2404 Y0.117
X0.2307 Y0.1357
X0.2195 Y0.1536
X0.2068 Y0.1706
X0.1929 Y0.1866
X0.1776 Y0.2014
X0.1612 Y0.215
X0.1437 Y0.2273
X0.1252 Y0.2381
X0.1059 Y0.2474
X0.0859 Y0.2552
X0.0653 Y0.2613
X0.0443 Y0.2657
X0.0229 Y0.2685
X0.0014 Y0.2695
X-0.0201 Y0.2689
X-0.0416 Y0.2664
X-0.0628 Y0.2623
X-0.0836 Y0.2565
X-0.1038 Y0.249
X-0.1234 Y0.2399
X-0.1423 Y0.2293
X-0.1602 Y0.2172
X-0.1771 Y0.2036
X-0.1928 Y0.1888
X-0.2074 Y0.1727
X-0.2206 Y0.1556
X-0.2323 Y0.1374
X-0.2426 Y0.1183
X-0.2513 Y0.0985
X-0.2584 Y0.078
X-0.2638 Y0.057
X-0.2676 Y0.0357
X-0.2696 Y0.014
X-0.2698 Y-0.0078
X-0.2683 Y-0.0297
X-0.2651 Y-0.0516
X-0.26 Y-0.0735
X-0.2531 Y-0.0951
X-0.2443 Y-0.1165
X-0.2338 Y-0.1372
X-0.2215 Y-0.1572
X-0.2075 Y-0.1763
X-0.1921 Y-0.1943
X-0.1752 Y-0.211
X-0.157 Y-0.2262
X-0.1378 Y-0.24
X-0.1175 Y-0.2521
X-0.0964 Y-0.2625
X-0.0746 Y-0.2711
X-0.0523 Y-0.278
X-0.0296 Y-0.283
X-0.0067 Y-0.2861
X0.0164 Y-0.2874
X0.0395 Y-0.2869
X0.0624 Y-0.2845
X0.0851 Y-0.2802
X0.1073 Y-0.2742
X0.129 Y-0.2664
X0.1501 Y-0.2569
X0.1703 Y-0.2456
X0.1897 Y-0.2328
X0.208 Y-0.2184
X0.2251 Y-0.2025
X0.241 Y-0.1853
X0.2555 Y-0.1667
X0.2573 Y-0.1639
X0.2582 Y-0.1624
X0.2815 Y-0.1186
X0.2823 Y-0.1172
X0.2828 Y-0.1157
X0.2995 Y-0.0608
X0.2998 Y-0.0593
X0.3 Y-0.0579
X0.3054 Y-0.0029
X0.3056 Y0
X0.3054 Y0.0029
X0.3 Y0.0579
X0.2998 Y0.0593
X0.2995 Y0.0608
X0.2828 Y0.1157
X0.2823 Y0.1172
X0.2815 Y0.1186
X0.2568 Y0.1649
X0.2534 Y0.1707
X0.217 Y0.2151
X0.2151 Y0.217
X0.1707 Y0.2534
X0.1649 Y0.2568
X0.1186 Y0.2815
X0.1172 Y0.2823
X0.1157 Y0.2828
X0.0608 Y0.2995
X0.0593 Y0.2998
X0.0579 Y0.3
X0.0029 Y0.3054
X0 Y0.3056
X-0.0029 Y0.3054
X-0.0579 Y0.3
X-0.0593 Y0.2998
X-0.0608 Y0.2995
X-0.1157 Y0.2828
X-0.1172 Y0.2823
X-0.1186 Y0.2815
X-0.1649 Y0.2568
X-0.1707 Y0.2534
X-0.2151 Y0.217
X-0.217 Y0.2151
X-0.2534 Y0.1707
X-0.2568 Y0.1649
X-0.2815 Y0.1186
X-0.2823 Y0.1172
X-0.2828 Y0.1157
X-0.2995 Y0.0608
X-0.2998 Y0.0593
X-0.3 Y0.0579
X-0.3054 Y0.0029
X-0.3056 Y0
X-0.3054 Y-0.0029
X-0.3 Y-0.0579
X-0.2998 Y-0.0593
X-0.2995 Y-0.0608
X-0.2828 Y-0.1157
X-0.2823 Y-0.1172
X-0.2815 Y-0.1186
X-0.2568 Y-0.1649
X-0.2534 Y-0.1707
X-0.217 Y-0.2151
X-0.2151 Y-0.217
X-0.1707 Y-0.2534
X-0.1649 Y-0.2568
X-0.1186 Y-0.2815
X-0.1172 Y-0.2823
X-0.1157 Y-0.2828
X-0.0608 Y-0.2995
X-0.0593 Y-0.2998
X-0.0579 Y-0.3
X-0.0029 Y-0.3054
X0 Y-0.3056
X0.0029 Y-0.3054
X0.0579 Y-0.3
X0.0593 Y-0.2998
X0.0608 Y-0.2995
X0.1157 Y-0.2828
X0.1172 Y-0.2823
X0.1186 Y-0.2815
X0.1649 Y-0.2568
X0.1707 Y-0.2534
X0.2151 Y-0.217
X0.217 Y-0.2151
X0.2534 Y-0.1707
X0.2568 Y-0.1649
X0.2582 Y-0.1624
X0.2575 Y-0.1502
X0.2459 Y-0.1444
X0.2402 Y-0.1441
X-0.055 Y-0.1271
G2 X-0.1164 Y-0.0667 I-0.001 J0.0604
X-0.055 Y-0.0063 I0.0604 J0
X-0.0003 Y-0.0434 Z-0.44 I-0.001 J-0.0604
G1 X0.006 Y-0.0606
X0.0063 Y-0.0635
X0.0104 Y-0.0679
X0.0155 Y-0.0711
X0.0212 Y-0.073
X0.0271 Y-0.0738
X0.0331
X0.0391 Y-0.0733
X0.0449 Y-0.0718
X0.0505 Y-0.0696
X0.0564 Y-0.0668
X0.0616 Y-0.0637
X0.0664 Y-0.0602
X0.0708 Y-0.0561
X0.0755 Y-0.051
X0.0807 Y-0.0444
X0.0841 Y-0.0394
X0.0868 Y-0.034
X0.0895 Y-0.0276
X0.0921 Y-0.0195
X0.0938 Y-0.0124
X0.0947 Y-0.0065
X0.0951 Y0.0001
X0.095 Y0.0082
X0.094 Y0.018
X0.093 Y0.024
X0.0913 Y0.0301
X0.0886 Y0.0375
X0.0845 Y0.0463
X0.0811 Y0.0523
X0.0778 Y0.0573
X0.0732 Y0.063
X0.0671 Y0.0696
X0.0603 Y0.0758
X0.0555 Y0.0795
X0.0497 Y0.0832
X0.0423 Y0.0872
X0.0326 Y0.0914
X0.0269 Y0.0933
X0.0205 Y0.0949
X0.0127 Y0.0962
X0.0028 Y0.0971
X-0.0046
X-0.0107 Y0.0966
X-0.0181 Y0.0954
X-0.027 Y0.0933
X-0.0358 Y0.0904
X-0.0413 Y0.088
X-0.0475 Y0.0848
X-0.0548 Y0.0802
X-0.0633 Y0.0738
X-0.0678 Y0.0698
X-0.0724 Y0.065
X-0.0776 Y0.0586
X-0.0833 Y0.0502
X-0.0867 Y0.0442
X-0.0893 Y0.0385
X-0.092 Y0.0314
X-0.0946 Y0.0223
X-0.0963 Y0.0137
X-0.097 Y0.0077
X-0.0972 Y0.0006
X-0.0968 Y-0.0082
X-0.0955 Y-0.0184
X-0.0943 Y-0.0243
X-0.0923 Y-0.0308
X-0.0892 Y-0.0385
X-0.0847 Y-0.0478
X-0.0814 Y-0.0533
X-0.0777 Y-0.0585
X-0.0728 Y-0.0645
X-0.0661 Y-0.0713
X-0.0565 Y-0.0796
X-0.0422 Y-0.0901
X-0.0319 Y-0.0964
X-0.0224 Y-0.1013
X-0.0132 Y-0.1051
X-0.0041 Y-0.108
X0.0043 Y-0.11
X0.0125 Y-0.1113
X0.0207 Y-0.1119
X0.0292 Y-0.1118
X0.0376 Y-0.111
X0.0459 Y-0.1096
X0.0538 Y-0.1076
X0.0617 Y-0.1048
X0.0695 Y-0.1014
X0.0774 Y-0.0972
X0.0848 Y-0.0925
X0.0917 Y-0.0872
X0.0982 Y-0.0813
X0.1046 Y-0.0746
X0.1105 Y-0.0673
X0.1158 Y-0.0595
X0.1204 Y-0.0514
X0.1244 Y-0.0428
X0.1278 Y-0.0338
X0.1306 Y-0.0239
X0.1325 Y-0.0142
X0.1336 Y-0.0045
X0.134 Y0.0055
X0.1335 Y0.016
X0.1322 Y0.0264
X0.1301 Y0.0364
X0.1272 Y0.0462
X0.1234 Y0.0561
X0.1187 Y0.0659
X0.1133 Y0.0751
X0.1074 Y0.0836
X0.1006 Y0.0918
X0.0929 Y0.0998
X0.0847 Y0.107
X0.0762 Y0.1134
X0.0672 Y0.119
X0.0576 Y0.1241
X0.0474 Y0.1284
X0.0371 Y0.1318
X0.0267 Y0.1343
X0.016 Y0.1361
X0.0049 Y0.1369
X-0.0062
X-0.017 Y0.1361
X-0.0276 Y0.1343
X-0.0383 Y0.1317
X-0.0492 Y0.128
X-0.0592 Y0.1238
X-0.0687 Y0.1188
X-0.0779 Y0.113
X-0.0869 Y0.1062
X-0.0952 Y0.0989
X-0.1027 Y0.0911
X-0.1095 Y0.0827
X-0.1159 Y0.0736
X-0.1215 Y0.0638
X-0.1262 Y0.054
X-0.1301 Y0.0439
X-0.1331 Y0.0333
X-0.1355 Y0.0221
X-0.1368 Y0.0112
X-0.1373 Y0.0005
X-0.1369 Y-0.0104
X-0.1355 Y-0.0217
X-0.1334 Y-0.0326
X-0.1304 Y-0.0429
X-0.1266 Y-0.0531
X-0.1218 Y-0.0632
X-0.1158 Y-0.0737
X-0.1083 Y-0.0847
X-0.0995 Y-0.0956
X-0.0896 Y-0.106
X-0.0789 Y-0.1156
X-0.0677 Y-0.1241
X-0.0562 Y-0.1315
X-0.0445 Y-0.1377
X-0.0328 Y-0.1428
X-0.0209 Y-0.1468
X-0.0089 Y-0.1499
X0.0032 Y-0.1519
X0.0152 Y-0.153
X0.0273
X0.0392 Y-0.1522
X0.0511 Y-0.1503
X0.0628 Y-0.1475
X0.0742 Y-0.1438
X0.0853 Y-0.1392
X0.0961 Y-0.1337
X0.1065 Y-0.1272
X0.1164 Y-0.1199
X0.1258 Y-0.1117
X0.1345 Y-0.1028
X0.1426 Y-0.0932
X0.1499 Y-0.0827
X0.1564 Y-0.0717
X0.1621 Y-0.0601
X0.1668 Y-0.048
X0.1706 Y-0.0354
X0.1734 Y-0.0224
X0.1751 Y-0.0092
X0.1758 Y0.0042
X0.1754 Y0.0176
X0.174 Y0.0311
X0.1714 Y0.0446
X0.1677 Y0.0579
X0.163 Y0.0708
X0.1572 Y0.0834
X0.1503 Y0.0956
X0.1425 Y0.1073
X0.1337 Y0.1183
X0.1241 Y0.1286
X0.1137 Y0.1381
X0.1024 Y0.1468
X0.0905 Y0.1546
X0.0781 Y0.1613
X0.0651 Y0.1671
X0.0516 Y0.1718
X0.0377 Y0.1755
X0.0236 Y0.178
X0.0094 Y0.1793
X-0.0049 Y0.1795
X-0.0194 Y0.1786
X-0.0336 Y0.1765
X-0.0476 Y0.1733
X-0.0613 Y0.169
X-0.0746 Y0.1635
X-0.0875 Y0.1571
X-0.0998 Y0.1496
X-0.1114 Y0.1411
X-0.1224 Y0.1318
X-0.1326 Y0.1215
X-0.1419 Y0.1105
X-0.1503 Y0.0988
X-0.1577 Y0.0865
X-0.1642 Y0.0735
X-0.1696 Y0.06
X-0.1738 Y0.0463
X-0.177 Y0.0322
X-0.179 Y0.0179
X-0.1799 Y0.0034
X-0.1796 Y-0.011
X-0.1781 Y-0.0253
X-0.1755 Y-0.0395
X-0.1717 Y-0.0537
X-0.1666 Y-0.068
X-0.1601 Y-0.0824
X-0.1523 Y-0.0966
X-0.1431 Y-0.1105
X-0.1328 Y-0.1238
X-0.1213 Y-0.1363
X-0.1089 Y-0.1478
X-0.0957 Y-0.1581
X-0.0819 Y-0.1673
X-0.0675 Y-0.1753
X-0.0527 Y-0.182
X-0.0375 Y-0.1874
X-0.0221 Y-0.1916
X-0.0065 Y-0.1945
X0.0091 Y-0.1961
X0.0248 Y-0.1965
X0.0405 Y-0.1956
X0.0559 Y-0.1935
X0.0712 Y-0.1901
X0.0861 Y-0.1855
X0.1007 Y-0.1797
X0.1148 Y-0.1728
X0.1284 Y-0.1647
X0.1413 Y-0.1555
X0.1535 Y-0.1452
X0.1649 Y-0.1339
X0.1754 Y-0.1217
X0.1849 Y-0.1086
X0.1935 Y-0.0947
X0.2009 Y-0.08
X0.2072 Y-0.0648
X0.2122 Y-0.0489
X0.216 Y-0.0327
X0.2185 Y-0.016
X0.2196 Y0.0008
X0.2194 Y0.0178
X0.2178 Y0.0349
X0.2149 Y0.0518
X0.2105 Y0.0685
X0.2049 Y0.0848
X0.1978 Y0.1008
X0.1896 Y0.1161
X0.18 Y0.1308
X0.1693 Y0.1447
X0.1575 Y0.1578
X0.1447 Y0.1699
X0.1309 Y0.1809
X0.1162 Y0.1909
X0.1007 Y0.1996
X0.0846 Y0.2071
X0.0678 Y0.2132
X0.0507 Y0.218
X0.0331 Y0.2214
X0.0154 Y0.2234
X-0.0026 Y0.224
X-0.0204 Y0.2231
X-0.0382 Y0.2208
X-0.0558 Y0.2171
X-0.073 Y0.212
X-0.0897 Y0.2055
X-0.1059 Y0.1977
X-0.1214 Y0.1886
X-0.1361 Y0.1783
X-0.15 Y0.1668
X-0.1628 Y0.1543
X-0.1747 Y0.1407
X-0.1854 Y0.1263
X-0.195 Y0.111
X-0.2032 Y0.095
X-0.2102 Y0.0784
X-0.2158 Y0.0613
X-0.2201 Y0.0438
X-0.2229 Y0.026
X-0.2242 Y0.008
Y-0.01
X-0.2226 Y-0.0281
X-0.2196 Y-0.0462
X-0.2151 Y-0.0642
X-0.209 Y-0.0822
X-0.2014 Y-0.1
X-0.1921 Y-0.1175
X-0.1814 Y-0.1343
X-0.1693 Y-0.1504
X-0.1558 Y-0.1655
X-0.1412 Y-0.1795
X-0.1255 Y-0.1922
X-0.109 Y-0.2036
X-0.0917 Y-0.2136
X-0.0737 Y-0.222
X-0.0553 Y-0.229
X-0.0364 Y-0.2345
X-0.0173 Y-0.2384
X0.002 Y-0.2407
X0.0214 Y-0.2415
X0.0407 Y-0.2407
X0.0598 Y-0.2384
X0.0787 Y-0.2345
X0.0973 Y-0.2291
X0.1154 Y-0.2223
X0.1329 Y-0.214
X0.1497 Y-0.2043
X0.1658 Y-0.1933
X0.181 Y-0.1809
X0.1952 Y-0.1673
X0.2083 Y-0.1526
X0.2202 Y-0.1368
X0.2309 Y-0.1199
X0.2403 Y-0.1022
X0.2482 Y-0.0837
X0.2547 Y-0.0646
X0.2596 Y-0.0449
X0.2629 Y-0.0247
X0.2647 Y-0.0043
X0.2648 Y0.0163
X0.2632 Y0.037
X0.2599 Y0.0575
X0.255 Y0.0778
X0.2485 Y0.0976
X0.2404 Y0.117
X0.2307 Y0.1357
X0.2195 Y0.1536
X0.2068 Y0.1706
X0.1929 Y0.1866
X0.1776 Y0.2014
X0.1612 Y0.215
X0.1437 Y0.2273
X0.1252 Y0.2381
X0.1059 Y0.2474
X0.0859 Y0.2552
X0.0653 Y0.2613
X0.0443 Y0.2657
X0.0229 Y0.2685
X0.0014 Y0.2695
X-0.0201 Y0.2689
X-0.0416 Y0.2664
X-0.0628 Y0.2623
X-0.0836 Y0.2565
X-0.1038 Y0.249
X-0.1234 Y0.2399
X-0.1423 Y0.2293
X-0.1602 Y0.2172
X-0.1771 Y0.2036
X-0.1928 Y0.1888
X-0.2074 Y0.1727
X-0.2206 Y0.1556
X-0.2323 Y0.1374
X-0.2426 Y0.1183
X-0.2513 Y0.0985
X-0.2584 Y0.078
X-0.2638 Y0.057
X-0.2676 Y0.0357
X-0.2696 Y0.014
X-0.2698 Y-0.0078
X-0.2683 Y-0.0297
X-0.2651 Y-0.0516
X-0.26 Y-0.0735
X-0.2531 Y-0.0951
X-0.2443 Y-0.1165
X-0.2338 Y-0.1372
X-0.2215 Y-0.1572
X-0.2075 Y-0.1763
X-0.1921 Y-0.1943
X-0.1752 Y-0.211
X-0.157 Y-0.2262
X-0.1378 Y-0.24
X-0.1175 Y-0.2521
X-0.0964 Y-0.2625
X-0.0746 Y-0.2711
X-0.0523 Y-0.278
X-0.0296 Y-0.283
X-0.0067 Y-0.2861
X0.0164 Y-0.2874
X0.0395 Y-0.2869
X0.0624 Y-0.2845
X0.0851 Y-0.2802
X0.1073 Y-0.2742
X0.129 Y-0.2664
X0.1501 Y-0.2569
X0.1703 Y-0.2456
X0.1897 Y-0.2328
X0.208 Y-0.2184
X0.2251 Y-0.2025
X0.241 Y-0.1853
X0.2555 Y-0.1667
X0.2573 Y-0.1639
X0.2582 Y-0.1624
X0.2815 Y-0.1186
X0.2823 Y-0.1172
X0.2828 Y-0.1157
X0.2995 Y-0.0608
X0.2998 Y-0.0593
X0.3 Y-0.0579
X0.3054 Y-0.0029
X0.3056 Y0
X0.3054 Y0.0029
X0.3 Y0.0579
X0.2998 Y0.0593
X0.2995 Y0.0608
X0.2828 Y0.1157
X0.2823 Y0.1172
X0.2815 Y0.1186
X0.2568 Y0.1649
X0.2534 Y0.1707
X0.217 Y0.2151
X0.2151 Y0.217
X0.1707 Y0.2534
X0.1649 Y0.2568
X0.1186 Y0.2815
X0.1172 Y0.2823
X0.1157 Y0.2828
X0.0608 Y0.2995
X0.0593 Y0.2998
X0.0579 Y0.3
X0.0029 Y0.3054
X0 Y0.3056
X-0.0029 Y0.3054
X-0.0579 Y0.3
X-0.0593 Y0.2998
X-0.0608 Y0.2995
X-0.1157 Y0.2828
X-0.1172 Y0.2823
X-0.1186 Y0.2815
X-0.1649 Y0.2568
X-0.1707 Y0.2534
X-0.2151 Y0.217
X-0.217 Y0.2151
X-0.2534 Y0.1707
X-0.2568 Y0.1649
X-0.2815 Y0.1186
X-0.2823 Y0.1172
X-0.2828 Y0.1157
X-0.2995 Y0.0608
X-0.2998 Y0.0593
X-0.3 Y0.0579
X-0.3054 Y0.0029
X-0.3056 Y0
X-0.3054 Y-0.0029
X-0.3 Y-0.0579
X-0.2998 Y-0.0593
X-0.2995 Y-0.0608
X-0.2828 Y-0.1157
X-0.2823 Y-0.1172
X-0.2815 Y-0.1186
X-0.2568 Y-0.1649
X-0.2534 Y-0.1707
X-0.217 Y-0.2151
X-0.2151 Y-0.217
X-0.1707 Y-0.2534
X-0.1649 Y-0.2568
X-0.1186 Y-0.2815
X-0.1172 Y-0.2823
X-0.1157 Y-0.2828
X-0.0608 Y-0.2995
X-0.0593 Y-0.2998
X-0.0579 Y-0.3
X-0.0029 Y-0.3054
X0 Y-0.3056
X0.0029 Y-0.3054
X0.0579 Y-0.3
X0.0593 Y-0.2998
X0.0608 Y-0.2995
X0.1157 Y-0.2828
X0.1172 Y-0.2823
X0.1186 Y-0.2815
X0.1649 Y-0.2568
X0.1707 Y-0.2534
X0.2151 Y-0.217
X0.217 Y-0.2151
X0.2534 Y-0.1707
X0.2568 Y-0.1649
X0.2582 Y-0.1624
G3 X0.2415 Y-0.1456 I-0.0113 J0.0055
G1 X0.239 Y-0.1468 Z-0.4397
X0.2366 Y-0.148 Z-0.4388
X0.2345 Y-0.149 Z-0.4373
X0.2327 Y-0.1498 Z-0.4353
X0.2314 Y-0.1505 Z-0.4329
X0.2305 Y-0.1509 Z-0.4303
X0.2303 Y-0.151 Z-0.4275
G0 Z0.21
X0.0588 Y0.0079
Z-0.19
Z-0.29
G3 X-0.0588 Y-0.0079 Z-0.2965 I-0.0588 J-0.0079 F32
X0.0588 Y0.0079 Z-0.303 I0.0588 J0.0079
X-0.0588 Y-0.0079 Z-0.3095 I-0.0588 J-0.0079
X0.0588 Y0.0079 Z-0.3161 I0.0588 J0.0079
X-0.0588 Y-0.0079 Z-0.3226 I-0.0588 J-0.0079
X0.0588 Y0.0079 Z-0.3291 I0.0588 J0.0079
X-0.0588 Y-0.0079 Z-0.3356 I-0.0588 J-0.0079
X0.0588 Y0.0079 Z-0.3421 I0.0588 J0.0079
X-0.0588 Y-0.0079 Z-0.3486 I-0.0588 J-0.0079
X0.0588 Y0.0079 Z-0.3551 I0.0588 J0.0079
X-0.0588 Y-0.0079 Z-0.3617 I-0.0588 J-0.0079
X0.0588 Y0.0079 Z-0.3682 I0.0588 J0.0079
X-0.0588 Y-0.0079 Z-0.3747 I-0.0588 J-0.0079
X0.0588 Y0.0079 Z-0.3812 I0.0588 J0.0079
X-0.0588 Y-0.0079 Z-0.3877 I-0.0588 J-0.0079
X0.0588 Y0.0079 Z-0.3942 I0.0588 J0.0079
X-0.0588 Y-0.0079 Z-0.4007 I-0.0588 J-0.0079
X0.0588 Y0.0079 Z-0.4072 I0.0588 J0.0079
X-0.0588 Y-0.0079 Z-0.4138 I-0.0588 J-0.0079
X0.0593 Y0 Z-0.42 I0.0588 J0.0079
X-0.0593 I-0.0593 J0
X0.0593 I0.0593 J0
G1 X0.0595 Y0.0053 F72
X0.0598 Y0.0072
Y0.0091
X0.0596 Y0.0109
X0.0585 Y0.0173
X0.0579 Y0.0202
X0.0573 Y0.0217
X0.0566 Y0.0231
X0.0492 Y0.036
X0.0479 Y0.0382
X0.047 Y0.0394
X0.0459 Y0.0405
X0.0434 Y0.0427
X0.0322 Y0.052
X0.0318 Y0.0523
X0.0304 Y0.0532
X0.0289 Y0.0539
X0.0145 Y0.0592
X0.0116 Y0.0602
X0.0101 Y0.0605
X0.0087 Y0.0606
X-0.0087
X-0.0101 Y0.0605
X-0.0116 Y0.0602
X-0.0145 Y0.0592
X-0.0289 Y0.0539
X-0.0304 Y0.0532
X-0.0318 Y0.0523
X-0.0322 Y0.052
X-0.0434 Y0.0427
X-0.0459 Y0.0405
X-0.047 Y0.0394
X-0.0479 Y0.0382
X-0.0499 Y0.0347
X-0.0566 Y0.0231
X-0.0573 Y0.0217
X-0.0579 Y0.0202
X-0.0585 Y0.0173
X-0.0612 Y0.0022
X-0.0613 Y0
X-0.0612 Y-0.0022
X-0.0585 Y-0.0173
X-0.0579 Y-0.0202
X-0.0573 Y-0.0217
X-0.0566 Y-0.0231
X-0.0492 Y-0.036
X-0.0479 Y-0.0382
X-0.047 Y-0.0394
X-0.0459 Y-0.0405
X-0.0434 Y-0.0427
X-0.0322 Y-0.052
X-0.0318 Y-0.0523
X-0.0304 Y-0.0532
X-0.0289 Y-0.0539
X-0.0145 Y-0.0592
X-0.0116 Y-0.0602
X-0.0101 Y-0.0605
X-0.0087 Y-0.0606
X0.0087
X0.0101 Y-0.0605
X0.0116 Y-0.0602
X0.0145 Y-0.0592
X0.0289 Y-0.0539
X0.0304 Y-0.0532
X0.0318 Y-0.0523
X0.0322 Y-0.052
X0.0434 Y-0.0427
X0.0459 Y-0.0405
X0.047 Y-0.0394
X0.0479 Y-0.0382
X0.0499 Y-0.0347
X0.0566 Y-0.0231
X0.0573 Y-0.0217
X0.0579 Y-0.0202
X0.0585 Y-0.0173
X0.0612 Y-0.0022
X0.0613 Y0
X0.0612 Y0.0022
X0.0596 Y0.0109
G3 X0.046 Y0.0207 I-0.0122 J-0.0026
G1 X0.044 Y0.02 Z-0.4198
X0.042 Y0.0192 Z-0.4192
X0.0402 Y0.0186 Z-0.4183
X0.039 Y0.0171 Z-0.4169
X0.0379 Y0.0158 Z-0.4152
X0.0371 Y0.0149 Z-0.4132
X0.0365 Y0.0142 Z-0.411
X0.0362 Y0.0139 Z-0.4086
Y0.0138 Z-0.4075
G0 Z-0.19
X0.0588 Y0.0079
Z-0.32
G3 X-0.0588 Y-0.0079 Z-0.3265 I-0.0588 J-0.0079 F32
X0.0588 Y0.0079 Z-0.333 I0.0588 J0.0079
X-0.0588 Y-0.0079 Z-0.3395 I-0.0588 J-0.0079
X0.0588 Y0.0079 Z-0.3461 I0.0588 J0.0079
X-0.0588 Y-0.0079 Z-0.3526 I-0.0588 J-0.0079
X0.0588 Y0.0079 Z-0.3591 I0.0588 J0.0079
X-0.0588 Y-0.0079 Z-0.3656 I-0.0588 J-0.0079
X0.0588 Y0.0079 Z-0.3721 I0.0588 J0.0079
X-0.0588 Y-0.0079 Z-0.3786 I-0.0588 J-0.0079
X0.0588 Y0.0079 Z-0.3851 I0.0588 J0.0079
X-0.0588 Y-0.0079 Z-0.3917 I-0.0588 J-0.0079
X0.0588 Y0.0079 Z-0.3982 I0.0588 J0.0079
X-0.0588 Y-0.0079 Z-0.4047 I-0.0588 J-0.0079
X0.0588 Y0.0079 Z-0.4112 I0.0588 J0.0079
X-0.0588 Y-0.0079 Z-0.4177 I-0.0588 J-0.0079
X0.0588 Y0.0079 Z-0.4242 I0.0588 J0.0079
X-0.0588 Y-0.0079 Z-0.4307 I-0.0588 J-0.0079
X0.0588 Y0.0079 Z-0.4372 I0.0588 J0.0079
X-0.0588 Y-0.0079 Z-0.4438 I-0.0588 J-0.0079
X0.0593 Y0 Z-0.45 I0.0588 J0.0079
X-0.0593 I-0.0593 J0
X0.0593 I0.0593 J0
G1 X0.0595 Y0.0053 F72
X0.0598 Y0.0072
Y0.0091
X0.0596 Y0.0109
X0.0585 Y0.0173
X0.0579 Y0.0202
X0.0573 Y0.0217
X0.0566 Y0.0231
X0.0492 Y0.036
X0.0479 Y0.0382
X0.047 Y0.0394
X0.0459 Y0.0405
X0.0434 Y0.0427
X0.0322 Y0.052
X0.0318 Y0.0523
X0.0304 Y0.0532
X0.0289 Y0.0539
X0.0145 Y0.0592
X0.0116 Y0.0602
X0.0101 Y0.0605
X0.0087 Y0.0606
X-0.0087
X-0.0101 Y0.0605
X-0.0116 Y0.0602
X-0.0145 Y0.0592
X-0.0289 Y0.0539
X-0.0304 Y0.0532
X-0.0318 Y0.0523
X-0.0322 Y0.052
X-0.0434 Y0.0427
X-0.0459 Y0.0405
X-0.047 Y0.0394
X-0.0479 Y0.0382
X-0.0499 Y0.0347
X-0.0566 Y0.0231
X-0.0573 Y0.0217
X-0.0579 Y0.0202
X-0.0585 Y0.0173
X-0.0612 Y0.0022
X-0.0613 Y0
X-0.0612 Y-0.0022
X-0.0585 Y-0.0173
X-0.0579 Y-0.0202
X-0.0573 Y-0.0217
X-0.0566 Y-0.0231
X-0.0492 Y-0.036
X-0.0479 Y-0.0382
X-0.047 Y-0.0394
X-0.0459 Y-0.0405
X-0.0434 Y-0.0427
X-0.0322 Y-0.052
X-0.0318 Y-0.0523
X-0.0304 Y-0.0532
X-0.0289 Y-0.0539
X-0.0145 Y-0.0592
X-0.0116 Y-0.0602
X-0.0101 Y-0.0605
X-0.0087 Y-0.0606
X0.0087
X0.0101 Y-0.0605
X0.0116 Y-0.0602
X0.0145 Y-0.0592
X0.0289 Y-0.0539
X0.0304 Y-0.0532
X0.0318 Y-0.0523
X0.0322 Y-0.052
X0.0434 Y-0.0427
X0.0459 Y-0.0405
X0.047 Y-0.0394
X0.0479 Y-0.0382
X0.0499 Y-0.0347
X0.0566 Y-0.0231
X0.0573 Y-0.0217
X0.0579 Y-0.0202
X0.0585 Y-0.0173
X0.0612 Y-0.0022
X0.0613 Y0
X0.0612 Y0.0022
X0.0596 Y0.0109
G3 X0.046 Y0.0207 I-0.0122 J-0.0026
G1 X0.044 Y0.02 Z-0.4498
X0.042 Y0.0192 Z-0.4492
X0.0402 Y0.0186 Z-0.4483
X0.039 Y0.0171 Z-0.4469
X0.0379 Y0.0158 Z-0.4452
X0.0371 Y0.0149 Z-0.4432
X0.0365 Y0.0142 Z-0.441
X0.0362 Y0.0139 Z-0.4386
Y0.0138 Z-0.4375
G0 Z-0.19
X0.0588 Y0.0079
Z-0.35
G3 X-0.0588 Y-0.0079 Z-0.3565 I-0.0588 J-0.0079 F32
X0.0588 Y0.0079 Z-0.363 I0.0588 J0.0079
X-0.0588 Y-0.0079 Z-0.3695 I-0.0588 J-0.0079
X0.0588 Y0.0079 Z-0.3761 I0.0588 J0.0079
X-0.0588 Y-0.0079 Z-0.3826 I-0.0588 J-0.0079
X0.0588 Y0.0079 Z-0.3891 I0.0588 J0.0079
X-0.0588 Y-0.0079 Z-0.3956 I-0.0588 J-0.0079
X0.0588 Y0.0079 Z-0.4021 I0.0588 J0.0079
X-0.0588 Y-0.0079 Z-0.4086 I-0.0588 J-0.0079
X0.0588 Y0.0079 Z-0.4151 I0.0588 J0.0079
X-0.0588 Y-0.0079 Z-0.4217 I-0.0588 J-0.0079
X0.0588 Y0.0079 Z-0.4282 I0.0588 J0.0079
X-0.0588 Y-0.0079 Z-0.4347 I-0.0588 J-0.0079
X0.0588 Y0.0079 Z-0.4412 I0.0588 J0.0079
X-0.0588 Y-0.0079 Z-0.4477 I-0.0588 J-0.0079
X0.0588 Y0.0079 Z-0.4542 I0.0588 J0.0079
X-0.0588 Y-0.0079 Z-0.4607 I-0.0588 J-0.0079
X0.0588 Y0.0079 Z-0.4672 I0.0588 J0.0079
X-0.0588 Y-0.0079 Z-0.4738 I-0.0588 J-0.0079
X0.0593 Y0 Z-0.48 I0.0588 J0.0079
X-0.0593 I-0.0593 J0
X0.0593 I0.0593 J0
G1 X0.0595 Y0.0053 F72
X0.0598 Y0.0072
Y0.0091
X0.0596 Y0.0109
X0.0585 Y0.0173
X0.0579 Y0.0202
X0.0573 Y0.0217
X0.0566 Y0.0231
X0.0492 Y0.036
X0.0479 Y0.0382
X0.047 Y0.0394
X0.0459 Y0.0405
X0.0434 Y0.0427
X0.0322 Y0.052
X0.0318 Y0.0523
X0.0304 Y0.0532
X0.0289 Y0.0539
X0.0145 Y0.0592
X0.0116 Y0.0602
X0.0101 Y0.0605
X0.0087 Y0.0606
X-0.0087
X-0.0101 Y0.0605
X-0.0116 Y0.0602
X-0.0145 Y0.0592
X-0.0289 Y0.0539
X-0.0304 Y0.0532
X-0.0318 Y0.0523
X-0.0322 Y0.052
X-0.0434 Y0.0427
X-0.0459 Y0.0405
X-0.047 Y0.0394
X-0.0479 Y0.0382
X-0.0499 Y0.0347
X-0.0566 Y0.0231
X-0.0573 Y0.0217
X-0.0579 Y0.0202
X-0.0585 Y0.0173
X-0.0612 Y0.0022
X-0.0613 Y0
X-0.0612 Y-0.0022
X-0.0585 Y-0.0173
X-0.0579 Y-0.0202
X-0.0573 Y-0.0217
X-0.0566 Y-0.0231
X-0.0492 Y-0.036
X-0.0479 Y-0.0382
X-0.047 Y-0.0394
X-0.0459 Y-0.0405
X-0.0434 Y-0.0427
X-0.0322 Y-0.052
X-0.0318 Y-0.0523
X-0.0304 Y-0.0532
X-0.0289 Y-0.0539
X-0.0145 Y-0.0592
X-0.0116 Y-0.0602
X-0.0101 Y-0.0605
X-0.0087 Y-0.0606
X0.0087
X0.0101 Y-0.0605
X0.0116 Y-0.0602
X0.0145 Y-0.0592
X0.0289 Y-0.0539
X0.0304 Y-0.0532
X0.0318 Y-0.0523
X0.0322 Y-0.052
X0.0434 Y-0.0427
X0.0459 Y-0.0405
X0.047 Y-0.0394
X0.0479 Y-0.0382
X0.0499 Y-0.0347
X0.0566 Y-0.0231
X0.0573 Y-0.0217
X0.0579 Y-0.0202
X0.0585 Y-0.0173
X0.0612 Y-0.0022
X0.0613 Y0
X0.0612 Y0.0022
X0.0596 Y0.0109
G3 X0.046 Y0.0207 I-0.0122 J-0.0026
G1 X0.044 Y0.02 Z-0.4798
X0.042 Y0.0192 Z-0.4792
X0.0402 Y0.0186 Z-0.4783
X0.039 Y0.0171 Z-0.4769
X0.0379 Y0.0158 Z-0.4752
X0.0371 Y0.0149 Z-0.4732
X0.0365 Y0.0142 Z-0.471
X0.0362 Y0.0139 Z-0.4686
Y0.0138 Z-0.4675
G0 Z-0.19
X0.0588 Y0.0079
Z-0.38
G3 X-0.0588 Y-0.0079 Z-0.3865 I-0.0588 J-0.0079 F32
X0.0588 Y0.0079 Z-0.393 I0.0588 J0.0079
X-0.0588 Y-0.0079 Z-0.3995 I-0.0588 J-0.0079
X0.0588 Y0.0079 Z-0.4061 I0.0588 J0.0079
X-0.0588 Y-0.0079 Z-0.4126 I-0.0588 J-0.0079
X0.0588 Y0.0079 Z-0.4191 I0.0588 J0.0079
X-0.0588 Y-0.0079 Z-0.4256 I-0.0588 J-0.0079
X0.0588 Y0.0079 Z-0.4321 I0.0588 J0.0079
X-0.0588 Y-0.0079 Z-0.4386 I-0.0588 J-0.0079
X0.0588 Y0.0079 Z-0.4451 I0.0588 J0.0079
X-0.0588 Y-0.0079 Z-0.4517 I-0.0588 J-0.0079
X0.0588 Y0.0079 Z-0.4582 I0.0588 J0.0079
X-0.0588 Y-0.0079 Z-0.4647 I-0.0588 J-0.0079
X0.0588 Y0.0079 Z-0.4712 I0.0588 J0.0079
X-0.0588 Y-0.0079 Z-0.4777 I-0.0588 J-0.0079
X0.0588 Y0.0079 Z-0.4842 I0.0588 J0.0079
X-0.0588 Y-0.0079 Z-0.4907 I-0.0588 J-0.0079
X0.0588 Y0.0079 Z-0.4972 I0.0588 J0.0079
X-0.0588 Y-0.0079 Z-0.5038 I-0.0588 J-0.0079
X0.0593 Y0 Z-0.51 I0.0588 J0.0079
X-0.0593 I-0.0593 J0
X0.0593 I0.0593 J0
G1 X0.0595 Y0.0053 F72
X0.0598 Y0.0072
Y0.0091
X0.0596 Y0.0109
X0.0585 Y0.0173
X0.0579 Y0.0202
X0.0573 Y0.0217
X0.0566 Y0.0231
X0.0492 Y0.036
X0.0479 Y0.0382
X0.047 Y0.0394
X0.0459 Y0.0405
X0.0434 Y0.0427
X0.0322 Y0.052
X0.0318 Y0.0523
X0.0304 Y0.0532
X0.0289 Y0.0539
X0.0145 Y0.0592
X0.0116 Y0.0602
X0.0101 Y0.0605
X0.0087 Y0.0606
X-0.0087
X-0.0101 Y0.0605
X-0.0116 Y0.0602
X-0.0145 Y0.0592
X-0.0289 Y0.0539
X-0.0304 Y0.0532
X-0.0318 Y0.0523
X-0.0322 Y0.052
X-0.0434 Y0.0427
X-0.0459 Y0.0405
X-0.047 Y0.0394
X-0.0479 Y0.0382
X-0.0499 Y0.0347
X-0.0566 Y0.0231
X-0.0573 Y0.0217
X-0.0579 Y0.0202
X-0.0585 Y0.0173
X-0.0612 Y0.0022
X-0.0613 Y0
X-0.0612 Y-0.0022
X-0.0585 Y-0.0173
X-0.0579 Y-0.0202
X-0.0573 Y-0.0217
X-0.0566 Y-0.0231
X-0.0492 Y-0.036
X-0.0479 Y-0.0382
X-0.047 Y-0.0394
X-0.0459 Y-0.0405
X-0.0434 Y-0.0427
X-0.0322 Y-0.052
X-0.0318 Y-0.0523
X-0.0304 Y-0.0532
X-0.0289 Y-0.0539
X-0.0145 Y-0.0592
X-0.0116 Y-0.0602
X-0.0101 Y-0.0605
X-0.0087 Y-0.0606
X0.0087
X0.0101 Y-0.0605
X0.0116 Y-0.0602
X0.0145 Y-0.0592
X0.0289 Y-0.0539
X0.0304 Y-0.0532
X0.0318 Y-0.0523
X0.0322 Y-0.052
X0.0434 Y-0.0427
X0.0459 Y-0.0405
X0.047 Y-0.0394
X0.0479 Y-0.0382
X0.0499 Y-0.0347
X0.0566 Y-0.0231
X0.0573 Y-0.0217
X0.0579 Y-0.0202
X0.0585 Y-0.0173
X0.0612 Y-0.0022
X0.0613 Y0
X0.0612 Y0.0022
X0.0596 Y0.0109
G3 X0.046 Y0.0207 I-0.0122 J-0.0026
G1 X0.044 Y0.02 Z-0.5098
X0.042 Y0.0192 Z-0.5092
X0.0402 Y0.0186 Z-0.5083
X0.039 Y0.0171 Z-0.5069
X0.0379 Y0.0158 Z-0.5052
X0.0371 Y0.0149 Z-0.5032
X0.0365 Y0.0142 Z-0.501
X0.0362 Y0.0139 Z-0.4986
Y0.0138 Z-0.4975
G0 Z-0.19
X0.0588 Y0.0079
Z-0.41
G3 X-0.0588 Y-0.0079 Z-0.4165 I-0.0588 J-0.0079 F32
X0.0588 Y0.0079 Z-0.423 I0.0588 J0.0079
X-0.0588 Y-0.0079 Z-0.4295 I-0.0588 J-0.0079
X0.0588 Y0.0079 Z-0.4361 I0.0588 J0.0079
X-0.0588 Y-0.0079 Z-0.4426 I-0.0588 J-0.0079
X0.0588 Y0.0079 Z-0.4491 I0.0588 J0.0079
X-0.0588 Y-0.0079 Z-0.4556 I-0.0588 J-0.0079
X0.0588 Y0.0079 Z-0.4621 I0.0588 J0.0079
X-0.0588 Y-0.0079 Z-0.4686 I-0.0588 J-0.0079
X0.0588 Y0.0079 Z-0.4751 I0.0588 J0.0079
X-0.0588 Y-0.0079 Z-0.4817 I-0.0588 J-0.0079
X0.0588 Y0.0079 Z-0.4882 I0.0588 J0.0079
X-0.0588 Y-0.0079 Z-0.4947 I-0.0588 J-0.0079
X0.0588 Y0.0079 Z-0.5012 I0.0588 J0.0079
X-0.0588 Y-0.0079 Z-0.5077 I-0.0588 J-0.0079
X0.0588 Y0.0079 Z-0.5142 I0.0588 J0.0079
X-0.0588 Y-0.0079 Z-0.5207 I-0.0588 J-0.0079
X0.0588 Y0.0079 Z-0.5272 I0.0588 J0.0079
X-0.0588 Y-0.0079 Z-0.5338 I-0.0588 J-0.0079
X0.0593 Y0 Z-0.54 I0.0588 J0.0079
X-0.0593 I-0.0593 J0
X0.0593 I0.0593 J0
G1 X0.0595 Y0.0053 F72
X0.0598 Y0.0072
Y0.0091
X0.0596 Y0.0109
X0.0585 Y0.0173
X0.0579 Y0.0202
X0.0573 Y0.0217
X0.0566 Y0.0231
X0.0492 Y0.036
X0.0479 Y0.0382
X0.047 Y0.0394
X0.0459 Y0.0405
X0.0434 Y0.0427
X0.0322 Y0.052
X0.0318 Y0.0523
X0.0304 Y0.0532
X0.0289 Y0.0539
X0.0145 Y0.0592
X0.0116 Y0.0602
X0.0101 Y0.0605
X0.0087 Y0.0606
X-0.0087
X-0.0101 Y0.0605
X-0.0116 Y0.0602
X-0.0145 Y0.0592
X-0.0289 Y0.0539
X-0.0304 Y0.0532
X-0.0318 Y0.0523
X-0.0322 Y0.052
X-0.0434 Y0.0427
X-0.0459 Y0.0405
X-0.047 Y0.0394
X-0.0479 Y0.0382
X-0.0499 Y0.0347
X-0.0566 Y0.0231
X-0.0573 Y0.0217
X-0.0579 Y0.0202
X-0.0585 Y0.0173
X-0.0612 Y0.0022
X-0.0613 Y0
X-0.0612 Y-0.0022
X-0.0585 Y-0.0173
X-0.0579 Y-0.0202
X-0.0573 Y-0.0217
X-0.0566 Y-0.0231
X-0.0492 Y-0.036
X-0.0479 Y-0.0382
X-0.047 Y-0.0394
X-0.0459 Y-0.0405
X-0.0434 Y-0.0427
X-0.0322 Y-0.052
X-0.0318 Y-0.0523
X-0.0304 Y-0.0532
X-0.0289 Y-0.0539
X-0.0145 Y-0.0592
X-0.0116 Y-0.0602
X-0.0101 Y-0.0605
X-0.0087 Y-0.0606
X0.0087
X0.0101 Y-0.0605
X0.0116 Y-0.0602
X0.0145 Y-0.0592
X0.0289 Y-0.0539
X0.0304 Y-0.0532
X0.0318 Y-0.0523
X0.0322 Y-0.052
X0.0434 Y-0.0427
X0.0459 Y-0.0405
X0.047 Y-0.0394
X0.0479 Y-0.0382
X0.0499 Y-0.0347
X0.0566 Y-0.0231
X0.0573 Y-0.0217
X0.0579 Y-0.0202
X0.0585 Y-0.0173
X0.0612 Y-0.0022
X0.0613 Y0
X0.0612 Y0.0022
X0.0596 Y0.0109
G3 X0.046 Y0.0207 I-0.0122 J-0.0026
G1 X0.044 Y0.02 Z-0.5398
X0.042 Y0.0192 Z-0.5392
X0.0402 Y0.0186 Z-0.5383
X0.039 Y0.0171 Z-0.5369
X0.0379 Y0.0158 Z-0.5352
X0.0371 Y0.0149 Z-0.5332
X0.0365 Y0.0142 Z-0.531
X0.0362 Y0.0139 Z-0.5286
Y0.0138 Z-0.5275
G0 Z-0.19
X0.0588 Y0.0079
Z-0.44
G3 X-0.0588 Y-0.0079 Z-0.4465 I-0.0588 J-0.0079 F32
X0.0588 Y0.0079 Z-0.453 I0.0588 J0.0079
X-0.0588 Y-0.0079 Z-0.4595 I-0.0588 J-0.0079
X0.0588 Y0.0079 Z-0.4661 I0.0588 J0.0079
X-0.0588 Y-0.0079 Z-0.4726 I-0.0588 J-0.0079
X0.0588 Y0.0079 Z-0.4791 I0.0588 J0.0079
X-0.0588 Y-0.0079 Z-0.4856 I-0.0588 J-0.0079
X0.0588 Y0.0079 Z-0.4921 I0.0588 J0.0079
X-0.0588 Y-0.0079 Z-0.4986 I-0.0588 J-0.0079
X0.0588 Y0.0079 Z-0.5051 I0.0588 J0.0079
X-0.0588 Y-0.0079 Z-0.5117 I-0.0588 J-0.0079
X0.0588 Y0.0079 Z-0.5182 I0.0588 J0.0079
X-0.0588 Y-0.0079 Z-0.5247 I-0.0588 J-0.0079
X0.0588 Y0.0079 Z-0.5312 I0.0588 J0.0079
X-0.0588 Y-0.0079 Z-0.5377 I-0.0588 J-0.0079
X0.0588 Y0.0079 Z-0.5442 I0.0588 J0.0079
X-0.0588 Y-0.0079 Z-0.5507 I-0.0588 J-0.0079
X0.0588 Y0.0079 Z-0.5572 I0.0588 J0.0079
X-0.0588 Y-0.0079 Z-0.5638 I-0.0588 J-0.0079
X0.0593 Y0 Z-0.57 I0.0588 J0.0079
X-0.0593 I-0.0593 J0
X0.0593 I0.0593 J0
G1 X0.0595 Y0.0053 F72
X0.0598 Y0.0072
Y0.0091
X0.0596 Y0.0109
X0.0585 Y0.0173
X0.0579 Y0.0202
X0.0573 Y0.0217
X0.0566 Y0.0231
X0.0492 Y0.036
X0.0479 Y0.0382
X0.047 Y0.0394
X0.0459 Y0.0405
X0.0434 Y0.0427
X0.0322 Y0.052
X0.0318 Y0.0523
X0.0304 Y0.0532
X0.0289 Y0.0539
X0.0145 Y0.0592
X0.0116 Y0.0602
X0.0101 Y0.0605
X0.0087 Y0.0606
X-0.0087
X-0.0101 Y0.0605
X-0.0116 Y0.0602
X-0.0145 Y0.0592
X-0.0289 Y0.0539
X-0.0304 Y0.0532
X-0.0318 Y0.0523
X-0.0322 Y0.052
X-0.0434 Y0.0427
X-0.0459 Y0.0405
X-0.047 Y0.0394
X-0.0479 Y0.0382
X-0.0499 Y0.0347
X-0.0566 Y0.0231
X-0.0573 Y0.0217
X-0.0579 Y0.0202
X-0.0585 Y0.0173
X-0.0612 Y0.0022
X-0.0613 Y0
X-0.0612 Y-0.0022
X-0.0585 Y-0.0173
X-0.0579 Y-0.0202
X-0.0573 Y-0.0217
X-0.0566 Y-0.0231
X-0.0492 Y-0.036
X-0.0479 Y-0.0382
X-0.047 Y-0.0394
X-0.0459 Y-0.0405
X-0.0434 Y-0.0427
X-0.0322 Y-0.052
X-0.0318 Y-0.0523
X-0.0304 Y-0.0532
X-0.0289 Y-0.0539
X-0.0145 Y-0.0592
X-0.0116 Y-0.0602
X-0.0101 Y-0.0605
X-0.0087 Y-0.0606
X0.0087
X0.0101 Y-0.0605
X0.0116 Y-0.0602
X0.0145 Y-0.0592
X0.0289 Y-0.0539
X0.0304 Y-0.0532
X0.0318 Y-0.0523
X0.0322 Y-0.052
X0.0434 Y-0.0427
X0.0459 Y-0.0405
X0.047 Y-0.0394
X0.0479 Y-0.0382
X0.0499 Y-0.0347
X0.0566 Y-0.0231
X0.0573 Y-0.0217
X0.0579 Y-0.0202
X0.0585 Y-0.0173
X0.0612 Y-0.0022
X0.0613 Y0
X0.0612 Y0.0022
X0.0596 Y0.0109
G3 X0.046 Y0.0207 I-0.0122 J-0.0026
G1 X0.044 Y0.02 Z-0.5698
X0.042 Y0.0192 Z-0.5692
X0.0402 Y0.0186 Z-0.5683
X0.039 Y0.0171 Z-0.5669
X0.0379 Y0.0158 Z-0.5652
X0.0371 Y0.0149 Z-0.5632
X0.0365 Y0.0142 Z-0.561
X0.0362 Y0.0139 Z-0.5586
Y0.0138 Z-0.5575
G0 Z-0.19
X0.0588 Y0.0079
Z-0.47
G3 X-0.0588 Y-0.0079 Z-0.4765 I-0.0588 J-0.0079 F32
X0.0588 Y0.0079 Z-0.483 I0.0588 J0.0079
X-0.0588 Y-0.0079 Z-0.4895 I-0.0588 J-0.0079
X0.0588 Y0.0079 Z-0.4961 I0.0588 J0.0079
X-0.0588 Y-0.0079 Z-0.5026 I-0.0588 J-0.0079
X0.0588 Y0.0079 Z-0.5091 I0.0588 J0.0079
X-0.0588 Y-0.0079 Z-0.5156 I-0.0588 J-0.0079
X0.0588 Y0.0079 Z-0.5221 I0.0588 J0.0079
X-0.0588 Y-0.0079 Z-0.5286 I-0.0588 J-0.0079
X0.0588 Y0.0079 Z-0.5351 I0.0588 J0.0079
X-0.0588 Y-0.0079 Z-0.5417 I-0.0588 J-0.0079
X0.0588 Y0.0079 Z-0.5482 I0.0588 J0.0079
X-0.0588 Y-0.0079 Z-0.5547 I-0.0588 J-0.0079
X0.0588 Y0.0079 Z-0.5612 I0.0588 J0.0079
X-0.0588 Y-0.0079 Z-0.5677 I-0.0588 J-0.0079
X0.0588 Y0.0079 Z-0.5742 I0.0588 J0.0079
X-0.0588 Y-0.0079 Z-0.5807 I-0.0588 J-0.0079
X0.0588 Y0.0079 Z-0.5872 I0.0588 J0.0079
X-0.0588 Y-0.0079 Z-0.5938 I-0.0588 J-0.0079
X0.0593 Y0 Z-0.6 I0.0588 J0.0079
X-0.0593 I-0.0593 J0
X0.0593 I0.0593 J0
G1 X0.0595 Y0.0053 F72
X0.0598 Y0.0072
Y0.0091
X0.0596 Y0.0109
X0.0585 Y0.0173
X0.0579 Y0.0202
X0.0573 Y0.0217
X0.0566 Y0.0231
X0.0492 Y0.036
X0.0479 Y0.0382
X0.047 Y0.0394
X0.0459 Y0.0405
X0.0434 Y0.0427
X0.0322 Y0.052
X0.0318 Y0.0523
X0.0304 Y0.0532
X0.0289 Y0.0539
X0.0145 Y0.0592
X0.0116 Y0.0602
X0.0101 Y0.0605
X0.0087 Y0.0606
X-0.0087
X-0.0101 Y0.0605
X-0.0116 Y0.0602
X-0.0145 Y0.0592
X-0.0289 Y0.0539
X-0.0304 Y0.0532
X-0.0318 Y0.0523
X-0.0322 Y0.052
X-0.0434 Y0.0427
X-0.0459 Y0.0405
X-0.047 Y0.0394
X-0.0479 Y0.0382
X-0.0499 Y0.0347
X-0.0566 Y0.0231
X-0.0573 Y0.0217
X-0.0579 Y0.0202
X-0.0585 Y0.0173
X-0.0612 Y0.0022
X-0.0613 Y0
X-0.0612 Y-0.0022
X-0.0585 Y-0.0173
X-0.0579 Y-0.0202
X-0.0573 Y-0.0217
X-0.0566 Y-0.0231
X-0.0492 Y-0.036
X-0.0479 Y-0.0382
X-0.047 Y-0.0394
X-0.0459 Y-0.0405
X-0.0434 Y-0.0427
X-0.0322 Y-0.052
X-0.0318 Y-0.0523
X-0.0304 Y-0.0532
X-0.0289 Y-0.0539
X-0.0145 Y-0.0592
X-0.0116 Y-0.0602
X-0.0101 Y-0.0605
X-0.0087 Y-0.0606
X0.0087
X0.0101 Y-0.0605
X0.0116 Y-0.0602
X0.0145 Y-0.0592
X0.0289 Y-0.0539
X0.0304 Y-0.0532
X0.0318 Y-0.0523
X0.0322 Y-0.052
X0.0434 Y-0.0427
X0.0459 Y-0.0405
X0.047 Y-0.0394
X0.0479 Y-0.0382
X0.0499 Y-0.0347
X0.0566 Y-0.0231
X0.0573 Y-0.0217
X0.0579 Y-0.0202
X0.0585 Y-0.0173
X0.0612 Y-0.0022
X0.0613 Y0
X0.0612 Y0.0022
X0.0596 Y0.0109
G3 X0.046 Y0.0207 I-0.0122 J-0.0026
G1 X0.044 Y0.02 Z-0.5998
X0.042 Y0.0192 Z-0.5992
X0.0402 Y0.0186 Z-0.5983
X0.039 Y0.0171 Z-0.5969
X0.0379 Y0.0158 Z-0.5952
X0.0371 Y0.0149 Z-0.5932
X0.0365 Y0.0142 Z-0.591
X0.0362 Y0.0139 Z-0.5886
Y0.0138 Z-0.5875
G0 Z-0.19
X0.0588 Y0.0079
Z-0.5
G3 X-0.0588 Y-0.0079 Z-0.5065 I-0.0588 J-0.0079 F32
X0.0588 Y0.0079 Z-0.513 I0.0588 J0.0079
X-0.0588 Y-0.0079 Z-0.5195 I-0.0588 J-0.0079
X0.0588 Y0.0079 Z-0.5261 I0.0588 J0.0079
X-0.0588 Y-0.0079 Z-0.5326 I-0.0588 J-0.0079
X0.0588 Y0.0079 Z-0.5391 I0.0588 J0.0079
X-0.0588 Y-0.0079 Z-0.5456 I-0.0588 J-0.0079
X0.0588 Y0.0079 Z-0.5521 I0.0588 J0.0079
X-0.0588 Y-0.0079 Z-0.5586 I-0.0588 J-0.0079
X0.0588 Y0.0079 Z-0.5651 I0.0588 J0.0079
X-0.0588 Y-0.0079 Z-0.5717 I-0.0588 J-0.0079
X0.0588 Y0.0079 Z-0.5782 I0.0588 J0.0079
X-0.0588 Y-0.0079 Z-0.5847 I-0.0588 J-0.0079
X0.0588 Y0.0079 Z-0.5912 I0.0588 J0.0079
X-0.0588 Y-0.0079 Z-0.5977 I-0.0588 J-0.0079
X0.0588 Y0.0079 Z-0.6042 I0.0588 J0.0079
X-0.0588 Y-0.0079 Z-0.6107 I-0.0588 J-0.0079
X0.0588 Y0.0079 Z-0.6172 I0.0588 J0.0079
X-0.0588 Y-0.0079 Z-0.6238 I-0.0588 J-0.0079
X0.0593 Y0 Z-0.63 I0.0588 J0.0079
X-0.0593 I-0.0593 J0
X0.0593 I0.0593 J0
G1 X0.0595 Y0.0053 F72
X0.0598 Y0.0072
Y0.0091
X0.0596 Y0.0109
X0.0585 Y0.0173
X0.0579 Y0.0202
X0.0573 Y0.0217
X0.0566 Y0.0231
X0.0492 Y0.036
X0.0479 Y0.0382
X0.047 Y0.0394
X0.0459 Y0.0405
X0.0434 Y0.0427
X0.0322 Y0.052
X0.0318 Y0.0523
X0.0304 Y0.0532
X0.0289 Y0.0539
X0.0145 Y0.0592
X0.0116 Y0.0602
X0.0101 Y0.0605
X0.0087 Y0.0606
X-0.0087
X-0.0101 Y0.0605
X-0.0116 Y0.0602
X-0.0145 Y0.0592
X-0.0289 Y0.0539
X-0.0304 Y0.0532
X-0.0318 Y0.0523
X-0.0322 Y0.052
X-0.0434 Y0.0427
X-0.0459 Y0.0405
X-0.047 Y0.0394
X-0.0479 Y0.0382
X-0.0499 Y0.0347
X-0.0566 Y0.0231
X-0.0573 Y0.0217
X-0.0579 Y0.0202
X-0.0585 Y0.0173
X-0.0612 Y0.0022
X-0.0613 Y0
X-0.0612 Y-0.0022
X-0.0585 Y-0.0173
X-0.0579 Y-0.0202
X-0.0573 Y-0.0217
X-0.0566 Y-0.0231
X-0.0492 Y-0.036
X-0.0479 Y-0.0382
X-0.047 Y-0.0394
X-0.0459 Y-0.0405
X-0.0434 Y-0.0427
X-0.0322 Y-0.052
X-0.0318 Y-0.0523
X-0.0304 Y-0.0532
X-0.0289 Y-0.0539
X-0.0145 Y-0.0592
X-0.0116 Y-0.0602
X-0.0101 Y-0.0605
X-0.0087 Y-0.0606
X0.0087
X0.0101 Y-0.0605
X0.0116 Y-0.0602
X0.0145 Y-0.0592
X0.0289 Y-0.0539
X0.0304 Y-0.0532
X0.0318 Y-0.0523
X0.0322 Y-0.052
X0.0434 Y-0.0427
X0.0459 Y-0.0405
X0.047 Y-0.0394
X0.0479 Y-0.0382
X0.0499 Y-0.0347
X0.0566 Y-0.0231
X0.0573 Y-0.0217
X0.0579 Y-0.0202
X0.0585 Y-0.0173
X0.0612 Y-0.0022
X0.0613 Y0
X0.0612 Y0.0022
X0.0596 Y0.0109
G3 X0.046 Y0.0207 I-0.0122 J-0.0026
G1 X0.044 Y0.02 Z-0.6298
X0.042 Y0.0192 Z-0.6292
X0.0402 Y0.0186 Z-0.6283
X0.039 Y0.0171 Z-0.6269
X0.0379 Y0.0158 Z-0.6252
X0.0371 Y0.0149 Z-0.6232
X0.0365 Y0.0142 Z-0.621
X0.0362 Y0.0139 Z-0.6186
Y0.0138 Z-0.6175
G0 Z-0.19
X0.0588 Y0.0079
Z-0.53
G3 X-0.0588 Y-0.0079 Z-0.5365 I-0.0588 J-0.0079 F32
X0.0588 Y0.0079 Z-0.543 I0.0588 J0.0079
X-0.0588 Y-0.0079 Z-0.5495 I-0.0588 J-0.0079
X0.0588 Y0.0079 Z-0.5561 I0.0588 J0.0079
X-0.0588 Y-0.0079 Z-0.5626 I-0.0588 J-0.0079
X0.0588 Y0.0079 Z-0.5691 I0.0588 J0.0079
X-0.0588 Y-0.0079 Z-0.5756 I-0.0588 J-0.0079
X0.0588 Y0.0079 Z-0.5821 I0.0588 J0.0079
X-0.0588 Y-0.0079 Z-0.5886 I-0.0588 J-0.0079
X0.0588 Y0.0079 Z-0.5951 I0.0588 J0.0079
X-0.0588 Y-0.0079 Z-0.6017 I-0.0588 J-0.0079
X0.0588 Y0.0079 Z-0.6082 I0.0588 J0.0079
X-0.0588 Y-0.0079 Z-0.6147 I-0.0588 J-0.0079
X0.0588 Y0.0079 Z-0.6212 I0.0588 J0.0079
X-0.0588 Y-0.0079 Z-0.6277 I-0.0588 J-0.0079
X0.0588 Y0.0079 Z-0.6342 I0.0588 J0.0079
X-0.0588 Y-0.0079 Z-0.6407 I-0.0588 J-0.0079
X0.0588 Y0.0079 Z-0.6472 I0.0588 J0.0079
X-0.0588 Y-0.0079 Z-0.6538 I-0.0588 J-0.0079
X0.0593 Y0 Z-0.66 I0.0588 J0.0079
X-0.0593 I-0.0593 J0
X0.0593 I0.0593 J0
G1 X0.0595 Y0.0053 F72
X0.0598 Y0.0072
Y0.0091
X0.0596 Y0.0109
X0.0585 Y0.0173
X0.0579 Y0.0202
X0.0573 Y0.0217
X0.0566 Y0.0231
X0.0492 Y0.036
X0.0479 Y0.0382
X0.047 Y0.0394
X0.0459 Y0.0405
X0.0434 Y0.0427
X0.0322 Y0.052
X0.0318 Y0.0523
X0.0304 Y0.0532
X0.0289 Y0.0539
X0.0145 Y0.0592
X0.0116 Y0.0602
X0.0101 Y0.0605
X0.0087 Y0.0606
X-0.0087
X-0.0101 Y0.0605
X-0.0116 Y0.0602
X-0.0145 Y0.0592
X-0.0289 Y0.0539
X-0.0304 Y0.0532
X-0.0318 Y0.0523
X-0.0322 Y0.052
X-0.0434 Y0.0427
X-0.0459 Y0.0405
X-0.047 Y0.0394
X-0.0479 Y0.0382
X-0.0499 Y0.0347
X-0.0566 Y0.0231
X-0.0573 Y0.0217
X-0.0579 Y0.0202
X-0.0585 Y0.0173
X-0.0612 Y0.0022
X-0.0613 Y0
X-0.0612 Y-0.0022
X-0.0585 Y-0.0173
X-0.0579 Y-0.0202
X-0.0573 Y-0.0217
X-0.0566 Y-0.0231
X-0.0492 Y-0.036
X-0.0479 Y-0.0382
X-0.047 Y-0.0394
X-0.0459 Y-0.0405
X-0.0434 Y-0.0427
X-0.0322 Y-0.052
X-0.0318 Y-0.0523
X-0.0304 Y-0.0532
X-0.0289 Y-0.0539
X-0.0145 Y-0.0592
X-0.0116 Y-0.0602
X-0.0101 Y-0.0605
X-0.0087 Y-0.0606
X0.0087
X0.0101 Y-0.0605
X0.0116 Y-0.0602
X0.0145 Y-0.0592
X0.0289 Y-0.0539
X0.0304 Y-0.0532
X0.0318 Y-0.0523
X0.0322 Y-0.052
X0.0434 Y-0.0427
X0.0459 Y-0.0405
X0.047 Y-0.0394
X0.0479 Y-0.0382
X0.0499 Y-0.0347
X0.0566 Y-0.0231
X0.0573 Y-0.0217
X0.0579 Y-0.0202
X0.0585 Y-0.0173
X0.0612 Y-0.0022
X0.0613 Y0
X0.0612 Y0.0022
X0.0596 Y0.0109
G3 X0.046 Y0.0207 I-0.0122 J-0.0026
G1 X0.044 Y0.02 Z-0.6598
X0.042 Y0.0192 Z-0.6592
X0.0402 Y0.0186 Z-0.6583
X0.039 Y0.0171 Z-0.6569
X0.0379 Y0.0158 Z-0.6552
X0.0371 Y0.0149 Z-0.6532
X0.0365 Y0.0142 Z-0.651
X0.0362 Y0.0139 Z-0.6486
Y0.0138 Z-0.6475
G0 Z-0.19
X0.0588 Y0.0079
Z-0.56
G3 X-0.0588 Y-0.0079 Z-0.5665 I-0.0588 J-0.0079 F32
X0.0588 Y0.0079 Z-0.573 I0.0588 J0.0079
X-0.0588 Y-0.0079 Z-0.5795 I-0.0588 J-0.0079
X0.0588 Y0.0079 Z-0.5861 I0.0588 J0.0079
X-0.0588 Y-0.0079 Z-0.5926 I-0.0588 J-0.0079
X0.0588 Y0.0079 Z-0.5991 I0.0588 J0.0079
X-0.0588 Y-0.0079 Z-0.6056 I-0.0588 J-0.0079
X0.0588 Y0.0079 Z-0.6121 I0.0588 J0.0079
X-0.0588 Y-0.0079 Z-0.6186 I-0.0588 J-0.0079
X0.0588 Y0.0079 Z-0.6251 I0.0588 J0.0079
X-0.0588 Y-0.0079 Z-0.6317 I-0.0588 J-0.0079
X0.0588 Y0.0079 Z-0.6382 I0.0588 J0.0079
X-0.0588 Y-0.0079 Z-0.6447 I-0.0588 J-0.0079
X0.0588 Y0.0079 Z-0.6512 I0.0588 J0.0079
X-0.0588 Y-0.0079 Z-0.6577 I-0.0588 J-0.0079
X0.0588 Y0.0079 Z-0.6642 I0.0588 J0.0079
X-0.0588 Y-0.0079 Z-0.6707 I-0.0588 J-0.0079
X0.0588 Y0.0079 Z-0.6772 I0.0588 J0.0079
X-0.0588 Y-0.0079 Z-0.6838 I-0.0588 J-0.0079
X0.0593 Y0 Z-0.69 I0.0588 J0.0079
X-0.0593 I-0.0593 J0
X0.0593 I0.0593 J0
G1 X0.0595 Y0.0053 F72
X0.0598 Y0.0072
Y0.0091
X0.0596 Y0.0109
X0.0585 Y0.0173
X0.0579 Y0.0202
X0.0573 Y0.0217
X0.0566 Y0.0231
X0.0492 Y0.036
X0.0479 Y0.0382
X0.047 Y0.0394
X0.0459 Y0.0405
X0.0434 Y0.0427
X0.0322 Y0.052
X0.0318 Y0.0523
X0.0304 Y0.0532
X0.0289 Y0.0539
X0.0145 Y0.0592
X0.0116 Y0.0602
X0.0101 Y0.0605
X0.0087 Y0.0606
X-0.0087
X-0.0101 Y0.0605
X-0.0116 Y0.0602
X-0.0145 Y0.0592
X-0.0289 Y0.0539
X-0.0304 Y0.0532
X-0.0318 Y0.0523
X-0.0322 Y0.052
X-0.0434 Y0.0427
X-0.0459 Y0.0405
X-0.047 Y0.0394
X-0.0479 Y0.0382
X-0.0499 Y0.0347
X-0.0566 Y0.0231
X-0.0573 Y0.0217
X-0.0579 Y0.0202
X-0.0585 Y0.0173
X-0.0612 Y0.0022
X-0.0613 Y0
X-0.0612 Y-0.0022
X-0.0585 Y-0.0173
X-0.0579 Y-0.0202
X-0.0573 Y-0.0217
X-0.0566 Y-0.0231
X-0.0492 Y-0.036
X-0.0479 Y-0.0382
X-0.047 Y-0.0394
X-0.0459 Y-0.0405
X-0.0434 Y-0.0427
X-0.0322 Y-0.052
X-0.0318 Y-0.0523
X-0.0304 Y-0.0532
X-0.0289 Y-0.0539
X-0.0145 Y-0.0592
X-0.0116 Y-0.0602
X-0.0101 Y-0.0605
X-0.0087 Y-0.0606
X0.0087
X0.0101 Y-0.0605
X0.0116 Y-0.0602
X0.0145 Y-0.0592
X0.0289 Y-0.0539
X0.0304 Y-0.0532
X0.0318 Y-0.0523
X0.0322 Y-0.052
X0.0434 Y-0.0427
X0.0459 Y-0.0405
X0.047 Y-0.0394
X0.0479 Y-0.0382
X0.0499 Y-0.0347
X0.0566 Y-0.0231
X0.0573 Y-0.0217
X0.0579 Y-0.0202
X0.0585 Y-0.0173
X0.0612 Y-0.0022
X0.0613 Y0
X0.0612 Y0.0022
X0.0596 Y0.0109
G3 X0.046 Y0.0207 I-0.0122 J-0.0026
G1 X0.044 Y0.02 Z-0.6898
X0.042 Y0.0192 Z-0.6892
X0.0402 Y0.0186 Z-0.6883
X0.039 Y0.0171 Z-0.6869
X0.0379 Y0.0158 Z-0.6852
X0.0371 Y0.0149 Z-0.6832
X0.0365 Y0.0142 Z-0.681
X0.0362 Y0.0139 Z-0.6786
Y0.0138 Z-0.6775
G0 Z-0.19
X0.0588 Y0.0079
Z-0.59
G3 X-0.0588 Y-0.0079 Z-0.5965 I-0.0588 J-0.0079 F32
X0.0588 Y0.0079 Z-0.603 I0.0588 J0.0079
X-0.0588 Y-0.0079 Z-0.6095 I-0.0588 J-0.0079
X0.0588 Y0.0079 Z-0.6161 I0.0588 J0.0079
X-0.0588 Y-0.0079 Z-0.6226 I-0.0588 J-0.0079
X0.0588 Y0.0079 Z-0.6291 I0.0588 J0.0079
X-0.0588 Y-0.0079 Z-0.6356 I-0.0588 J-0.0079
X0.0588 Y0.0079 Z-0.6421 I0.0588 J0.0079
X-0.0588 Y-0.0079 Z-0.6486 I-0.0588 J-0.0079
X0.0588 Y0.0079 Z-0.6551 I0.0588 J0.0079
X-0.0588 Y-0.0079 Z-0.6617 I-0.0588 J-0.0079
X0.0588 Y0.0079 Z-0.6682 I0.0588 J0.0079
X-0.0588 Y-0.0079 Z-0.6747 I-0.0588 J-0.0079
X0.0588 Y0.0079 Z-0.6812 I0.0588 J0.0079
X-0.0588 Y-0.0079 Z-0.6877 I-0.0588 J-0.0079
X0.0588 Y0.0079 Z-0.6942 I0.0588 J0.0079
X-0.0588 Y-0.0079 Z-0.7007 I-0.0588 J-0.0079
X0.0588 Y0.0079 Z-0.7072 I0.0588 J0.0079
X-0.0588 Y-0.0079 Z-0.7138 I-0.0588 J-0.0079
X0.0593 Y0 Z-0.72 I0.0588 J0.0079
X-0.0593 I-0.0593 J0
X0.0593 I0.0593 J0
G1 X0.0595 Y0.0053 F72
X0.0598 Y0.0072
Y0.0091
X0.0596 Y0.0109
X0.0585 Y0.0173
X0.0579 Y0.0202
X0.0573 Y0.0217
X0.0566 Y0.0231
X0.0492 Y0.036
X0.0479 Y0.0382
X0.047 Y0.0394
X0.0459 Y0.0405
X0.0434 Y0.0427
X0.0322 Y0.052
X0.0318 Y0.0523
X0.0304 Y0.0532
X0.0289 Y0.0539
X0.0145 Y0.0592
X0.0116 Y0.0602
X0.0101 Y0.0605
X0.0087 Y0.0606
X-0.0087
X-0.0101 Y0.0605
X-0.0116 Y0.0602
X-0.0145 Y0.0592
X-0.0289 Y0.0539
X-0.0304 Y0.0532
X-0.0318 Y0.0523
X-0.0322 Y0.052
X-0.0434 Y0.0427
X-0.0459 Y0.0405
X-0.047 Y0.0394
X-0.0479 Y0.0382
X-0.0499 Y0.0347
X-0.0566 Y0.0231
X-0.0573 Y0.0217
X-0.0579 Y0.0202
X-0.0585 Y0.0173
X-0.0612 Y0.0022
X-0.0613 Y0
X-0.0612 Y-0.0022
X-0.0585 Y-0.0173
X-0.0579 Y-0.0202
X-0.0573 Y-0.0217
X-0.0566 Y-0.0231
X-0.0492 Y-0.036
X-0.0479 Y-0.0382
X-0.047 Y-0.0394
X-0.0459 Y-0.0405
X-0.0434 Y-0.0427
X-0.0322 Y-0.052
X-0.0318 Y-0.0523
X-0.0304 Y-0.0532
X-0.0289 Y-0.0539
X-0.0145 Y-0.0592
X-0.0116 Y-0.0602
X-0.0101 Y-0.0605
X-0.0087 Y-0.0606
X0.0087
X0.0101 Y-0.0605
X0.0116 Y-0.0602
X0.0145 Y-0.0592
X0.0289 Y-0.0539
X0.0304 Y-0.0532
X0.0318 Y-0.0523
X0.0322 Y-0.052
X0.0434 Y-0.0427
X0.0459 Y-0.0405
X0.047 Y-0.0394
X0.0479 Y-0.0382
X0.0499 Y-0.0347
X0.0566 Y-0.0231
X0.0573 Y-0.0217
X0.0579 Y-0.0202
X0.0585 Y-0.0173
X0.0612 Y-0.0022
X0.0613 Y0
X0.0612 Y0.0022
X0.0596 Y0.0109
G3 X0.046 Y0.0207 I-0.0122 J-0.0026
G1 X0.044 Y0.02 Z-0.7198
X0.042 Y0.0192 Z-0.7192
X0.0402 Y0.0186 Z-0.7183
X0.039 Y0.0171 Z-0.7169
X0.0379 Y0.0158 Z-0.7152
X0.0371 Y0.0149 Z-0.7132
X0.0365 Y0.0142 Z-0.711
X0.0362 Y0.0139 Z-0.7086
Y0.0138 Z-0.7075
G0 Z-0.19
X0.0588 Y0.0079
Z-0.62
G3 X-0.0588 Y-0.0079 Z-0.6265 I-0.0588 J-0.0079 F32
X0.0588 Y0.0079 Z-0.633 I0.0588 J0.0079
X-0.0588 Y-0.0079 Z-0.6395 I-0.0588 J-0.0079
X0.0588 Y0.0079 Z-0.6461 I0.0588 J0.0079
X-0.0588 Y-0.0079 Z-0.6526 I-0.0588 J-0.0079
X0.0588 Y0.0079 Z-0.6591 I0.0588 J0.0079
X-0.0588 Y-0.0079 Z-0.6656 I-0.0588 J-0.0079
X0.0588 Y0.0079 Z-0.6721 I0.0588 J0.0079
X-0.0588 Y-0.0079 Z-0.6786 I-0.0588 J-0.0079
X0.0588 Y0.0079 Z-0.6851 I0.0588 J0.0079
X-0.0588 Y-0.0079 Z-0.6917 I-0.0588 J-0.0079
X0.0588 Y0.0079 Z-0.6982 I0.0588 J0.0079
X-0.0588 Y-0.0079 Z-0.7047 I-0.0588 J-0.0079
X0.0588 Y0.0079 Z-0.7112 I0.0588 J0.0079
X-0.0588 Y-0.0079 Z-0.7177 I-0.0588 J-0.0079
X0.0588 Y0.0079 Z-0.7242 I0.0588 J0.0079
X-0.0588 Y-0.0079 Z-0.7307 I-0.0588 J-0.0079
X0.0588 Y0.0079 Z-0.7372 I0.0588 J0.0079
X-0.0588 Y-0.0079 Z-0.7438 I-0.0588 J-0.0079
X0.0593 Y0 Z-0.75 I0.0588 J0.0079
X-0.0593 I-0.0593 J0
X0.0593 I0.0593 J0
G1 X0.0595 Y0.0053 F72
X0.0598 Y0.0072
Y0.0091
X0.0596 Y0.0109
X0.0585 Y0.0173
X0.0579 Y0.0202
X0.0573 Y0.0217
X0.0566 Y0.0231
X0.0492 Y0.036
X0.0479 Y0.0382
X0.047 Y0.0394
X0.0459 Y0.0405
X0.0434 Y0.0427
X0.0322 Y0.052
X0.0318 Y0.0523
X0.0304 Y0.0532
X0.0289 Y0.0539
X0.0145 Y0.0592
X0.0116 Y0.0602
X0.0101 Y0.0605
X0.0087 Y0.0606
X-0.0087
X-0.0101 Y0.0605
X-0.0116 Y0.0602
X-0.0145 Y0.0592
X-0.0289 Y0.0539
X-0.0304 Y0.0532
X-0.0318 Y0.0523
X-0.0322 Y0.052
X-0.0434 Y0.0427
X-0.0459 Y0.0405
X-0.047 Y0.0394
X-0.0479 Y0.0382
X-0.0499 Y0.0347
